(modified by me to make it PCB laser marking instead of milling)
(G-CODE GENERATED BY FLATCAM v8.994 - www.flatcam.org - Version Date: 2020/11/7)

(Name: unipolar stepper driver-F_Cu.gbr_iso_combined_cnc)
(Type: G-code from Geometry)
(Units: MM)

(Created on Thursday, 20 July 2023 at 23:14)

(This preprocessor is the default preprocessor used by FlatCAM.)
(It is made to work with MACH3 compatible motion controllers.)

(TOOL DIAMETER: 0.1 mm)
(Feedrate_XY: 100.0 mm/min)
(Feedrate_Z: 60.0 mm/min)
(Feedrate rapids 1500.0 mm/min)

(Z_Cut: 0.0 mm)
(Z_Move: 2.0 mm)
(Z Start: None mm)
(Z End: 15.0 mm)
(X,Y End: None mm)
(Steps per circle: 64)
(Preprocessor Geometry: default)

(X range:    0.9500 ...   53.2200  mm)
(Y range:    0.9680 ...   29.4040  mm)

(Spindle Speed: 0.0 RPM)
G21
G90
G94

G01 F100
S200
G00 Z16

G00 X2.0952 Y2.8979
M3
G01 X2.0537 Y2.9186
G01 X2.0406 Y2.9246
G01 X2.0323 Y2.9279
G01 X2.0125 Y2.9344
G01 X1.9961 Y2.9383
G01 X1.9874 Y2.9400
G01 X1.9654 Y2.9426
G01 X1.9486 Y2.9432
G01 X1.8057 Y2.9432
G01 X1.7836 Y2.9421
G01 X1.7570 Y2.9381
G01 X1.7367 Y2.9329
G01 X1.7148 Y2.9251
G01 X1.6937 Y2.9151
G01 X1.6758 Y2.9044
G01 X1.6531 Y2.8876
G01 X1.6377 Y2.8736
G01 X1.6221 Y2.8563
G01 X1.6082 Y2.8376
G01 X1.5974 Y2.8197
G01 X1.5853 Y2.7942
G01 X1.5784 Y2.7745
G01 X1.5727 Y2.7519
G01 X1.5693 Y2.7289
G01 X1.5682 Y2.7080
G01 X1.5694 Y2.6811
G01 X1.5727 Y2.6592
G01 X1.5791 Y2.6343
G01 X1.5872 Y2.6124
G01 X1.5962 Y2.5936
G01 X1.6069 Y2.5756
G01 X1.6221 Y2.5548
G01 X1.6377 Y2.5376
G01 X1.6550 Y2.5219
G01 X1.6737 Y2.5080
G01 X1.6937 Y2.4960
G01 X1.7148 Y2.4861
G01 X1.7367 Y2.4782
G01 X1.7606 Y2.4723
G01 X1.7824 Y2.4691
G01 X1.8045 Y2.4680
G01 X1.8925 Y2.4680
G01 X1.9507 Y2.4389
G01 X1.9676 Y2.4220
G01 X1.9967 Y2.3638
G01 X1.9967 Y1.7043
G01 X1.9978 Y1.6823
G01 X2.0008 Y1.6616
G01 X2.0069 Y1.6366
G01 X2.0148 Y1.6146
G01 X2.0236 Y1.5958
G01 X2.0381 Y1.5716
G01 X2.0506 Y1.5548
G01 X2.0663 Y1.5376
G01 X2.0836 Y1.5219
G01 X2.1023 Y1.5080
G01 X2.1223 Y1.4960
G01 X2.1434 Y1.4861
G01 X2.1653 Y1.4782
G01 X2.1855 Y1.4731
G01 X2.2134 Y1.4689
G01 X2.2343 Y1.4680
G01 X2.2588 Y1.4693
G01 X2.2806 Y1.4725
G01 X2.3009 Y1.4776
G01 X2.3275 Y1.4871
G01 X2.3463 Y1.4960
G01 X2.3663 Y1.5080
G01 X2.3850 Y1.5219
G01 X2.4005 Y1.5359
G01 X2.4195 Y1.5568
G01 X2.4318 Y1.5736
G01 X2.4438 Y1.5936
G01 X2.4538 Y1.6146
G01 X2.4609 Y1.6343
G01 X2.4675 Y1.6604
G01 X2.4707 Y1.6823
G01 X2.4719 Y1.7056
G01 X2.4719 Y2.7056
G01 X2.4706 Y2.7301
G01 X2.4668 Y2.7543
G01 X2.4616 Y2.7745
G01 X2.4547 Y2.7942
G01 X2.4438 Y2.8176
G01 X2.4304 Y2.8396
G01 X2.4179 Y2.8563
G01 X2.4040 Y2.8718
G01 X2.3850 Y2.8892
G01 X2.3642 Y2.9044
G01 X2.3463 Y2.9151
G01 X2.3263 Y2.9246
G01 X2.3009 Y2.9336
G01 X2.2806 Y2.9386
G01 X2.2600 Y2.9417
G01 X2.2343 Y2.9432
G01 X2.2098 Y2.9419
G01 X2.1879 Y2.9386
G01 X2.1677 Y2.9336
G01 X2.1445 Y2.9255
G01 X2.1212 Y2.9145
G01 X2.1033 Y2.9038
G01 X2.0952 Y2.8979
M5
G00 X3.8290 Y2.4913
M3
G01 X3.8279 Y2.5146
G01 X3.8245 Y2.5376
G01 X3.8188 Y2.5603
G01 X3.8138 Y2.5750
G01 X3.8105 Y2.5833
G01 X3.8039 Y2.5975
G01 X3.7325 Y2.7404
G01 X3.7270 Y2.7507
G01 X3.7211 Y2.7607
G01 X3.7139 Y2.7715
G01 X3.7077 Y2.7798
G01 X3.6995 Y2.7898
G01 X3.6925 Y2.7975
G01 X3.6834 Y2.8067
G01 X3.6757 Y2.8136
G01 X3.6666 Y2.8211
G01 X3.6563 Y2.8287
G01 X3.6466 Y2.8352
G01 X3.6377 Y2.8406
G01 X3.6263 Y2.8467
G01 X3.4823 Y2.9186
G01 X3.4632 Y2.9270
G01 X3.4473 Y2.9326
G01 X3.4387 Y2.9350
G01 X3.4247 Y2.9383
G01 X3.4159 Y2.9400
G01 X3.3952 Y2.9425
G01 X3.3784 Y2.9432
G01 X3.0914 Y2.9432
G01 X3.0694 Y2.9421
G01 X3.0514 Y2.9398
G01 X3.0299 Y2.9350
G01 X3.0213 Y2.9326
G01 X3.0016 Y2.9255
G01 X2.9863 Y2.9186
G01 X2.8412 Y2.8461
G01 X2.8309 Y2.8406
G01 X2.8220 Y2.8352
G01 X2.8112 Y2.8280
G01 X2.8019 Y2.8211
G01 X2.7929 Y2.8136
G01 X2.7852 Y2.8067
G01 X2.7761 Y2.7975
G01 X2.7691 Y2.7898
G01 X2.7609 Y2.7798
G01 X2.7547 Y2.7715
G01 X2.7475 Y2.7607
G01 X2.7422 Y2.7518
G01 X2.7361 Y2.7404
G01 X2.6641 Y2.5964
G01 X2.6557 Y2.5773
G01 X2.6502 Y2.5614
G01 X2.6477 Y2.5529
G01 X2.6441 Y2.5376
G01 X2.6407 Y2.5146
G01 X2.6396 Y2.4925
G01 X2.6395 Y2.3484
G01 X2.6407 Y2.3252
G01 X2.6441 Y2.3021
G01 X2.6505 Y2.2771
G01 X2.6576 Y2.2575
G01 X2.6664 Y2.2388
G01 X2.6795 Y2.2166
G01 X2.6933 Y2.1979
G01 X2.7073 Y2.1824
G01 X2.7109 Y2.1787
G01 X2.7283 Y2.1633
G01 X2.7451 Y2.1509
G01 X2.7649 Y2.1390
G01 X2.7860 Y2.1290
G01 X2.8056 Y2.1219
G01 X2.8305 Y2.1154
G01 X3.3538 Y2.0108
G01 X3.3538 Y1.9759
G01 X3.3429 Y1.9541
G01 X3.3211 Y1.9432
G01 X3.1475 Y1.9432
G01 X3.0548 Y1.9895
G01 X3.0346 Y1.9984
G01 X3.0113 Y2.0062
G01 X2.9861 Y2.0116
G01 X2.9654 Y2.0140
G01 X2.9421 Y2.0145
G01 X2.9189 Y2.0127
G01 X2.8983 Y2.0092
G01 X2.8711 Y2.0016
G01 X2.8517 Y1.9940
G01 X2.8298 Y1.9828
G01 X2.8112 Y1.9709
G01 X2.7911 Y1.9548
G01 X2.7761 Y1.9404
G01 X2.7624 Y1.9246
G01 X2.7489 Y1.9056
G01 X2.7361 Y1.8833
G01 X2.7267 Y1.8619
G01 X2.7194 Y1.8398
G01 X2.7144 Y1.8170
G01 X2.7116 Y1.7938
G01 X2.7111 Y1.7705
G01 X2.7128 Y1.7473
G01 X2.7175 Y1.7219
G01 X2.7240 Y1.6996
G01 X2.7316 Y1.6801
G01 X2.7410 Y1.6615
G01 X2.7547 Y1.6397
G01 X2.7683 Y1.6223
G01 X2.7852 Y1.6045
G01 X2.8010 Y1.5909
G01 X2.8230 Y1.5753
G01 X2.8423 Y1.5645
G01 X2.9852 Y1.4931
G01 X3.0065 Y1.4837
G01 X3.0287 Y1.4764
G01 X3.0514 Y1.4714
G01 X3.0669 Y1.4693
G01 X3.0758 Y1.4685
G01 X3.0914 Y1.4680
G01 X3.3771 Y1.4680
G01 X3.4004 Y1.4691
G01 X3.4235 Y1.4725
G01 X3.4387 Y1.4761
G01 X3.4473 Y1.4786
G01 X3.4669 Y1.4856
G01 X3.4823 Y1.4925
G01 X3.6273 Y1.5651
G01 X3.6377 Y1.5706
G01 X3.6466 Y1.5759
G01 X3.6573 Y1.5831
G01 X3.6666 Y1.5901
G01 X3.6757 Y1.5975
G01 X3.6834 Y1.6045
G01 X3.6925 Y1.6136
G01 X3.6995 Y1.6213
G01 X3.7077 Y1.6313
G01 X3.7139 Y1.6397
G01 X3.7211 Y1.6504
G01 X3.7270 Y1.6604
G01 X3.7325 Y1.6707
G01 X3.8039 Y1.8136
G01 X3.8105 Y1.8278
G01 X3.8138 Y1.8361
G01 X3.8188 Y1.8509
G01 X3.8242 Y1.8723
G01 X3.8256 Y1.8799
G01 X3.8280 Y1.8978
G01 X3.8290 Y1.9199
G01 X3.8290 Y2.4913
M5
G00 X5.0410 Y2.7381
M3
G01 X5.0362 Y2.7634
G01 X5.0285 Y2.7880
G01 X5.0204 Y2.8073
G01 X5.0106 Y2.8257
G01 X4.9965 Y2.8472
G01 X4.9800 Y2.8670
G01 X4.9652 Y2.8817
G01 X4.9491 Y2.8950
G01 X4.9277 Y2.9094
G01 X4.9072 Y2.9204
G01 X4.8833 Y2.9301
G01 X4.8633 Y2.9361
G01 X4.8429 Y2.9402
G01 X4.8172 Y2.9429
G01 X4.7939 Y2.9429
G01 X4.7707 Y2.9406
G01 X4.7455 Y2.9354
G01 X4.7233 Y2.9283
G01 X4.7040 Y2.9203
G01 X4.6856 Y2.9105
G01 X4.6621 Y2.8948
G01 X4.6461 Y2.8815
G01 X4.6296 Y2.8650
G01 X4.6134 Y2.8450
G01 X4.6019 Y2.8276
G01 X4.5909 Y2.8070
G01 X4.5820 Y2.7855
G01 X4.4486 Y2.4120
G01 X4.3152 Y2.7855
G01 X4.3068 Y2.8059
G01 X4.2953 Y2.8276
G01 X4.2808 Y2.8489
G01 X4.2676 Y2.8650
G01 X4.2529 Y2.8798
G01 X4.2331 Y2.8963
G01 X4.2137 Y2.9093
G01 X4.1931 Y2.9203
G01 X4.1716 Y2.9292
G01 X4.1469 Y2.9366
G01 X4.1264 Y2.9406
G01 X4.1008 Y2.9429
G01 X4.0799 Y2.9429
G01 X4.0591 Y2.9409
G01 X4.0362 Y2.9366
G01 X4.0115 Y2.9293
G01 X3.9900 Y2.9204
G01 X3.9694 Y2.9094
G01 X3.9500 Y2.8965
G01 X3.9320 Y2.8817
G01 X3.9155 Y2.8652
G01 X3.9007 Y2.8472
G01 X3.8871 Y2.8268
G01 X3.8767 Y2.8073
G01 X3.8670 Y2.7834
G01 X3.8605 Y2.7610
G01 X3.8564 Y2.7406
G01 X3.8543 Y2.7198
G01 X3.8541 Y2.6941
G01 X3.8564 Y2.6708
G01 X3.8609 Y2.6480
G01 X3.8673 Y2.6268
G01 X4.2258 Y1.6231
G01 X4.2338 Y1.6039
G01 X4.2447 Y1.5835
G01 X4.2577 Y1.5641
G01 X4.2708 Y1.5480
G01 X4.2871 Y1.5313
G01 X4.2910 Y1.5278
G01 X4.3071 Y1.5147
G01 X4.3276 Y1.5011
G01 X4.3471 Y1.4907
G01 X4.3686 Y1.4818
G01 X4.3909 Y1.4751
G01 X4.4138 Y1.4705
G01 X4.4370 Y1.4683
G01 X4.4603 Y1.4683
G01 X4.4835 Y1.4706
G01 X4.5064 Y1.4751
G01 X4.5287 Y1.4819
G01 X4.5503 Y1.4908
G01 X4.5708 Y1.5018
G01 X4.5902 Y1.5148
G01 X4.6082 Y1.5296
G01 X4.6247 Y1.5461
G01 X4.6395 Y1.5641
G01 X4.6530 Y1.5846
G01 X4.6634 Y1.6041
G01 X4.6722 Y1.6254
G01 X5.0299 Y2.6268
G01 X5.0362 Y2.6480
G01 X5.0411 Y2.6733
G01 X5.0431 Y2.6965
G01 X5.0430 Y2.7174
G01 X5.0410 Y2.7381
M5
G00 X5.2091 Y2.8947
M3
G01 X5.2207 Y2.8841
G01 X5.2083 Y2.8727
G01 X5.1927 Y2.8553
G01 X5.1796 Y2.8376
G01 X5.1670 Y2.8165
G01 X5.1576 Y2.7965
G01 X5.1498 Y2.7745
G01 X5.1441 Y2.7519
G01 X5.1405 Y2.7264
G01 X5.1396 Y2.7056
G01 X5.1396 Y1.7056
G01 X5.1408 Y1.6811
G01 X5.1441 Y1.6592
G01 X5.1498 Y1.6366
G01 X5.1576 Y1.6146
G01 X5.1676 Y1.5936
G01 X5.1796 Y1.5736
G01 X5.1935 Y1.5548
G01 X5.2091 Y1.5376
G01 X5.2264 Y1.5219
G01 X5.2451 Y1.5080
G01 X5.2651 Y1.4960
G01 X5.2862 Y1.4861
G01 X5.3082 Y1.4782
G01 X5.3308 Y1.4725
G01 X5.3539 Y1.4691
G01 X5.3771 Y1.4680
G01 X5.4017 Y1.4693
G01 X5.4235 Y1.4725
G01 X5.4437 Y1.4776
G01 X5.4703 Y1.4871
G01 X5.4891 Y1.4960
G01 X5.5091 Y1.5080
G01 X5.5279 Y1.5219
G01 X5.5434 Y1.5359
G01 X5.5623 Y1.5568
G01 X5.5747 Y1.5736
G01 X5.5867 Y1.5936
G01 X5.5967 Y1.6146
G01 X5.6037 Y1.6343
G01 X5.6104 Y1.6604
G01 X5.6136 Y1.6823
G01 X5.6147 Y1.7056
G01 X5.6147 Y2.7056
G01 X5.6137 Y2.7276
G01 X5.6102 Y2.7519
G01 X5.6045 Y2.7745
G01 X5.5967 Y2.7965
G01 X5.5872 Y2.8165
G01 X5.5747 Y2.8376
G01 X5.5616 Y2.8553
G01 X5.5460 Y2.8727
G01 X5.5336 Y2.8841
G01 X5.5451 Y2.8947
G01 X5.6174 Y2.9670
G01 X5.6322 Y2.9834
G01 X5.6474 Y3.0042
G01 X5.6581 Y3.0221
G01 X5.6671 Y3.0410
G01 X5.6759 Y3.0652
G01 X5.6820 Y3.0902
G01 X5.6850 Y3.1109
G01 X5.6861 Y3.1317
G01 X5.6847 Y3.1599
G01 X5.6816 Y3.1805
G01 X5.6759 Y3.2031
G01 X5.6681 Y3.2251
G01 X5.6592 Y3.2440
G01 X5.6454 Y3.2672
G01 X5.6322 Y3.2849
G01 X5.6174 Y3.3013
G01 X5.5443 Y3.3744
G01 X5.5279 Y3.3892
G01 X5.5112 Y3.4017
G01 X5.4891 Y3.4151
G01 X5.4681 Y3.4251
G01 X5.4437 Y3.4336
G01 X5.4235 Y3.4386
G01 X5.4029 Y3.4417
G01 X5.3796 Y3.4431
G01 X5.3539 Y3.4420
G01 X5.3308 Y3.4386
G01 X5.3082 Y3.4329
G01 X5.2851 Y3.4246
G01 X5.2651 Y3.4151
G01 X5.2451 Y3.4031
G01 X5.2264 Y3.3892
G01 X5.2100 Y3.3744
G01 X5.1377 Y3.3021
G01 X5.1237 Y3.2867
G01 X5.1082 Y3.2661
G01 X5.0962 Y3.2461
G01 X5.0862 Y3.2251
G01 X5.0784 Y3.2031
G01 X5.0727 Y3.1805
G01 X5.0693 Y3.1574
G01 X5.0681 Y3.1341
G01 X5.0693 Y3.1109
G01 X5.0727 Y3.0878
G01 X5.0787 Y3.0640
G01 X5.0862 Y3.0432
G01 X5.0962 Y3.0221
G01 X5.1082 Y3.0021
G01 X5.1213 Y2.9844
G01 X5.1377 Y2.9661
G01 X5.2091 Y2.8947
M5
G00 X6.1666 Y2.8979
M3
G01 X6.1252 Y2.9186
G01 X6.1121 Y2.9246
G01 X6.1038 Y2.9279
G01 X6.0839 Y2.9344
G01 X6.0676 Y2.9383
G01 X6.0588 Y2.9400
G01 X6.0368 Y2.9426
G01 X6.0200 Y2.9432
G01 X5.8771 Y2.9432
G01 X5.8551 Y2.9421
G01 X5.8284 Y2.9381
G01 X5.8082 Y2.9329
G01 X5.7862 Y2.9251
G01 X5.7651 Y2.9151
G01 X5.7472 Y2.9044
G01 X5.7246 Y2.8876
G01 X5.7091 Y2.8736
G01 X5.6935 Y2.8563
G01 X5.6796 Y2.8376
G01 X5.6688 Y2.8197
G01 X5.6568 Y2.7942
G01 X5.6498 Y2.7745
G01 X5.6441 Y2.7519
G01 X5.6407 Y2.7289
G01 X5.6396 Y2.7080
G01 X5.6408 Y2.6811
G01 X5.6441 Y2.6592
G01 X5.6505 Y2.6343
G01 X5.6586 Y2.6124
G01 X5.6676 Y2.5936
G01 X5.6783 Y2.5756
G01 X5.6935 Y2.5548
G01 X5.7091 Y2.5376
G01 X5.7264 Y2.5219
G01 X5.7451 Y2.5080
G01 X5.7651 Y2.4960
G01 X5.7862 Y2.4861
G01 X5.8082 Y2.4782
G01 X5.8320 Y2.4723
G01 X5.8539 Y2.4691
G01 X5.8759 Y2.4680
G01 X5.9639 Y2.4680
G01 X6.0221 Y2.4389
G01 X6.0390 Y2.4220
G01 X6.0681 Y2.3638
G01 X6.0681 Y1.7043
G01 X6.0693 Y1.6823
G01 X6.0723 Y1.6616
G01 X6.0784 Y1.6366
G01 X6.0862 Y1.6146
G01 X6.0951 Y1.5958
G01 X6.1096 Y1.5716
G01 X6.1221 Y1.5548
G01 X6.1377 Y1.5376
G01 X6.1550 Y1.5219
G01 X6.1737 Y1.5080
G01 X6.1937 Y1.4960
G01 X6.2148 Y1.4861
G01 X6.2367 Y1.4782
G01 X6.2570 Y1.4731
G01 X6.2849 Y1.4689
G01 X6.3057 Y1.4680
G01 X6.3302 Y1.4693
G01 X6.3521 Y1.4725
G01 X6.3723 Y1.4776
G01 X6.3989 Y1.4871
G01 X6.4177 Y1.4960
G01 X6.4377 Y1.5080
G01 X6.4564 Y1.5219
G01 X6.4719 Y1.5359
G01 X6.4909 Y1.5568
G01 X6.5033 Y1.5736
G01 X6.5153 Y1.5936
G01 X6.5252 Y1.6146
G01 X6.5323 Y1.6343
G01 X6.5390 Y1.6604
G01 X6.5422 Y1.6823
G01 X6.5433 Y1.7056
G01 X6.5433 Y2.7056
G01 X6.5420 Y2.7301
G01 X6.5382 Y2.7543
G01 X6.5331 Y2.7745
G01 X6.5261 Y2.7942
G01 X6.5153 Y2.8176
G01 X6.5019 Y2.8396
G01 X6.4894 Y2.8563
G01 X6.4754 Y2.8718
G01 X6.4564 Y2.8892
G01 X6.4356 Y2.9044
G01 X6.4177 Y2.9151
G01 X6.3978 Y2.9246
G01 X6.3723 Y2.9336
G01 X6.3521 Y2.9386
G01 X6.3314 Y2.9417
G01 X6.3057 Y2.9432
G01 X6.2812 Y2.9419
G01 X6.2594 Y2.9386
G01 X6.2391 Y2.9336
G01 X6.2159 Y2.9255
G01 X6.1926 Y2.9145
G01 X6.1747 Y2.9038
G01 X6.1666 Y2.8979
M5
G00 X7.3626 Y1.9847
M3
G01 X7.4871 Y1.9432
G01 X7.5681 Y1.9432
G01 X7.5681 Y2.9680
G01 X7.4871 Y2.9680
G01 X7.3626 Y2.9265
G01 X7.2867 Y2.8505
G01 X7.2442 Y2.7655
G01 X7.1862 Y2.5335
G01 X7.1862 Y2.3777
G01 X7.2442 Y2.1456
G01 X7.2867 Y2.0606
G01 X7.3626 Y1.9847
M5
G00 X8.0432 Y1.7031
M3
G01 X8.0433 Y3.2068
G01 X8.0419 Y3.2313
G01 X8.0387 Y3.2519
G01 X8.0337 Y3.2722
G01 X8.0252 Y3.2965
G01 X8.0147 Y3.3186
G01 X8.0033 Y3.3376
G01 X7.9909 Y3.3544
G01 X7.9737 Y3.3736
G01 X7.9545 Y3.3907
G01 X7.9377 Y3.4031
G01 X7.9199 Y3.4139
G01 X7.8966 Y3.4251
G01 X7.8723 Y3.4336
G01 X7.8521 Y3.4386
G01 X7.8314 Y3.4417
G01 X7.8069 Y3.4432
G01 X7.4486 Y3.4432
G01 X7.4265 Y3.4421
G01 X7.4176 Y3.4411
G01 X7.3959 Y3.4373
G01 X7.3796 Y3.4329
G01 X7.1592 Y3.3595
G01 X7.1374 Y3.3511
G01 X7.1166 Y3.3406
G01 X7.1033 Y3.3324
G01 X7.0960 Y3.3273
G01 X7.0796 Y3.3144
G01 X7.0672 Y3.3030
G01 X6.9234 Y3.1593
G01 X6.9086 Y3.1430
G01 X6.9030 Y3.1360
G01 X6.8904 Y3.1179
G01 X6.8819 Y3.1033
G01 X6.8075 Y2.9547
G01 X6.7986 Y2.9345
G01 X6.7959 Y2.9272
G01 X6.7895 Y2.9061
G01 X6.7181 Y2.6203
G01 X6.7155 Y2.6091
G01 X6.7135 Y2.5975
G01 X6.7121 Y2.5860
G01 X6.7113 Y2.5755
G01 X6.7110 Y2.5627
G01 X6.7110 Y2.3484
G01 X6.7113 Y2.3369
G01 X6.7121 Y2.3251
G01 X6.7135 Y2.3137
G01 X6.7158 Y2.3009
G01 X6.7895 Y2.0051
G01 X6.7959 Y1.9839
G01 X6.7986 Y1.9767
G01 X6.8075 Y1.9565
G01 X6.8825 Y1.8068
G01 X6.8932 Y1.7889
G01 X6.9030 Y1.7752
G01 X6.9086 Y1.7682
G01 X6.9189 Y1.7565
G01 X7.0672 Y1.6081
G01 X7.0836 Y1.5933
G01 X7.0960 Y1.5838
G01 X7.1033 Y1.5788
G01 X7.1212 Y1.5681
G01 X7.1363 Y1.5606
G01 X7.1445 Y1.5570
G01 X7.1592 Y1.5516
G01 X7.3796 Y1.4782
G01 X7.4022 Y1.4725
G01 X7.4253 Y1.4691
G01 X7.4486 Y1.4680
G01 X7.8069 Y1.4680
G01 X7.8290 Y1.4691
G01 X7.8521 Y1.4725
G01 X7.8747 Y1.4782
G01 X7.8955 Y1.4856
G01 X7.9199 Y1.4972
G01 X7.9377 Y1.5080
G01 X7.9564 Y1.5219
G01 X7.9754 Y1.5393
G01 X7.9894 Y1.5548
G01 X8.0033 Y1.5736
G01 X8.0153 Y1.5936
G01 X8.0242 Y1.6124
G01 X8.0331 Y1.6366
G01 X8.0392 Y1.6616
G01 X8.0422 Y1.6823
G01 X8.0432 Y1.7031
M5
G00 X9.7380 Y2.8979
M3
G01 X9.6966 Y2.9186
G01 X9.6835 Y2.9246
G01 X9.6752 Y2.9279
G01 X9.6554 Y2.9344
G01 X9.6390 Y2.9383
G01 X9.6302 Y2.9400
G01 X9.6083 Y2.9426
G01 X9.5914 Y2.9432
G01 X9.4486 Y2.9432
G01 X9.4265 Y2.9421
G01 X9.3998 Y2.9381
G01 X9.3796 Y2.9329
G01 X9.3576 Y2.9251
G01 X9.3366 Y2.9151
G01 X9.3186 Y2.9044
G01 X9.2960 Y2.8876
G01 X9.2806 Y2.8736
G01 X9.2649 Y2.8563
G01 X9.2510 Y2.8376
G01 X9.2402 Y2.8197
G01 X9.2282 Y2.7942
G01 X9.2212 Y2.7745
G01 X9.2155 Y2.7519
G01 X9.2121 Y2.7289
G01 X9.2110 Y2.7080
G01 X9.2123 Y2.6811
G01 X9.2155 Y2.6592
G01 X9.2220 Y2.6343
G01 X9.2301 Y2.6124
G01 X9.2390 Y2.5936
G01 X9.2497 Y2.5756
G01 X9.2649 Y2.5548
G01 X9.2806 Y2.5376
G01 X9.2978 Y2.5219
G01 X9.3166 Y2.5080
G01 X9.3366 Y2.4960
G01 X9.3576 Y2.4861
G01 X9.3796 Y2.4782
G01 X9.4034 Y2.4723
G01 X9.4253 Y2.4691
G01 X9.4473 Y2.4680
G01 X9.5353 Y2.4680
G01 X9.5935 Y2.4389
G01 X9.6104 Y2.4220
G01 X9.6395 Y2.3638
G01 X9.6396 Y1.7043
G01 X9.6407 Y1.6823
G01 X9.6437 Y1.6616
G01 X9.6498 Y1.6366
G01 X9.6576 Y1.6146
G01 X9.6665 Y1.5958
G01 X9.6810 Y1.5716
G01 X9.6935 Y1.5548
G01 X9.7091 Y1.5376
G01 X9.7264 Y1.5219
G01 X9.7451 Y1.5080
G01 X9.7651 Y1.4960
G01 X9.7862 Y1.4861
G01 X9.8082 Y1.4782
G01 X9.8284 Y1.4731
G01 X9.8563 Y1.4689
G01 X9.8771 Y1.4680
G01 X9.9017 Y1.4693
G01 X9.9235 Y1.4725
G01 X9.9437 Y1.4776
G01 X9.9703 Y1.4871
G01 X9.9891 Y1.4960
G01 X10.0091 Y1.5080
G01 X10.0279 Y1.5219
G01 X10.0434 Y1.5359
G01 X10.0623 Y1.5568
G01 X10.0747 Y1.5736
G01 X10.0867 Y1.5936
G01 X10.0967 Y1.6146
G01 X10.1037 Y1.6343
G01 X10.1104 Y1.6604
G01 X10.1136 Y1.6823
G01 X10.1147 Y1.7056
G01 X10.1147 Y2.7056
G01 X10.1135 Y2.7301
G01 X10.1096 Y2.7543
G01 X10.1045 Y2.7745
G01 X10.0975 Y2.7942
G01 X10.0867 Y2.8176
G01 X10.0733 Y2.8396
G01 X10.0608 Y2.8563
G01 X10.0468 Y2.8718
G01 X10.0279 Y2.8892
G01 X10.0071 Y2.9044
G01 X9.9891 Y2.9151
G01 X9.9692 Y2.9246
G01 X9.9437 Y2.9336
G01 X9.9235 Y2.9386
G01 X9.9029 Y2.9417
G01 X9.8771 Y2.9432
G01 X9.8526 Y2.9419
G01 X9.8308 Y2.9386
G01 X9.8105 Y2.9336
G01 X9.7874 Y2.9255
G01 X9.7641 Y2.9145
G01 X9.7462 Y2.9038
G01 X9.7380 Y2.8979
M5
G00 X11.4719 Y2.4913
M3
G01 X11.4707 Y2.5146
G01 X11.4673 Y2.5376
G01 X11.4616 Y2.5603
G01 X11.4566 Y2.5750
G01 X11.4533 Y2.5833
G01 X11.4468 Y2.5975
G01 X11.3754 Y2.7404
G01 X11.3699 Y2.7507
G01 X11.3639 Y2.7607
G01 X11.3567 Y2.7715
G01 X11.3506 Y2.7798
G01 X11.3423 Y2.7898
G01 X11.3354 Y2.7975
G01 X11.3262 Y2.8067
G01 X11.3185 Y2.8136
G01 X11.3095 Y2.8211
G01 X11.2992 Y2.8287
G01 X11.2894 Y2.8352
G01 X11.2805 Y2.8406
G01 X11.2691 Y2.8467
G01 X11.1251 Y2.9186
G01 X11.1061 Y2.9270
G01 X11.0901 Y2.9326
G01 X11.0816 Y2.9350
G01 X11.0676 Y2.9383
G01 X11.0588 Y2.9400
G01 X11.0381 Y2.9425
G01 X11.0212 Y2.9432
G01 X10.7343 Y2.9432
G01 X10.7122 Y2.9421
G01 X10.6943 Y2.9398
G01 X10.6727 Y2.9350
G01 X10.6641 Y2.9326
G01 X10.6445 Y2.9255
G01 X10.6291 Y2.9186
G01 X10.4841 Y2.8461
G01 X10.4738 Y2.8406
G01 X10.4649 Y2.8352
G01 X10.4541 Y2.8280
G01 X10.4448 Y2.8211
G01 X10.4358 Y2.8136
G01 X10.4281 Y2.8067
G01 X10.4189 Y2.7975
G01 X10.4119 Y2.7898
G01 X10.4037 Y2.7798
G01 X10.3975 Y2.7715
G01 X10.3904 Y2.7607
G01 X10.3850 Y2.7518
G01 X10.3789 Y2.7404
G01 X10.3070 Y2.5964
G01 X10.2986 Y2.5773
G01 X10.2930 Y2.5614
G01 X10.2905 Y2.5529
G01 X10.2870 Y2.5376
G01 X10.2835 Y2.5146
G01 X10.2824 Y2.4925
G01 X10.2824 Y2.3484
G01 X10.2835 Y2.3252
G01 X10.2870 Y2.3021
G01 X10.2934 Y2.2771
G01 X10.3005 Y2.2575
G01 X10.3092 Y2.2388
G01 X10.3223 Y2.2166
G01 X10.3362 Y2.1979
G01 X10.3501 Y2.1824
G01 X10.3538 Y2.1787
G01 X10.3712 Y2.1633
G01 X10.3880 Y2.1509
G01 X10.4078 Y2.1390
G01 X10.4289 Y2.1290
G01 X10.4485 Y2.1219
G01 X10.4734 Y2.1154
G01 X10.9967 Y2.0108
G01 X10.9967 Y1.9759
G01 X10.9858 Y1.9541
G01 X10.9639 Y1.9432
G01 X10.7904 Y1.9432
G01 X10.6977 Y1.9895
G01 X10.6775 Y1.9984
G01 X10.6542 Y2.0062
G01 X10.6290 Y2.0116
G01 X10.6083 Y2.0140
G01 X10.5850 Y2.0145
G01 X10.5617 Y2.0127
G01 X10.5412 Y2.0092
G01 X10.5140 Y2.0016
G01 X10.4946 Y1.9940
G01 X10.4727 Y1.9828
G01 X10.4541 Y1.9709
G01 X10.4339 Y1.9548
G01 X10.4189 Y1.9404
G01 X10.4053 Y1.9246
G01 X10.3917 Y1.9056
G01 X10.3789 Y1.8833
G01 X10.3695 Y1.8619
G01 X10.3623 Y1.8398
G01 X10.3572 Y1.8170
G01 X10.3544 Y1.7938
G01 X10.3539 Y1.7705
G01 X10.3557 Y1.7473
G01 X10.3604 Y1.7219
G01 X10.3669 Y1.6996
G01 X10.3745 Y1.6801
G01 X10.3839 Y1.6615
G01 X10.3975 Y1.6397
G01 X10.4111 Y1.6223
G01 X10.4281 Y1.6045
G01 X10.4439 Y1.5909
G01 X10.4659 Y1.5753
G01 X10.4852 Y1.5645
G01 X10.6280 Y1.4931
G01 X10.6494 Y1.4837
G01 X10.6715 Y1.4764
G01 X10.6943 Y1.4714
G01 X10.7098 Y1.4693
G01 X10.7187 Y1.4685
G01 X10.7343 Y1.4680
G01 X11.0200 Y1.4680
G01 X11.0433 Y1.4691
G01 X11.0664 Y1.4725
G01 X11.0816 Y1.4761
G01 X11.0901 Y1.4786
G01 X11.1098 Y1.4856
G01 X11.1251 Y1.4925
G01 X11.2702 Y1.5651
G01 X11.2805 Y1.5706
G01 X11.2894 Y1.5759
G01 X11.3002 Y1.5831
G01 X11.3095 Y1.5901
G01 X11.3185 Y1.5975
G01 X11.3262 Y1.6045
G01 X11.3354 Y1.6136
G01 X11.3423 Y1.6213
G01 X11.3506 Y1.6313
G01 X11.3567 Y1.6397
G01 X11.3639 Y1.6504
G01 X11.3699 Y1.6604
G01 X11.3754 Y1.6707
G01 X11.4468 Y1.8136
G01 X11.4533 Y1.8278
G01 X11.4566 Y1.8361
G01 X11.4616 Y1.8509
G01 X11.4671 Y1.8723
G01 X11.4685 Y1.8799
G01 X11.4708 Y1.8978
G01 X11.4719 Y1.9199
G01 X11.4719 Y2.4913
M5
G00 X12.2824 Y2.4680
M3
G01 X12.1475 Y2.4680
G01 X12.0893 Y2.4389
G01 X12.0724 Y2.4220
G01 X12.0433 Y2.3638
G01 X12.0433 Y2.0474
G01 X12.0724 Y1.9892
G01 X12.0893 Y1.9723
G01 X12.1475 Y1.9432
G01 X12.2824 Y1.9432
G01 X12.2824 Y2.4680
M5
G00 X12.2824 Y1.2100
M3
G01 X12.2824 Y1.4680
G01 X12.0902 Y1.4680
G01 X12.0758 Y1.4685
G01 X12.0669 Y1.4693
G01 X12.0502 Y1.4716
G01 X12.0299 Y1.4761
G01 X12.0213 Y1.4786
G01 X12.0065 Y1.4837
G01 X11.9852 Y1.4931
G01 X11.8423 Y1.5645
G01 X11.8230 Y1.5753
G01 X11.8156 Y1.5801
G01 X11.7978 Y1.5933
G01 X11.7852 Y1.6045
G01 X11.7091 Y1.6804
G01 X11.7038 Y1.6860
G01 X11.6927 Y1.6987
G01 X11.6803 Y1.7154
G01 X11.6761 Y1.7219
G01 X11.6646 Y1.7422
G01 X11.5932 Y1.8850
G01 X11.5867 Y1.8992
G01 X11.5834 Y1.9075
G01 X11.5787 Y1.9211
G01 X11.5762 Y1.9297
G01 X11.5725 Y1.9461
G01 X11.5694 Y1.9668
G01 X11.5686 Y1.9757
G01 X11.5681 Y1.9913
G01 X11.5681 Y2.4199
G01 X11.5687 Y2.4367
G01 X11.5713 Y2.4586
G01 X11.5729 Y2.4674
G01 X11.5769 Y2.4838
G01 X11.5834 Y2.5036
G01 X11.5867 Y2.5119
G01 X11.5932 Y2.5261
G01 X11.6646 Y2.6690
G01 X11.6754 Y2.6882
G01 X11.6803 Y2.6957
G01 X11.6935 Y2.7134
G01 X11.7046 Y2.7261
G01 X11.7852 Y2.8067
G01 X11.7988 Y2.8186
G01 X11.8166 Y2.8317
G01 X11.8355 Y2.8431
G01 X11.8423 Y2.8467
G01 X11.9852 Y2.9181
G01 X11.9994 Y2.9246
G01 X12.0077 Y2.9279
G01 X12.0213 Y2.9326
G01 X12.0299 Y2.9350
G01 X12.0463 Y2.9388
G01 X12.0669 Y2.9419
G01 X12.0758 Y2.9426
G01 X12.0914 Y2.9432
G01 X12.3784 Y2.9432
G01 X12.3952 Y2.9425
G01 X12.4159 Y2.9400
G01 X12.4247 Y2.9383
G01 X12.4387 Y2.9350
G01 X12.4486 Y2.9321
G01 X12.4736 Y2.9386
G01 X12.4992 Y2.9422
G01 X12.5200 Y2.9432
G01 X12.5408 Y2.9422
G01 X12.5676 Y2.9383
G01 X12.5913 Y2.9322
G01 X12.6109 Y2.9251
G01 X12.6298 Y2.9162
G01 X12.6520 Y2.9031
G01 X12.6707 Y2.8892
G01 X12.6897 Y2.8718
G01 X12.7037 Y2.8563
G01 X12.7161 Y2.8396
G01 X12.7295 Y2.8176
G01 X12.7400 Y2.7954
G01 X12.7474 Y2.7745
G01 X12.7530 Y2.7519
G01 X12.7564 Y2.7289
G01 X12.7576 Y2.7056
G01 X12.7576 Y1.2100
G01 X13.6395 Y1.2100
G01 X13.6395 Y1.4680
G01 X13.4473 Y1.4680
G01 X13.4330 Y1.4685
G01 X13.4241 Y1.4693
G01 X13.4074 Y1.4716
G01 X13.3870 Y1.4761
G01 X13.3784 Y1.4786
G01 X13.3637 Y1.4837
G01 X13.3423 Y1.4931
G01 X13.1995 Y1.5645
G01 X13.1802 Y1.5753
G01 X13.1727 Y1.5801
G01 X13.1550 Y1.5933
G01 X13.1423 Y1.6045
G01 X13.0663 Y1.6804
G01 X13.0609 Y1.6860
G01 X13.0499 Y1.6987
G01 X13.0374 Y1.7154
G01 X13.0332 Y1.7219
G01 X13.0218 Y1.7422
G01 X12.9503 Y1.8850
G01 X12.9438 Y1.8992
G01 X12.9405 Y1.9075
G01 X12.9359 Y1.9211
G01 X12.9334 Y1.9297
G01 X12.9287 Y1.9513
G01 X12.9264 Y1.9680
G01 X12.9253 Y1.9913
G01 X12.9253 Y2.4199
G01 X12.9259 Y2.4367
G01 X12.9285 Y2.4586
G01 X12.9301 Y2.4674
G01 X12.9340 Y2.4838
G01 X12.9405 Y2.5036
G01 X12.9438 Y2.5119
G01 X12.9503 Y2.5261
G01 X13.0247 Y2.6747
G01 X13.0326 Y2.6882
G01 X13.0374 Y2.6957
G01 X13.0506 Y2.7134
G01 X13.0618 Y2.7261
G01 X13.1423 Y2.8067
G01 X13.1600 Y2.8218
G01 X13.1791 Y2.8352
G01 X13.1995 Y2.8467
G01 X13.3423 Y2.9181
G01 X13.3576 Y2.9251
G01 X13.3796 Y2.9329
G01 X13.4022 Y2.9386
G01 X13.4253 Y2.9420
G01 X13.4486 Y2.9432
G01 X13.7355 Y2.9432
G01 X13.7524 Y2.9425
G01 X13.7731 Y2.9400
G01 X13.7818 Y2.9383
G01 X13.7959 Y2.9350
G01 X13.8057 Y2.9321
G01 X13.8308 Y2.9386
G01 X13.8563 Y2.9422
G01 X13.8771 Y2.9432
G01 X13.8980 Y2.9422
G01 X13.9247 Y2.9383
G01 X13.9484 Y2.9322
G01 X13.9681 Y2.9251
G01 X13.9870 Y2.9162
G01 X14.0091 Y2.9031
G01 X14.0279 Y2.8892
G01 X14.0468 Y2.8718
G01 X14.0608 Y2.8563
G01 X14.0733 Y2.8396
G01 X14.0867 Y2.8176
G01 X14.0971 Y2.7954
G01 X14.1045 Y2.7745
G01 X14.1102 Y2.7519
G01 X14.1136 Y2.7289
G01 X14.1147 Y2.7056
G01 X14.1147 Y1.2100
G01 X24.1395 Y1.2100
G01 X24.1395 Y1.4680
G01 X23.9473 Y1.4680
G01 X23.9330 Y1.4685
G01 X23.9241 Y1.4693
G01 X23.9074 Y1.4716
G01 X23.8870 Y1.4761
G01 X23.8784 Y1.4786
G01 X23.8637 Y1.4837
G01 X23.8423 Y1.4931
G01 X23.6995 Y1.5645
G01 X23.6802 Y1.5753
G01 X23.6727 Y1.5801
G01 X23.6550 Y1.5933
G01 X23.6423 Y1.6045
G01 X23.5663 Y1.6804
G01 X23.5609 Y1.6860
G01 X23.5499 Y1.6987
G01 X23.5374 Y1.7154
G01 X23.5332 Y1.7219
G01 X23.5218 Y1.7422
G01 X23.4503 Y1.8850
G01 X23.4438 Y1.8992
G01 X23.4405 Y1.9075
G01 X23.4359 Y1.9211
G01 X23.4334 Y1.9297
G01 X23.4287 Y1.9513
G01 X23.4264 Y1.9680
G01 X23.4253 Y1.9913
G01 X23.4253 Y2.4199
G01 X23.4259 Y2.4367
G01 X23.4285 Y2.4586
G01 X23.4301 Y2.4674
G01 X23.4340 Y2.4838
G01 X23.4405 Y2.5036
G01 X23.4438 Y2.5119
G01 X23.4503 Y2.5261
G01 X23.5247 Y2.6747
G01 X23.5326 Y2.6882
G01 X23.5374 Y2.6957
G01 X23.5506 Y2.7134
G01 X23.5618 Y2.7261
G01 X23.6423 Y2.8067
G01 X23.6600 Y2.8218
G01 X23.6791 Y2.8352
G01 X23.6995 Y2.8467
G01 X23.8423 Y2.9181
G01 X23.8576 Y2.9251
G01 X23.8796 Y2.9329
G01 X23.9022 Y2.9386
G01 X23.9253 Y2.9420
G01 X23.9486 Y2.9432
G01 X24.2355 Y2.9432
G01 X24.2523 Y2.9425
G01 X24.2731 Y2.9400
G01 X24.2818 Y2.9383
G01 X24.2959 Y2.9350
G01 X24.3057 Y2.9321
G01 X24.3308 Y2.9386
G01 X24.3563 Y2.9422
G01 X24.3771 Y2.9432
G01 X24.3980 Y2.9422
G01 X24.4247 Y2.9383
G01 X24.4484 Y2.9322
G01 X24.4681 Y2.9251
G01 X24.4870 Y2.9162
G01 X24.5091 Y2.9031
G01 X24.5279 Y2.8892
G01 X24.5468 Y2.8718
G01 X24.5608 Y2.8563
G01 X24.5733 Y2.8396
G01 X24.5867 Y2.8176
G01 X24.5971 Y2.7954
G01 X24.6045 Y2.7745
G01 X24.6102 Y2.7519
G01 X24.6136 Y2.7289
G01 X24.6147 Y2.7056
G01 X24.6147 Y1.2100
G01 X53.0200 Y1.2100
G01 X53.0200 Y29.2040
G01 X1.1500 Y29.2040
G01 X1.1500 Y1.2100
G01 X12.2824 Y1.2100
M5
G00 X13.6395 Y2.4680
M3
G01 X13.5047 Y2.4680
G01 X13.4465 Y2.4389
G01 X13.4296 Y2.4220
G01 X13.4005 Y2.3638
G01 X13.4005 Y2.0474
G01 X13.4296 Y1.9892
G01 X13.4465 Y1.9723
G01 X13.5047 Y1.9432
G01 X13.6395 Y1.9432
G01 X13.6395 Y2.4680
M5
G00 X15.4719 Y2.4913
M3
G01 X15.4707 Y2.5146
G01 X15.4673 Y2.5376
G01 X15.4616 Y2.5603
G01 X15.4566 Y2.5750
G01 X15.4533 Y2.5833
G01 X15.4468 Y2.5975
G01 X15.3754 Y2.7404
G01 X15.3699 Y2.7507
G01 X15.3639 Y2.7607
G01 X15.3567 Y2.7715
G01 X15.3506 Y2.7798
G01 X15.3423 Y2.7898
G01 X15.3354 Y2.7975
G01 X15.3262 Y2.8067
G01 X15.3185 Y2.8136
G01 X15.3095 Y2.8211
G01 X15.2992 Y2.8287
G01 X15.2894 Y2.8352
G01 X15.2805 Y2.8406
G01 X15.2691 Y2.8467
G01 X15.1251 Y2.9186
G01 X15.1061 Y2.9270
G01 X15.0901 Y2.9326
G01 X15.0816 Y2.9350
G01 X15.0676 Y2.9383
G01 X15.0588 Y2.9400
G01 X15.0381 Y2.9425
G01 X15.0212 Y2.9432
G01 X14.7343 Y2.9432
G01 X14.7122 Y2.9421
G01 X14.6943 Y2.9398
G01 X14.6727 Y2.9350
G01 X14.6641 Y2.9326
G01 X14.6445 Y2.9255
G01 X14.6291 Y2.9186
G01 X14.4841 Y2.8461
G01 X14.4738 Y2.8406
G01 X14.4649 Y2.8352
G01 X14.4541 Y2.8280
G01 X14.4448 Y2.8211
G01 X14.4358 Y2.8136
G01 X14.4281 Y2.8067
G01 X14.4189 Y2.7975
G01 X14.4119 Y2.7898
G01 X14.4037 Y2.7798
G01 X14.3975 Y2.7715
G01 X14.3904 Y2.7607
G01 X14.3850 Y2.7518
G01 X14.3789 Y2.7404
G01 X14.3070 Y2.5964
G01 X14.2986 Y2.5773
G01 X14.2930 Y2.5614
G01 X14.2905 Y2.5529
G01 X14.2870 Y2.5376
G01 X14.2835 Y2.5146
G01 X14.2824 Y2.4925
G01 X14.2824 Y2.3484
G01 X14.2835 Y2.3252
G01 X14.2870 Y2.3021
G01 X14.2934 Y2.2771
G01 X14.3005 Y2.2575
G01 X14.3092 Y2.2388
G01 X14.3223 Y2.2166
G01 X14.3362 Y2.1979
G01 X14.3501 Y2.1824
G01 X14.3538 Y2.1787
G01 X14.3712 Y2.1633
G01 X14.3880 Y2.1509
G01 X14.4078 Y2.1390
G01 X14.4289 Y2.1290
G01 X14.4485 Y2.1219
G01 X14.4734 Y2.1154
G01 X14.9967 Y2.0108
G01 X14.9967 Y1.9759
G01 X14.9858 Y1.9541
G01 X14.9639 Y1.9432
G01 X14.7904 Y1.9432
G01 X14.6977 Y1.9895
G01 X14.6775 Y1.9984
G01 X14.6542 Y2.0062
G01 X14.6290 Y2.0116
G01 X14.6083 Y2.0140
G01 X14.5850 Y2.0145
G01 X14.5617 Y2.0127
G01 X14.5412 Y2.0092
G01 X14.5140 Y2.0016
G01 X14.4946 Y1.9940
G01 X14.4727 Y1.9828
G01 X14.4541 Y1.9709
G01 X14.4339 Y1.9548
G01 X14.4189 Y1.9404
G01 X14.4053 Y1.9246
G01 X14.3917 Y1.9056
G01 X14.3789 Y1.8833
G01 X14.3695 Y1.8619
G01 X14.3623 Y1.8398
G01 X14.3572 Y1.8170
G01 X14.3544 Y1.7938
G01 X14.3539 Y1.7705
G01 X14.3557 Y1.7473
G01 X14.3604 Y1.7219
G01 X14.3669 Y1.6996
G01 X14.3745 Y1.6801
G01 X14.3839 Y1.6615
G01 X14.3975 Y1.6397
G01 X14.4111 Y1.6223
G01 X14.4281 Y1.6045
G01 X14.4439 Y1.5909
G01 X14.4659 Y1.5753
G01 X14.4852 Y1.5645
G01 X14.6280 Y1.4931
G01 X14.6494 Y1.4837
G01 X14.6715 Y1.4764
G01 X14.6943 Y1.4714
G01 X14.7098 Y1.4693
G01 X14.7187 Y1.4685
G01 X14.7343 Y1.4680
G01 X15.0200 Y1.4680
G01 X15.0433 Y1.4691
G01 X15.0664 Y1.4725
G01 X15.0816 Y1.4761
G01 X15.0901 Y1.4786
G01 X15.1098 Y1.4856
G01 X15.1251 Y1.4925
G01 X15.2702 Y1.5651
G01 X15.2805 Y1.5706
G01 X15.2894 Y1.5759
G01 X15.3002 Y1.5831
G01 X15.3095 Y1.5901
G01 X15.3185 Y1.5975
G01 X15.3262 Y1.6045
G01 X15.3354 Y1.6136
G01 X15.3423 Y1.6213
G01 X15.3506 Y1.6313
G01 X15.3567 Y1.6397
G01 X15.3639 Y1.6504
G01 X15.3699 Y1.6604
G01 X15.3754 Y1.6707
G01 X15.4468 Y1.8136
G01 X15.4533 Y1.8278
G01 X15.4566 Y1.8361
G01 X15.4616 Y1.8509
G01 X15.4671 Y1.8723
G01 X15.4685 Y1.8799
G01 X15.4708 Y1.8978
G01 X15.4719 Y1.9199
G01 X15.4719 Y2.4913
M5
G00 X16.2576 Y2.4691
M3
G01 X16.2806 Y2.4725
G01 X16.3056 Y2.4790
G01 X16.3275 Y2.4871
G01 X16.3463 Y2.4960
G01 X16.3642 Y2.5067
G01 X16.3850 Y2.5219
G01 X16.4023 Y2.5376
G01 X16.4179 Y2.5548
G01 X16.4318 Y2.5736
G01 X16.4438 Y2.5936
G01 X16.4547 Y2.6169
G01 X16.4623 Y2.6390
G01 X16.4673 Y2.6592
G01 X16.4704 Y2.6798
G01 X16.4719 Y2.7056
G01 X16.4707 Y2.7289
G01 X16.4673 Y2.7519
G01 X16.4613 Y2.7757
G01 X16.4538 Y2.7965
G01 X16.4449 Y2.8154
G01 X16.4318 Y2.8376
G01 X16.4163 Y2.8582
G01 X16.4023 Y2.8736
G01 X16.3850 Y2.8892
G01 X16.3642 Y2.9044
G01 X16.3463 Y2.9151
G01 X16.3252 Y2.9251
G01 X16.3009 Y2.9336
G01 X16.2806 Y2.9386
G01 X16.2576 Y2.9420
G01 X16.2576 Y3.2056
G01 X16.2563 Y3.2301
G01 X16.2530 Y3.2519
G01 X16.2480 Y3.2722
G01 X16.2395 Y3.2965
G01 X16.2283 Y3.3197
G01 X16.2176 Y3.3376
G01 X16.2044 Y3.3553
G01 X16.1862 Y3.3753
G01 X16.1707 Y3.3892
G01 X16.1520 Y3.4031
G01 X16.1320 Y3.4151
G01 X16.1132 Y3.4241
G01 X16.0890 Y3.4329
G01 X16.0664 Y3.4386
G01 X16.0457 Y3.4417
G01 X16.0200 Y3.4432
G01 X15.9967 Y3.4420
G01 X15.9761 Y3.4390
G01 X15.9499 Y3.4326
G01 X15.9268 Y3.4241
G01 X15.9080 Y3.4151
G01 X15.8901 Y3.4044
G01 X15.8693 Y3.3892
G01 X15.8520 Y3.3736
G01 X15.8363 Y3.3563
G01 X15.8211 Y3.3355
G01 X15.8105 Y3.3176
G01 X15.8015 Y3.2987
G01 X15.7930 Y3.2757
G01 X15.7866 Y3.2495
G01 X15.7836 Y3.2289
G01 X15.7824 Y3.2068
G01 X15.7824 Y2.9432
G01 X15.6629 Y2.9432
G01 X15.6383 Y2.9419
G01 X15.6165 Y2.9386
G01 X15.5939 Y2.9329
G01 X15.5719 Y2.9251
G01 X15.5509 Y2.9151
G01 X15.5309 Y2.9031
G01 X15.5121 Y2.8892
G01 X15.4949 Y2.8736
G01 X15.4777 Y2.8544
G01 X15.4640 Y2.8355
G01 X15.4533 Y2.8176
G01 X15.4443 Y2.7987
G01 X15.4355 Y2.7745
G01 X15.4301 Y2.7531
G01 X15.4262 Y2.7264
G01 X15.4253 Y2.7056
G01 X15.4262 Y2.6847
G01 X15.4298 Y2.6592
G01 X15.4363 Y2.6343
G01 X15.4433 Y2.6146
G01 X15.4522 Y2.5958
G01 X15.4653 Y2.5736
G01 X15.4808 Y2.5530
G01 X15.4949 Y2.5376
G01 X15.5121 Y2.5219
G01 X15.5329 Y2.5067
G01 X15.5509 Y2.4960
G01 X15.5697 Y2.4871
G01 X15.5939 Y2.4782
G01 X15.6165 Y2.4725
G01 X15.6396 Y2.4691
G01 X15.6616 Y2.4680
G01 X15.7824 Y2.4680
G01 X15.7824 Y1.9759
G01 X15.7715 Y1.9541
G01 X15.7496 Y1.9432
G01 X15.6616 Y1.9432
G01 X15.6371 Y1.9417
G01 X15.6165 Y1.9386
G01 X15.5939 Y1.9329
G01 X15.5719 Y1.9251
G01 X15.5487 Y1.9139
G01 X15.5309 Y1.9031
G01 X15.5121 Y1.8892
G01 X15.4949 Y1.8736
G01 X15.4792 Y1.8563
G01 X15.4653 Y1.8376
G01 X15.4533 Y1.8176
G01 X15.4433 Y1.7965
G01 X15.4352 Y1.7734
G01 X15.4298 Y1.7519
G01 X15.4267 Y1.7313
G01 X15.4253 Y1.7056
G01 X15.4267 Y1.6798
G01 X15.4298 Y1.6592
G01 X15.4355 Y1.6366
G01 X15.4443 Y1.6124
G01 X15.4533 Y1.5936
G01 X15.4653 Y1.5736
G01 X15.4792 Y1.5548
G01 X15.4932 Y1.5393
G01 X15.5131 Y1.5211
G01 X15.5329 Y1.5067
G01 X15.5509 Y1.4960
G01 X15.5697 Y1.4871
G01 X15.5939 Y1.4782
G01 X15.6189 Y1.4721
G01 X15.6396 Y1.4691
G01 X15.6629 Y1.4680
G01 X15.8069 Y1.4680
G01 X15.8290 Y1.4691
G01 X15.8457 Y1.4714
G01 X15.8673 Y1.4761
G01 X15.8747 Y1.4782
G01 X15.8895 Y1.4832
G01 X15.8978 Y1.4865
G01 X15.9120 Y1.4931
G01 X16.0548 Y1.5645
G01 X16.0652 Y1.5700
G01 X16.0751 Y1.5759
G01 X16.0859 Y1.5831
G01 X16.0942 Y1.5893
G01 X16.1042 Y1.5975
G01 X16.1119 Y1.6045
G01 X16.1211 Y1.6136
G01 X16.1281 Y1.6213
G01 X16.1363 Y1.6313
G01 X16.1425 Y1.6397
G01 X16.1496 Y1.6504
G01 X16.1550 Y1.6593
G01 X16.1605 Y1.6697
G01 X16.2330 Y1.8147
G01 X16.2414 Y1.8338
G01 X16.2470 Y1.8497
G01 X16.2495 Y1.8583
G01 X16.2528 Y1.8723
G01 X16.2544 Y1.8811
G01 X16.2570 Y1.9030
G01 X16.2576 Y1.9199
G01 X16.2576 Y2.4691
M5
G00 X17.7576 Y2.9199
M3
G01 X17.7564 Y2.9431
G01 X17.7530 Y2.9662
G01 X17.7474 Y2.9888
G01 X17.7423 Y3.0036
G01 X17.7390 Y3.0119
G01 X17.7325 Y3.0261
G01 X17.6581 Y3.1747
G01 X17.6503 Y3.1882
G01 X17.6454 Y3.1957
G01 X17.6330 Y3.2125
G01 X17.6219 Y3.2252
G01 X17.5405 Y3.3067
G01 X17.5228 Y3.3218
G01 X17.5037 Y3.3352
G01 X17.4834 Y3.3467
G01 X17.3394 Y3.4186
G01 X17.3192 Y3.4275
G01 X17.2970 Y3.4347
G01 X17.2806 Y3.4386
G01 X17.2588 Y3.4419
G01 X17.2499 Y3.4426
G01 X17.2343 Y3.4432
G01 X16.8771 Y3.4432
G01 X16.8539 Y3.4420
G01 X16.8308 Y3.4386
G01 X16.8094 Y3.4333
G01 X16.8020 Y3.4310
G01 X16.5877 Y3.3595
G01 X16.5660 Y3.3511
G01 X16.5452 Y3.3406
G01 X16.5236 Y3.3266
G01 X16.5072 Y3.3136
G01 X16.4921 Y3.2993
G01 X16.4759 Y3.2808
G01 X16.4618 Y3.2607
G01 X16.4503 Y3.2404
G01 X16.4410 Y3.2191
G01 X16.4331 Y3.1945
G01 X16.4287 Y3.1741
G01 X16.4261 Y3.1534
G01 X16.4253 Y3.1301
G01 X16.4271 Y3.1044
G01 X16.4312 Y3.0815
G01 X16.4375 Y3.0590
G01 X16.4459 Y3.0373
G01 X16.4564 Y3.0165
G01 X16.4704 Y2.9948
G01 X16.4834 Y2.9785
G01 X16.4977 Y2.9634
G01 X16.5153 Y2.9480
G01 X16.5363 Y2.9331
G01 X16.5555 Y2.9222
G01 X16.5803 Y2.9114
G01 X16.6001 Y2.9050
G01 X16.6205 Y2.9004
G01 X16.6460 Y2.8971
G01 X16.6718 Y2.8968
G01 X16.6926 Y2.8984
G01 X16.7131 Y2.9020
G01 X16.7356 Y2.9080
G01 X16.9157 Y2.9680
G01 X17.1782 Y2.9680
G01 X17.2364 Y2.9389
G01 X17.2533 Y2.9220
G01 X17.2824 Y2.8638
G01 X17.2824 Y2.8331
G01 X17.2533 Y2.7749
G01 X17.2364 Y2.7580
G01 X17.1514 Y2.7155
G01 X16.8909 Y2.6504
G01 X16.8710 Y2.6444
G01 X16.8637 Y2.6418
G01 X16.8423 Y2.6324
G01 X16.6948 Y2.5585
G01 X16.6791 Y2.5495
G01 X16.6610 Y2.5369
G01 X16.6540 Y2.5313
G01 X16.6423 Y2.5209
G01 X16.5654 Y2.4441
G01 X16.5506 Y2.4277
G01 X16.5374 Y2.4100
G01 X16.5326 Y2.4025
G01 X16.5218 Y2.3833
G01 X16.4503 Y2.2404
G01 X16.4410 Y2.2191
G01 X16.4337 Y2.1969
G01 X16.4287 Y2.1741
G01 X16.4265 Y2.1587
G01 X16.4258 Y2.1498
G01 X16.4253 Y2.1341
G01 X16.4253 Y1.9913
G01 X16.4258 Y1.9757
G01 X16.4265 Y1.9668
G01 X16.4287 Y1.9513
G01 X16.4334 Y1.9297
G01 X16.4355 Y1.9223
G01 X16.4429 Y1.9015
G01 X16.4503 Y1.8850
G01 X16.5218 Y1.7422
G01 X16.5253 Y1.7354
G01 X16.5367 Y1.7164
G01 X16.5499 Y1.6987
G01 X16.5618 Y1.6851
G01 X16.6377 Y1.6090
G01 X16.6550 Y1.5933
G01 X16.6737 Y1.5794
G01 X16.6937 Y1.5675
G01 X16.8423 Y1.4931
G01 X16.8565 Y1.4865
G01 X16.8648 Y1.4832
G01 X16.8858 Y1.4764
G01 X16.9022 Y1.4725
G01 X16.9253 Y1.4691
G01 X16.9486 Y1.4680
G01 X17.3122 Y1.4681
G01 X17.3290 Y1.4691
G01 X17.3509 Y1.4723
G01 X17.3596 Y1.4742
G01 X17.3747 Y1.4782
G01 X17.5951 Y1.5516
G01 X17.6157 Y1.5596
G01 X17.6377 Y1.5706
G01 X17.6593 Y1.5846
G01 X17.6757 Y1.5975
G01 X17.6908 Y1.6119
G01 X17.7069 Y1.6304
G01 X17.7211 Y1.6504
G01 X17.7325 Y1.6707
G01 X17.7419 Y1.6921
G01 X17.7497 Y1.7166
G01 X17.7546 Y1.7394
G01 X17.7570 Y1.7602
G01 X17.7575 Y1.7810
G01 X17.7557 Y1.8067
G01 X17.7517 Y1.8297
G01 X17.7454 Y1.8521
G01 X17.7370 Y1.8739
G01 X17.7264 Y1.8947
G01 X17.7124 Y1.9163
G01 X17.6978 Y1.9345
G01 X17.6834 Y1.9495
G01 X17.6676 Y1.9631
G01 X17.6466 Y1.9781
G01 X17.6284 Y1.9884
G01 X17.6026 Y1.9997
G01 X17.5828 Y2.0062
G01 X17.5624 Y2.0107
G01 X17.5368 Y2.0140
G01 X17.5111 Y2.0144
G01 X17.4903 Y2.0127
G01 X17.4697 Y2.0092
G01 X17.4472 Y2.0031
G01 X17.2672 Y1.9432
G01 X17.0047 Y1.9432
G01 X16.9465 Y1.9723
G01 X16.9296 Y1.9892
G01 X16.9004 Y2.0474
G01 X16.9004 Y2.0781
G01 X16.9296 Y2.1363
G01 X16.9465 Y2.1532
G01 X17.0315 Y2.1957
G01 X17.2919 Y2.2608
G01 X17.3119 Y2.2668
G01 X17.3192 Y2.2694
G01 X17.3405 Y2.2788
G01 X17.4902 Y2.3538
G01 X17.5081 Y2.3645
G01 X17.5218 Y2.3743
G01 X17.5288 Y2.3798
G01 X17.5451 Y2.3947
G01 X17.6211 Y2.4708
G01 X17.6355 Y2.4875
G01 X17.6461 Y2.5021
G01 X17.6575 Y2.5211
G01 X17.6611 Y2.5279
G01 X17.7325 Y2.6707
G01 X17.7395 Y2.6861
G01 X17.7474 Y2.7080
G01 X17.7528 Y2.7294
G01 X17.7544 Y2.7382
G01 X17.7570 Y2.7602
G01 X17.7576 Y2.7770
G01 X17.7576 Y2.9199
M5
G00 X19.3809 Y2.8979
M3
G01 X19.3394 Y2.9186
G01 X19.3263 Y2.9246
G01 X19.3180 Y2.9279
G01 X19.2982 Y2.9344
G01 X19.2818 Y2.9383
G01 X19.2731 Y2.9400
G01 X19.2511 Y2.9426
G01 X19.2343 Y2.9432
G01 X19.0914 Y2.9432
G01 X19.0694 Y2.9421
G01 X19.0427 Y2.9381
G01 X19.0225 Y2.9329
G01 X19.0005 Y2.9251
G01 X18.9794 Y2.9151
G01 X18.9615 Y2.9044
G01 X18.9388 Y2.8876
G01 X18.9234 Y2.8736
G01 X18.9078 Y2.8563
G01 X18.8939 Y2.8376
G01 X18.8831 Y2.8197
G01 X18.8710 Y2.7942
G01 X18.8641 Y2.7745
G01 X18.8584 Y2.7519
G01 X18.8550 Y2.7289
G01 X18.8539 Y2.7080
G01 X18.8551 Y2.6811
G01 X18.8584 Y2.6592
G01 X18.8648 Y2.6343
G01 X18.8729 Y2.6124
G01 X18.8819 Y2.5936
G01 X18.8926 Y2.5756
G01 X18.9078 Y2.5548
G01 X18.9234 Y2.5376
G01 X18.9407 Y2.5219
G01 X18.9594 Y2.5080
G01 X18.9794 Y2.4960
G01 X19.0005 Y2.4861
G01 X19.0225 Y2.4782
G01 X19.0463 Y2.4723
G01 X19.0681 Y2.4691
G01 X19.0902 Y2.4680
G01 X19.1782 Y2.4680
G01 X19.2364 Y2.4389
G01 X19.2533 Y2.4220
G01 X19.2824 Y2.3638
G01 X19.2824 Y1.7043
G01 X19.2835 Y1.6823
G01 X19.2866 Y1.6616
G01 X19.2926 Y1.6366
G01 X19.3005 Y1.6146
G01 X19.3094 Y1.5958
G01 X19.3239 Y1.5716
G01 X19.3363 Y1.5548
G01 X19.3520 Y1.5376
G01 X19.3693 Y1.5219
G01 X19.3880 Y1.5080
G01 X19.4080 Y1.4960
G01 X19.4291 Y1.4861
G01 X19.4510 Y1.4782
G01 X19.4713 Y1.4731
G01 X19.4992 Y1.4689
G01 X19.5200 Y1.4680
G01 X19.5445 Y1.4693
G01 X19.5664 Y1.4725
G01 X19.5866 Y1.4776
G01 X19.6132 Y1.4871
G01 X19.6320 Y1.4960
G01 X19.6520 Y1.5080
G01 X19.6707 Y1.5219
G01 X19.6862 Y1.5359
G01 X19.7052 Y1.5568
G01 X19.7176 Y1.5736
G01 X19.7295 Y1.5936
G01 X19.7395 Y1.6146
G01 X19.7466 Y1.6343
G01 X19.7533 Y1.6604
G01 X19.7564 Y1.6823
G01 X19.7576 Y1.7056
G01 X19.7576 Y2.7056
G01 X19.7563 Y2.7301
G01 X19.7525 Y2.7543
G01 X19.7474 Y2.7745
G01 X19.7404 Y2.7942
G01 X19.7295 Y2.8176
G01 X19.7161 Y2.8396
G01 X19.7037 Y2.8563
G01 X19.6897 Y2.8718
G01 X19.6707 Y2.8892
G01 X19.6499 Y2.9044
G01 X19.6320 Y2.9151
G01 X19.6121 Y2.9246
G01 X19.5866 Y2.9336
G01 X19.5664 Y2.9386
G01 X19.5457 Y2.9417
G01 X19.5200 Y2.9432
G01 X19.4955 Y2.9419
G01 X19.4736 Y2.9386
G01 X19.4534 Y2.9336
G01 X19.4302 Y2.9255
G01 X19.4069 Y2.9145
G01 X19.3890 Y2.9038
G01 X19.3809 Y2.8979
M5
G00 X20.4719 Y2.0394
M3
G01 X20.4719 Y1.9432
G01 X20.6782 Y1.9432
G01 X20.7000 Y1.9541
G01 X20.7110 Y1.9759
G01 X20.7110 Y2.0066
G01 X20.7001 Y2.0285
G01 X20.6782 Y2.0394
G01 X20.4719 Y2.0394
M5
G00 X20.3057 Y1.4790
M3
G01 X20.3156 Y1.4761
G01 X20.3296 Y1.4728
G01 X20.3384 Y1.4712
G01 X20.3551 Y1.4690
G01 X20.3759 Y1.4680
G01 X20.7355 Y1.4680
G01 X20.7576 Y1.4691
G01 X20.7806 Y1.4725
G01 X20.8033 Y1.4782
G01 X20.8252 Y1.4861
G01 X20.8405 Y1.4931
G01 X20.9834 Y1.5645
G01 X20.9948 Y1.5706
G01 X21.0047 Y1.5766
G01 X21.0145 Y1.5831
G01 X21.0228 Y1.5893
G01 X21.0337 Y1.5983
G01 X21.0488 Y1.6128
G01 X21.0574 Y1.6223
G01 X21.0703 Y1.6387
G01 X21.0782 Y1.6504
G01 X21.0841 Y1.6604
G01 X21.0897 Y1.6707
G01 X21.1611 Y1.8136
G01 X21.1676 Y1.8278
G01 X21.1709 Y1.8361
G01 X21.1777 Y1.8571
G01 X21.1826 Y1.8787
G01 X21.1850 Y1.8966
G01 X21.1861 Y1.9186
G01 X21.1862 Y2.0627
G01 X21.1856 Y2.0783
G01 X21.1849 Y2.0872
G01 X21.1818 Y2.1079
G01 X21.1780 Y2.1243
G01 X21.1756 Y2.1329
G01 X21.1681 Y2.1536
G01 X21.1611 Y2.1690
G01 X21.0891 Y2.3129
G01 X21.0829 Y2.3243
G01 X21.0717 Y2.3419
G01 X21.0648 Y2.3512
G01 X21.0558 Y2.3622
G01 X21.0414 Y2.3772
G01 X21.0328 Y2.3851
G01 X21.0218 Y2.3940
G01 X21.0047 Y2.4060
G01 X20.9948 Y2.4120
G01 X20.9796 Y2.4200
G01 X20.9948 Y2.4277
G01 X21.0145 Y2.4403
G01 X21.0328 Y2.4547
G01 X21.0497 Y2.4708
G01 X21.0648 Y2.4885
G01 X21.0782 Y2.5076
G01 X21.0897 Y2.5279
G01 X21.0986 Y2.5481
G01 X21.1063 Y2.5714
G01 X21.1109 Y2.5917
G01 X21.1143 Y2.6198
G01 X21.1146 Y2.6406
G01 X21.1129 Y2.6639
G01 X21.1088 Y2.6868
G01 X21.1025 Y2.7093
G01 X21.0930 Y2.7332
G01 X21.0836 Y2.7518
G01 X21.0710 Y2.7715
G01 X21.0550 Y2.7916
G01 X21.0405 Y2.8067
G01 X21.0228 Y2.8218
G01 X21.0037 Y2.8352
G01 X20.9845 Y2.8461
G01 X20.8405 Y2.9181
G01 X20.8263 Y2.9246
G01 X20.8180 Y2.9279
G01 X20.7982 Y2.9344
G01 X20.7818 Y2.9383
G01 X20.7731 Y2.9400
G01 X20.7588 Y2.9419
G01 X20.7499 Y2.9426
G01 X20.7343 Y2.9432
G01 X20.4486 Y2.9432
G01 X20.4253 Y2.9420
G01 X20.4022 Y2.9386
G01 X20.3796 Y2.9329
G01 X20.3648 Y2.9279
G01 X20.3565 Y2.9246
G01 X20.3423 Y2.9181
G01 X20.1995 Y2.8467
G01 X20.1880 Y2.8406
G01 X20.1791 Y2.8352
G01 X20.1694 Y2.8287
G01 X20.1600 Y2.8218
G01 X20.1491 Y2.8128
G01 X20.1341 Y2.7984
G01 X20.1254 Y2.7889
G01 X20.1125 Y2.7725
G01 X20.1046 Y2.7607
G01 X20.0987 Y2.7507
G01 X20.0932 Y2.7404
G01 X20.0218 Y2.5975
G01 X20.0153 Y2.5833
G01 X20.0120 Y2.5750
G01 X20.0051 Y2.5540
G01 X20.0001 Y2.5313
G01 X19.9977 Y2.5134
G01 X19.9967 Y2.4913
G01 X19.9967 Y1.7056
G01 X19.9981 Y1.6798
G01 X20.0013 Y1.6592
G01 X20.0066 Y1.6378
G01 X20.0148 Y1.6146
G01 X20.0247 Y1.5936
G01 X20.0367 Y1.5736
G01 X20.0506 Y1.5548
G01 X20.0663 Y1.5376
G01 X20.0836 Y1.5219
G01 X20.1023 Y1.5080
G01 X20.1223 Y1.4960
G01 X20.1434 Y1.4861
G01 X20.1653 Y1.4782
G01 X20.1879 Y1.4725
G01 X20.2110 Y1.4691
G01 X20.2343 Y1.4680
G01 X20.2576 Y1.4691
G01 X20.2806 Y1.4725
G01 X20.3057 Y1.4790
M5
G00 X21.9004 Y3.2056
M3
G01 X21.8993 Y3.2289
G01 X21.8963 Y3.2495
G01 X21.8894 Y3.2769
G01 X21.8824 Y3.2965
G01 X21.8724 Y3.3176
G01 X21.8604 Y3.3376
G01 X21.8465 Y3.3563
G01 X21.8309 Y3.3736
G01 X21.8136 Y3.3892
G01 X21.7949 Y3.4031
G01 X21.7770 Y3.4139
G01 X21.7538 Y3.4251
G01 X21.7342 Y3.4322
G01 X21.7068 Y3.4390
G01 X21.6861 Y3.4420
G01 X21.6629 Y3.4432
G01 X21.6396 Y3.4420
G01 X21.6165 Y3.4386
G01 X21.5939 Y3.4329
G01 X21.5719 Y3.4251
G01 X21.5509 Y3.4151
G01 X21.5329 Y3.4044
G01 X21.5103 Y3.3876
G01 X21.4949 Y3.3736
G01 X21.4777 Y3.3544
G01 X21.4653 Y3.3376
G01 X21.4533 Y3.3176
G01 X21.4433 Y3.2965
G01 X21.4355 Y3.2745
G01 X21.4298 Y3.2519
G01 X21.4267 Y3.2313
G01 X21.4253 Y3.2056
G01 X21.4253 Y1.9759
G01 X21.4143 Y1.9541
G01 X21.3423 Y1.9181
G01 X21.3220 Y1.9066
G01 X21.3029 Y1.8933
G01 X21.2870 Y1.8797
G01 X21.2683 Y1.8603
G01 X21.2547 Y1.8429
G01 X21.2422 Y1.8232
G01 X21.2316 Y1.8024
G01 X21.2240 Y1.7830
G01 X21.2164 Y1.7558
G01 X21.2128 Y1.7353
G01 X21.2111 Y1.7120
G01 X21.2116 Y1.6887
G01 X21.2140 Y1.6680
G01 X21.2201 Y1.6405
G01 X21.2267 Y1.6207
G01 X21.2361 Y1.5993
G01 X21.2475 Y1.5790
G01 X21.2594 Y1.5619
G01 X21.2778 Y1.5405
G01 X21.2929 Y1.5261
G01 X21.3112 Y1.5117
G01 X21.3309 Y1.4992
G01 X21.3495 Y1.4897
G01 X21.3746 Y1.4798
G01 X21.3959 Y1.4739
G01 X21.4164 Y1.4702
G01 X21.4421 Y1.4681
G01 X21.4654 Y1.4686
G01 X21.4861 Y1.4710
G01 X21.5125 Y1.4768
G01 X21.5335 Y1.4837
G01 X21.5548 Y1.4931
G01 X21.6988 Y1.5651
G01 X21.7170 Y1.5753
G01 X21.7288 Y1.5831
G01 X21.7371 Y1.5893
G01 X21.7471 Y1.5975
G01 X21.7548 Y1.6045
G01 X21.7639 Y1.6136
G01 X21.7709 Y1.6213
G01 X21.7791 Y1.6313
G01 X21.7853 Y1.6397
G01 X21.7931 Y1.6515
G01 X21.7978 Y1.6593
G01 X21.8039 Y1.6707
G01 X21.8754 Y1.8136
G01 X21.8843 Y1.8338
G01 X21.8902 Y1.8509
G01 X21.8956 Y1.8723
G01 X21.8973 Y1.8811
G01 X21.8999 Y1.9030
G01 X21.9004 Y1.9199
G01 X21.9004 Y3.2056
M5
G00 X22.8078 Y1.9723
M3
G01 X22.8247 Y1.9892
G01 X22.8538 Y2.0474
G01 X22.8538 Y2.3638
G01 X22.8247 Y2.4220
G01 X22.8078 Y2.4389
G01 X22.7496 Y2.4680
G01 X22.6475 Y2.4680
G01 X22.5893 Y2.4389
G01 X22.5724 Y2.4220
G01 X22.5433 Y2.3638
G01 X22.5433 Y2.0474
G01 X22.5724 Y1.9892
G01 X22.5893 Y1.9723
G01 X22.6475 Y1.9432
G01 X22.7496 Y1.9432
G01 X22.8078 Y1.9723
M5
G00 X23.3290 Y2.4199
M3
G01 X23.3279 Y2.4431
G01 X23.3245 Y2.4662
G01 X23.3188 Y2.4888
G01 X23.3109 Y2.5108
G01 X23.3039 Y2.5261
G01 X23.2295 Y2.6747
G01 X23.2176 Y2.6947
G01 X23.2084 Y2.7074
G01 X23.2029 Y2.7144
G01 X23.1880 Y2.7307
G01 X23.1119 Y2.8067
G01 X23.0993 Y2.8178
G01 X23.0816 Y2.8310
G01 X23.0741 Y2.8359
G01 X23.0548 Y2.8467
G01 X22.9120 Y2.9181
G01 X22.8966 Y2.9251
G01 X22.8747 Y2.9329
G01 X22.8533 Y2.9383
G01 X22.8445 Y2.9400
G01 X22.8302 Y2.9419
G01 X22.8213 Y2.9426
G01 X22.8057 Y2.9432
G01 X22.5914 Y2.9432
G01 X22.5746 Y2.9426
G01 X22.5526 Y2.9400
G01 X22.5439 Y2.9383
G01 X22.5236 Y2.9333
G01 X22.5077 Y2.9279
G01 X22.4994 Y2.9246
G01 X22.4852 Y2.9181
G01 X22.3423 Y2.8467
G01 X22.3230 Y2.8359
G01 X22.3156 Y2.8310
G01 X22.3029 Y2.8218
G01 X22.2861 Y2.8075
G01 X22.2806 Y2.8021
G01 X22.2046 Y2.7261
G01 X22.1894 Y2.7084
G01 X22.1767 Y2.6903
G01 X22.1682 Y2.6758
G01 X22.1646 Y2.6690
G01 X22.0932 Y2.5261
G01 X22.0867 Y2.5119
G01 X22.0834 Y2.5036
G01 X22.0787 Y2.4900
G01 X22.0762 Y2.4814
G01 X22.0717 Y2.4611
G01 X22.0694 Y2.4444
G01 X22.0686 Y2.4355
G01 X22.0681 Y2.4199
G01 X22.0681 Y1.9913
G01 X22.0687 Y1.9744
G01 X22.0713 Y1.9525
G01 X22.0729 Y1.9437
G01 X22.0780 Y1.9235
G01 X22.0834 Y1.9075
G01 X22.0867 Y1.8992
G01 X22.0932 Y1.8850
G01 X22.1646 Y1.7422
G01 X22.1754 Y1.7229
G01 X22.1803 Y1.7154
G01 X22.1894 Y1.7028
G01 X22.2038 Y1.6860
G01 X22.2091 Y1.6804
G01 X22.2852 Y1.6045
G01 X22.3019 Y1.5901
G01 X22.3166 Y1.5794
G01 X22.3355 Y1.5681
G01 X22.3423 Y1.5645
G01 X22.4863 Y1.4925
G01 X22.5054 Y1.4841
G01 X22.5213 Y1.4786
G01 X22.5299 Y1.4761
G01 X22.5514 Y1.4714
G01 X22.5681 Y1.4691
G01 X22.5902 Y1.4680
G01 X22.8057 Y1.4680
G01 X22.8290 Y1.4691
G01 X22.8521 Y1.4725
G01 X22.8673 Y1.4761
G01 X22.8759 Y1.4786
G01 X22.8955 Y1.4856
G01 X22.9109 Y1.4925
G01 X23.0548 Y1.5645
G01 X23.0741 Y1.5753
G01 X23.0816 Y1.5801
G01 X23.0942 Y1.5893
G01 X23.1110 Y1.6037
G01 X23.1166 Y1.6090
G01 X23.1925 Y1.6851
G01 X23.2037 Y1.6977
G01 X23.2169 Y1.7154
G01 X23.2217 Y1.7229
G01 X23.2325 Y1.7422
G01 X23.3039 Y1.8850
G01 X23.3129 Y1.9052
G01 X23.3188 Y1.9223
G01 X23.3242 Y1.9437
G01 X23.3258 Y1.9525
G01 X23.3283 Y1.9732
G01 X23.3290 Y1.9901
G01 X23.3290 Y2.4199
M5
G00 X24.1395 Y2.4680
M3
G01 X24.0047 Y2.4680
G01 X23.9465 Y2.4389
G01 X23.9296 Y2.4220
G01 X23.9004 Y2.3638
G01 X23.9004 Y2.0474
G01 X23.9296 Y1.9892
G01 X23.9465 Y1.9723
G01 X24.0047 Y1.9432
G01 X24.1395 Y1.9432
G01 X24.1395 Y2.4680
M5
G00 X24.9234 Y2.8947
M3
G01 X24.9350 Y2.8841
G01 X24.9226 Y2.8727
G01 X24.9070 Y2.8553
G01 X24.8939 Y2.8376
G01 X24.8813 Y2.8165
G01 X24.8719 Y2.7965
G01 X24.8641 Y2.7745
G01 X24.8584 Y2.7519
G01 X24.8548 Y2.7264
G01 X24.8538 Y2.7056
G01 X24.8538 Y1.7056
G01 X24.8551 Y1.6811
G01 X24.8584 Y1.6592
G01 X24.8641 Y1.6366
G01 X24.8719 Y1.6146
G01 X24.8819 Y1.5936
G01 X24.8939 Y1.5736
G01 X24.9078 Y1.5548
G01 X24.9234 Y1.5376
G01 X24.9407 Y1.5219
G01 X24.9594 Y1.5080
G01 X24.9794 Y1.4960
G01 X25.0005 Y1.4861
G01 X25.0225 Y1.4782
G01 X25.0451 Y1.4725
G01 X25.0681 Y1.4691
G01 X25.0914 Y1.4680
G01 X25.1159 Y1.4693
G01 X25.1378 Y1.4725
G01 X25.1580 Y1.4776
G01 X25.1846 Y1.4871
G01 X25.2034 Y1.4960
G01 X25.2234 Y1.5080
G01 X25.2422 Y1.5219
G01 X25.2577 Y1.5359
G01 X25.2766 Y1.5568
G01 X25.2890 Y1.5736
G01 X25.3010 Y1.5936
G01 X25.3109 Y1.6146
G01 X25.3180 Y1.6343
G01 X25.3247 Y1.6604
G01 X25.3279 Y1.6823
G01 X25.3290 Y1.7056
G01 X25.3290 Y2.7056
G01 X25.3280 Y2.7276
G01 X25.3245 Y2.7519
G01 X25.3188 Y2.7745
G01 X25.3109 Y2.7965
G01 X25.3015 Y2.8165
G01 X25.2890 Y2.8376
G01 X25.2759 Y2.8553
G01 X25.2603 Y2.8727
G01 X25.2479 Y2.8841
G01 X25.2594 Y2.8947
G01 X25.3317 Y2.9670
G01 X25.3465 Y2.9834
G01 X25.3617 Y3.0042
G01 X25.3724 Y3.0221
G01 X25.3814 Y3.0410
G01 X25.3902 Y3.0652
G01 X25.3963 Y3.0902
G01 X25.3993 Y3.1109
G01 X25.4004 Y3.1317
G01 X25.3990 Y3.1599
G01 X25.3959 Y3.1805
G01 X25.3902 Y3.2031
G01 X25.3824 Y3.2251
G01 X25.3735 Y3.2440
G01 X25.3597 Y3.2672
G01 X25.3465 Y3.2849
G01 X25.3317 Y3.3013
G01 X25.2586 Y3.3744
G01 X25.2422 Y3.3892
G01 X25.2254 Y3.4017
G01 X25.2034 Y3.4151
G01 X25.1824 Y3.4251
G01 X25.1580 Y3.4336
G01 X25.1378 Y3.4386
G01 X25.1172 Y3.4417
G01 X25.0939 Y3.4431
G01 X25.0681 Y3.4420
G01 X25.0451 Y3.4386
G01 X25.0225 Y3.4329
G01 X24.9994 Y3.4246
G01 X24.9794 Y3.4151
G01 X24.9594 Y3.4031
G01 X24.9407 Y3.3892
G01 X24.9243 Y3.3744
G01 X24.8520 Y3.3021
G01 X24.8379 Y3.2867
G01 X24.8224 Y3.2661
G01 X24.8105 Y3.2461
G01 X24.8005 Y3.2251
G01 X24.7926 Y3.2031
G01 X24.7870 Y3.1805
G01 X24.7835 Y3.1574
G01 X24.7824 Y3.1341
G01 X24.7835 Y3.1109
G01 X24.7870 Y3.0878
G01 X24.7930 Y3.0640
G01 X24.8005 Y3.0432
G01 X24.8105 Y3.0221
G01 X24.8224 Y3.0021
G01 X24.8356 Y2.9844
G01 X24.8520 Y2.9661
G01 X24.9234 Y2.8947
M5
G00 X26.3416 Y2.9176
M3
G01 X26.3263 Y2.9246
G01 X26.3192 Y2.9275
G01 X26.3044 Y2.9326
G01 X26.2959 Y2.9350
G01 X26.2755 Y2.9396
G01 X26.2588 Y2.9419
G01 X26.2499 Y2.9426
G01 X26.2355 Y2.9432
G01 X26.0200 Y2.9432
G01 X26.0032 Y2.9426
G01 X25.9800 Y2.9398
G01 X25.9584 Y2.9350
G01 X25.9499 Y2.9326
G01 X25.9362 Y2.9279
G01 X25.9279 Y2.9246
G01 X25.9137 Y2.9181
G01 X25.7709 Y2.8467
G01 X25.7595 Y2.8406
G01 X25.7506 Y2.8352
G01 X25.7408 Y2.8287
G01 X25.7315 Y2.8218
G01 X25.7206 Y2.8128
G01 X25.7055 Y2.7984
G01 X25.6969 Y2.7889
G01 X25.6840 Y2.7725
G01 X25.6761 Y2.7607
G01 X25.6701 Y2.7507
G01 X25.6646 Y2.7404
G01 X25.5932 Y2.5975
G01 X25.5867 Y2.5833
G01 X25.5834 Y2.5750
G01 X25.5784 Y2.5603
G01 X25.5727 Y2.5376
G01 X25.5693 Y2.5146
G01 X25.5681 Y2.4925
G01 X25.5681 Y1.7056
G01 X25.5694 Y1.6811
G01 X25.5732 Y1.6568
G01 X25.5784 Y1.6366
G01 X25.5853 Y1.6169
G01 X25.5962 Y1.5936
G01 X25.6096 Y1.5716
G01 X25.6221 Y1.5548
G01 X25.6360 Y1.5393
G01 X25.6550 Y1.5219
G01 X25.6758 Y1.5067
G01 X25.6937 Y1.4960
G01 X25.7137 Y1.4865
G01 X25.7367 Y1.4782
G01 X25.7594 Y1.4725
G01 X25.7824 Y1.4691
G01 X25.8057 Y1.4680
G01 X25.8290 Y1.4691
G01 X25.8521 Y1.4725
G01 X25.8747 Y1.4782
G01 X25.8966 Y1.4861
G01 X25.9177 Y1.4960
G01 X25.9377 Y1.5080
G01 X25.9564 Y1.5219
G01 X25.9737 Y1.5376
G01 X25.9894 Y1.5548
G01 X26.0033 Y1.5736
G01 X26.0153 Y1.5936
G01 X26.0261 Y1.6169
G01 X26.0331 Y1.6366
G01 X26.0387 Y1.6592
G01 X26.0422 Y1.6823
G01 X26.0433 Y1.7043
G01 X26.0433 Y2.4352
G01 X26.0542 Y2.4571
G01 X26.0761 Y2.4680
G01 X26.1782 Y2.4680
G01 X26.2110 Y2.4516
G01 X26.2110 Y1.7031
G01 X26.2121 Y1.6823
G01 X26.2151 Y1.6616
G01 X26.2212 Y1.6366
G01 X26.2291 Y1.6146
G01 X26.2379 Y1.5958
G01 X26.2517 Y1.5726
G01 X26.2649 Y1.5548
G01 X26.2789 Y1.5393
G01 X26.2978 Y1.5219
G01 X26.3186 Y1.5067
G01 X26.3366 Y1.4960
G01 X26.3554 Y1.4871
G01 X26.3796 Y1.4782
G01 X26.4046 Y1.4721
G01 X26.4253 Y1.4691
G01 X26.4461 Y1.4680
G01 X26.4719 Y1.4691
G01 X26.4973 Y1.4731
G01 X26.5175 Y1.4782
G01 X26.5372 Y1.4852
G01 X26.5606 Y1.4960
G01 X26.5826 Y1.5094
G01 X26.5993 Y1.5219
G01 X26.6148 Y1.5359
G01 X26.6322 Y1.5548
G01 X26.6474 Y1.5756
G01 X26.6581 Y1.5936
G01 X26.6676 Y1.6135
G01 X26.6759 Y1.6366
G01 X26.6816 Y1.6592
G01 X26.6850 Y1.6823
G01 X26.6862 Y1.7056
G01 X26.6862 Y2.7056
G01 X26.6850 Y2.7289
G01 X26.6811 Y2.7543
G01 X26.6759 Y2.7745
G01 X26.6671 Y2.7987
G01 X26.6581 Y2.8176
G01 X26.6474 Y2.8355
G01 X26.6337 Y2.8544
G01 X26.6166 Y2.8736
G01 X26.5993 Y2.8892
G01 X26.5806 Y2.9031
G01 X26.5584 Y2.9162
G01 X26.5372 Y2.9260
G01 X26.5175 Y2.9329
G01 X26.4973 Y2.9381
G01 X26.4719 Y2.9420
G01 X26.4486 Y2.9432
G01 X26.4253 Y2.9420
G01 X26.3998 Y2.9381
G01 X26.3773 Y2.9322
G01 X26.3576 Y2.9251
G01 X26.3416 Y2.9176
M5
G00 X28.2572 Y1.9829
M3
G01 X28.2576 Y1.9913
G01 X28.2575 Y3.2080
G01 X28.2564 Y3.2289
G01 X28.2530 Y3.2519
G01 X28.2474 Y3.2745
G01 X28.2404 Y3.2942
G01 X28.2295 Y3.3176
G01 X28.2189 Y3.3355
G01 X28.2021 Y3.3582
G01 X28.1862 Y3.3753
G01 X28.1707 Y3.3892
G01 X28.1540 Y3.4017
G01 X28.1320 Y3.4151
G01 X28.1109 Y3.4251
G01 X28.0866 Y3.4336
G01 X28.0664 Y3.4386
G01 X28.0457 Y3.4417
G01 X28.0200 Y3.4432
G01 X27.9967 Y3.4420
G01 X27.9713 Y3.4381
G01 X27.9510 Y3.4329
G01 X27.9314 Y3.4260
G01 X27.9080 Y3.4151
G01 X27.8880 Y3.4031
G01 X27.8674 Y3.3876
G01 X27.8520 Y3.3736
G01 X27.8379 Y3.3582
G01 X27.8224 Y3.3376
G01 X27.8099 Y3.3165
G01 X27.7996 Y3.2942
G01 X27.7926 Y3.2745
G01 X27.7875 Y3.2543
G01 X27.7836 Y3.2289
G01 X27.7824 Y3.2068
G01 X27.7824 Y2.0474
G01 X27.7533 Y1.9892
G01 X27.7364 Y1.9723
G01 X27.6782 Y1.9432
G01 X27.5047 Y1.9432
G01 X27.4465 Y1.9723
G01 X27.4296 Y1.9892
G01 X27.4005 Y2.0474
G01 X27.4005 Y3.2056
G01 X27.3993 Y3.2289
G01 X27.3963 Y3.2495
G01 X27.3898 Y3.2757
G01 X27.3814 Y3.2987
G01 X27.3724 Y3.3176
G01 X27.3617 Y3.3355
G01 X27.3465 Y3.3563
G01 X27.3309 Y3.3736
G01 X27.3136 Y3.3892
G01 X27.2928 Y3.4044
G01 X27.2749 Y3.4151
G01 X27.2560 Y3.4241
G01 X27.2318 Y3.4329
G01 X27.2092 Y3.4386
G01 X27.1837 Y3.4422
G01 X27.1629 Y3.4432
G01 X27.1420 Y3.4422
G01 X27.1165 Y3.4386
G01 X27.0916 Y3.4322
G01 X27.0719 Y3.4251
G01 X27.0530 Y3.4162
G01 X27.0309 Y3.4031
G01 X27.0103 Y3.3876
G01 X26.9949 Y3.3736
G01 X26.9792 Y3.3563
G01 X26.9653 Y3.3376
G01 X26.9533 Y3.3176
G01 X26.9433 Y3.2965
G01 X26.9355 Y3.2745
G01 X26.9298 Y3.2519
G01 X26.9262 Y3.2264
G01 X26.9253 Y3.2056
G01 X26.9253 Y1.9901
G01 X26.9264 Y1.9680
G01 X26.9298 Y1.9449
G01 X26.9355 Y1.9223
G01 X26.9405 Y1.9075
G01 X26.9438 Y1.8992
G01 X26.9503 Y1.8850
G01 X27.0247 Y1.7364
G01 X27.0326 Y1.7229
G01 X27.0374 Y1.7154
G01 X27.0499 Y1.6987
G01 X27.0609 Y1.6860
G01 X27.1423 Y1.6045
G01 X27.1600 Y1.5893
G01 X27.1791 Y1.5759
G01 X27.1995 Y1.5645
G01 X27.3434 Y1.4925
G01 X27.3637 Y1.4837
G01 X27.3858 Y1.4764
G01 X27.4022 Y1.4725
G01 X27.4241 Y1.4693
G01 X27.4330 Y1.4685
G01 X27.4486 Y1.4680
G01 X27.7355 Y1.4680
G01 X27.7499 Y1.4685
G01 X27.7588 Y1.4693
G01 X27.7794 Y1.4723
G01 X27.7959 Y1.4761
G01 X27.8044 Y1.4786
G01 X27.8192 Y1.4837
G01 X27.8394 Y1.4925
G01 X27.9834 Y1.5645
G01 X28.0037 Y1.5759
G01 X28.0228 Y1.5893
G01 X28.0405 Y1.6045
G01 X28.1219 Y1.6860
G01 X28.1355 Y1.7018
G01 X28.1454 Y1.7154
G01 X28.1503 Y1.7229
G01 X28.1581 Y1.7364
G01 X28.2325 Y1.8850
G01 X28.2390 Y1.8992
G01 X28.2423 Y1.9075
G01 X28.2474 Y1.9223
G01 X28.2528 Y1.9437
G01 X28.2544 Y1.9525
G01 X28.2563 Y1.9668
G01 X28.2572 Y1.9829
M5
G00 X20.4282 Y5.9938
M3
G01 X22.9360 Y5.9938
G01 X22.9499 Y5.9708
G01 X22.9982 Y5.9057
G01 X23.0558 Y5.8421
G01 X23.1168 Y5.7869
G01 X23.1818 Y5.7387
G01 X23.2564 Y5.6938
G01 X23.3307 Y5.6587
G01 X23.4069 Y5.6314
G01 X23.4902 Y5.6103
G01 X23.5727 Y5.5981
G01 X23.6535 Y5.5941
G01 X23.7405 Y5.5982
G01 X23.8218 Y5.6103
G01 X23.9027 Y5.6306
G01 X23.9813 Y5.6587
G01 X24.0567 Y5.6944
G01 X24.1282 Y5.7373
G01 X24.1952 Y5.7869
G01 X24.2570 Y5.8430
G01 X24.3131 Y5.9048
G01 X24.3627 Y5.9718
G01 X24.4056 Y6.0433
G01 X24.4413 Y6.1187
G01 X24.4694 Y6.1973
G01 X24.4897 Y6.2782
G01 X24.5019 Y6.3607
G01 X24.5060 Y6.4440
G01 X24.5018 Y6.5285
G01 X24.4897 Y6.6098
G01 X24.4694 Y6.6907
G01 X24.4413 Y6.7693
G01 X24.4056 Y6.8447
G01 X24.3627 Y6.9162
G01 X24.3131 Y6.9832
G01 X24.2570 Y7.0450
G01 X24.1971 Y7.0995
G01 X24.1282 Y7.1507
G01 X24.0588 Y7.1924
G01 X23.9790 Y7.2302
G01 X23.9027 Y7.2574
G01 X23.8218 Y7.2777
G01 X23.7393 Y7.2899
G01 X23.6572 Y7.2940
G01 X23.5702 Y7.2896
G01 X23.4902 Y7.2777
G01 X23.4116 Y7.2581
G01 X23.3307 Y7.2293
G01 X23.2542 Y7.1930
G01 X23.1838 Y7.1507
G01 X23.1187 Y7.1026
G01 X23.0558 Y7.0459
G01 X22.9982 Y6.9823
G01 X22.9499 Y6.9172
G01 X22.9360 Y6.8942
G01 X20.4282 Y6.8942
G01 X20.3905 Y6.9221
G01 X20.3442 Y6.9499
G01 X20.2933 Y6.9742
G01 X20.2379 Y6.9942
G01 X20.1808 Y7.0084
G01 X20.1274 Y7.0162
G01 X20.0722 Y7.0190
G01 X19.6185 Y7.0189
G01 X19.5646 Y7.0162
G01 X19.5112 Y7.0084
G01 X19.4541 Y6.9942
G01 X19.3987 Y6.9742
G01 X19.3499 Y6.9511
G01 X19.3036 Y6.9234
G01 X19.2562 Y6.8885
G01 X19.2127 Y6.8488
G01 X19.1765 Y6.8088
G01 X19.1443 Y6.7655
G01 X19.1139 Y6.7151
G01 X19.0898 Y6.6640
G01 X19.0708 Y6.6109
G01 X19.0570 Y6.5562
G01 X19.0488 Y6.5004
G01 X19.0460 Y6.4440
G01 X19.0488 Y6.3876
G01 X19.0570 Y6.3318
G01 X19.0708 Y6.2771
G01 X19.0898 Y6.2240
G01 X19.1139 Y6.1729
G01 X19.1429 Y6.1245
G01 X19.1765 Y6.0792
G01 X19.2144 Y6.0374
G01 X19.2562 Y5.9995
G01 X19.3015 Y5.9659
G01 X19.3499 Y5.9369
G01 X19.4010 Y5.9128
G01 X19.4541 Y5.8938
G01 X19.5088 Y5.8800
G01 X19.5659 Y5.8717
G01 X19.6210 Y5.8690
G01 X20.0710 Y5.8690
G01 X20.1249 Y5.8716
G01 X20.1856 Y5.8806
G01 X20.2379 Y5.8938
G01 X20.2910 Y5.9128
G01 X20.3442 Y5.9381
G01 X20.3905 Y5.9659
G01 X20.4282 Y5.9938
M5
G00 X20.4282 Y11.3278
M3
G01 X22.9360 Y11.3278
G01 X22.9499 Y11.3048
G01 X22.9982 Y11.2397
G01 X23.0558 Y11.1761
G01 X23.1168 Y11.1209
G01 X23.1818 Y11.0727
G01 X23.2564 Y11.0278
G01 X23.3307 Y10.9927
G01 X23.4069 Y10.9654
G01 X23.4902 Y10.9443
G01 X23.5727 Y10.9321
G01 X23.6535 Y10.9281
G01 X23.7405 Y10.9322
G01 X23.8218 Y10.9443
G01 X23.9027 Y10.9646
G01 X23.9813 Y10.9927
G01 X24.0567 Y11.0284
G01 X24.1282 Y11.0713
G01 X24.1952 Y11.1209
G01 X24.2570 Y11.1770
G01 X24.3131 Y11.2388
G01 X24.3627 Y11.3058
G01 X24.4056 Y11.3773
G01 X24.4413 Y11.4527
G01 X24.4694 Y11.5313
G01 X24.4897 Y11.6122
G01 X24.5019 Y11.6947
G01 X24.5060 Y11.7780
G01 X24.5018 Y11.8625
G01 X24.4897 Y11.9438
G01 X24.4694 Y12.0247
G01 X24.4413 Y12.1033
G01 X24.4056 Y12.1787
G01 X24.3627 Y12.2502
G01 X24.3131 Y12.3172
G01 X24.2570 Y12.3790
G01 X24.1971 Y12.4335
G01 X24.1282 Y12.4847
G01 X24.0588 Y12.5264
G01 X23.9790 Y12.5642
G01 X23.9027 Y12.5914
G01 X23.8218 Y12.6117
G01 X23.7393 Y12.6239
G01 X23.6572 Y12.6280
G01 X23.5702 Y12.6236
G01 X23.4902 Y12.6117
G01 X23.4116 Y12.5921
G01 X23.3307 Y12.5633
G01 X23.2542 Y12.5270
G01 X23.1838 Y12.4847
G01 X23.1187 Y12.4366
G01 X23.0558 Y12.3799
G01 X22.9982 Y12.3163
G01 X22.9499 Y12.2512
G01 X22.9360 Y12.2282
G01 X20.4282 Y12.2282
G01 X20.3905 Y12.2561
G01 X20.3442 Y12.2839
G01 X20.2933 Y12.3082
G01 X20.2379 Y12.3282
G01 X20.1808 Y12.3424
G01 X20.1274 Y12.3502
G01 X20.0722 Y12.3530
G01 X19.6185 Y12.3529
G01 X19.5646 Y12.3502
G01 X19.5112 Y12.3424
G01 X19.4541 Y12.3282
G01 X19.3987 Y12.3082
G01 X19.3499 Y12.2851
G01 X19.3036 Y12.2574
G01 X19.2562 Y12.2225
G01 X19.2127 Y12.1828
G01 X19.1765 Y12.1428
G01 X19.1443 Y12.0995
G01 X19.1139 Y12.0491
G01 X19.0898 Y11.9980
G01 X19.0708 Y11.9449
G01 X19.0570 Y11.8902
G01 X19.0488 Y11.8344
G01 X19.0460 Y11.7780
G01 X19.0488 Y11.7216
G01 X19.0570 Y11.6658
G01 X19.0708 Y11.6111
G01 X19.0898 Y11.5580
G01 X19.1139 Y11.5069
G01 X19.1429 Y11.4585
G01 X19.1765 Y11.4132
G01 X19.2144 Y11.3714
G01 X19.2562 Y11.3335
G01 X19.3015 Y11.2999
G01 X19.3499 Y11.2709
G01 X19.4010 Y11.2468
G01 X19.4541 Y11.2278
G01 X19.5088 Y11.2140
G01 X19.5659 Y11.2057
G01 X19.6210 Y11.2030
G01 X20.0710 Y11.2030
G01 X20.1249 Y11.2056
G01 X20.1856 Y11.2146
G01 X20.2379 Y11.2278
G01 X20.2910 Y11.2468
G01 X20.3442 Y11.2721
G01 X20.3905 Y11.2999
G01 X20.4282 Y11.3278
M5
G00 X22.6763 Y14.1003
M3
G01 X24.6053 Y12.1712
G01 X24.6053 Y10.8240
G01 X23.2486 Y9.4673
G01 X21.8895 Y10.8263
G01 X21.8568 Y10.8560
G01 X21.8193 Y10.8836
G01 X21.7812 Y10.9061
G01 X21.7435 Y10.9239
G01 X21.7042 Y10.9380
G01 X21.6590 Y10.9495
G01 X21.6141 Y10.9561
G01 X21.5712 Y10.9582
G01 X20.6460 Y10.9582
G01 X20.6460 Y11.0342
G01 X20.6453 Y11.0415
G01 X20.6431 Y11.0498
G01 X20.6407 Y11.0555
G01 X20.6369 Y11.0618
G01 X20.6322 Y11.0675
G01 X20.6268 Y11.0724
G01 X20.6206 Y11.0765
G01 X20.6151 Y11.0792
G01 X20.6081 Y11.0815
G01 X20.6021 Y11.0826
G01 X20.5960 Y11.0830
G01 X19.0960 Y11.0830
G01 X19.0887 Y11.0825
G01 X19.0815 Y11.0808
G01 X19.0746 Y11.0782
G01 X19.0672 Y11.0739
G01 X19.0624 Y11.0700
G01 X19.0581 Y11.0657
G01 X19.0544 Y11.0608
G01 X19.0519 Y11.0566
G01 X19.0494 Y11.0510
G01 X19.0478 Y11.0463
G01 X19.0465 Y11.0403
G01 X19.0460 Y11.0342
G01 X19.0460 Y9.9830
G01 X19.0464 Y9.9769
G01 X19.0475 Y9.9709
G01 X19.0503 Y9.9627
G01 X19.0538 Y9.9563
G01 X19.0590 Y9.9494
G01 X19.0652 Y9.9436
G01 X19.0724 Y9.9389
G01 X19.0792 Y9.9359
G01 X19.0875 Y9.9337
G01 X19.0948 Y9.9330
G01 X20.5985 Y9.9331
G01 X20.6058 Y9.9340
G01 X20.6128 Y9.9359
G01 X20.6196 Y9.9389
G01 X20.6258 Y9.9428
G01 X20.6314 Y9.9476
G01 X20.6362 Y9.9532
G01 X20.6401 Y9.9594
G01 X20.6426 Y9.9650
G01 X20.6450 Y9.9732
G01 X20.6460 Y9.9818
G01 X20.6460 Y10.0578
G01 X21.3847 Y10.0578
G01 X24.6053 Y6.8372
G01 X24.6053 Y6.0508
G01 X24.0492 Y5.4947
G01 X20.6460 Y5.4947
G01 X20.6460 Y5.6990
G01 X20.6453 Y5.7075
G01 X20.6435 Y5.7147
G01 X20.6407 Y5.7215
G01 X20.6369 Y5.7278
G01 X20.6314 Y5.7344
G01 X20.6258 Y5.7392
G01 X20.6185 Y5.7437
G01 X20.6117 Y5.7465
G01 X20.6045 Y5.7483
G01 X20.5960 Y5.7490
G01 X19.0960 Y5.7490
G01 X19.0899 Y5.7486
G01 X19.0839 Y5.7475
G01 X19.0757 Y5.7447
G01 X19.0682 Y5.7406
G01 X19.0624 Y5.7360
G01 X19.0566 Y5.7298
G01 X19.0519 Y5.7226
G01 X19.0485 Y5.7147
G01 X19.0465 Y5.7063
G01 X19.0460 Y5.6990
G01 X19.0460 Y4.6478
G01 X19.0465 Y4.6417
G01 X19.0482 Y4.6345
G01 X19.0503 Y4.6287
G01 X19.0538 Y4.6223
G01 X19.0581 Y4.6163
G01 X19.0633 Y4.6111
G01 X19.0682 Y4.6074
G01 X19.0746 Y4.6038
G01 X19.0803 Y4.6015
G01 X19.0850 Y4.6002
G01 X19.0911 Y4.5992
G01 X19.0960 Y4.5990
G01 X19.9138 Y4.5990
G01 X19.9326 Y4.5964
G01 X19.9755 Y4.5943
G01 X24.0492 Y4.5943
G01 X24.9169 Y3.7266
G01 X24.9487 Y3.6978
G01 X24.9872 Y3.6693
G01 X25.0230 Y3.6479
G01 X25.0629 Y3.6290
G01 X25.1045 Y3.6142
G01 X25.1450 Y3.6040
G01 X25.1923 Y3.5968
G01 X25.2352 Y3.5948
G01 X32.0832 Y3.5948
G01 X33.9613 Y1.7167
G01 X33.9931 Y1.6879
G01 X34.0286 Y1.6616
G01 X34.0665 Y1.6389
G01 X34.1042 Y1.6210
G01 X34.1504 Y1.6045
G01 X34.1909 Y1.5944
G01 X34.2346 Y1.5879
G01 X34.2788 Y1.5857
G01 X48.1770 Y1.5857
G01 X48.2211 Y1.5879
G01 X48.2624 Y1.5940
G01 X48.3088 Y1.6055
G01 X48.3515 Y1.6210
G01 X48.3892 Y1.6389
G01 X48.4250 Y1.6603
G01 X48.4626 Y1.6879
G01 X48.4953 Y1.7176
G01 X52.6019 Y5.8241
G01 X52.6330 Y5.8588
G01 X52.6578 Y5.8924
G01 X52.6806 Y5.9303
G01 X52.6994 Y5.9702
G01 X52.7136 Y6.0095
G01 X52.7251 Y6.0546
G01 X52.7315 Y6.0984
G01 X52.7337 Y6.1425
G01 X52.7337 Y10.3734
G01 X52.7315 Y10.4175
G01 X52.7253 Y10.4600
G01 X52.7136 Y10.5064
G01 X52.6994 Y10.5457
G01 X52.6817 Y10.5834
G01 X52.6578 Y10.6235
G01 X52.6299 Y10.6608
G01 X52.6019 Y10.6917
G01 X51.7026 Y11.5909
G01 X51.7167 Y11.6473
G01 X51.7295 Y11.7335
G01 X51.7340 Y11.8229
G01 X51.7295 Y11.9123
G01 X51.7167 Y11.9985
G01 X51.7026 Y12.0549
G01 X52.6019 Y12.9541
G01 X52.6307 Y12.9859
G01 X52.6592 Y13.0244
G01 X52.6806 Y13.0602
G01 X52.6994 Y13.1001
G01 X52.7143 Y13.1417
G01 X52.7245 Y13.1822
G01 X52.7316 Y13.2295
G01 X52.7337 Y13.2724
G01 X52.7337 Y24.0744
G01 X52.7315 Y24.1185
G01 X52.7255 Y24.1598
G01 X52.7140 Y24.2062
G01 X52.6984 Y24.2489
G01 X52.6806 Y24.2866
G01 X52.6592 Y24.3224
G01 X52.6315 Y24.3600
G01 X52.6027 Y24.3918
G01 X51.7340 Y25.2606
G01 X51.7340 Y26.3751
G01 X51.7333 Y26.3824
G01 X51.7311 Y26.3907
G01 X51.7275 Y26.3985
G01 X51.7234 Y26.4046
G01 X51.7176 Y26.4109
G01 X51.7118 Y26.4155
G01 X51.7054 Y26.4191
G01 X51.6985 Y26.4217
G01 X51.6913 Y26.4233
G01 X51.6840 Y26.4239
G01 X49.9840 Y26.4239
G01 X49.9779 Y26.4235
G01 X49.9719 Y26.4224
G01 X49.9649 Y26.4201
G01 X49.9573 Y26.4161
G01 X49.9513 Y26.4117
G01 X49.9453 Y26.4056
G01 X49.9411 Y26.3996
G01 X49.9374 Y26.3919
G01 X49.9352 Y26.3848
G01 X49.9341 Y26.3776
G01 X49.9340 Y25.9741
G01 X48.7690 Y25.9741
G01 X48.7461 Y26.0121
G01 X48.6978 Y26.0772
G01 X48.6402 Y26.1408
G01 X48.5773 Y26.1975
G01 X48.5122 Y26.2456
G01 X48.4418 Y26.2879
G01 X48.3653 Y26.3242
G01 X48.2844 Y26.3529
G01 X48.2058 Y26.3726
G01 X48.1258 Y26.3845
G01 X48.0400 Y26.3889
G01 X47.9542 Y26.3845
G01 X47.8742 Y26.3726
G01 X47.7956 Y26.3529
G01 X47.7147 Y26.3242
G01 X47.6382 Y26.2879
G01 X47.5678 Y26.2456
G01 X47.5027 Y26.1975
G01 X47.4398 Y26.1408
G01 X47.3822 Y26.0772
G01 X47.3339 Y26.0121
G01 X47.3200 Y25.9891
G01 X44.8796 Y25.9891
G01 X44.5495 Y26.3192
G01 X44.5559 Y26.3454
G01 X44.5680 Y26.4279
G01 X44.5720 Y26.5100
G01 X44.5680 Y26.5921
G01 X44.5551 Y26.6782
G01 X44.5354 Y26.7567
G01 X44.5078 Y26.8341
G01 X44.4704 Y26.9128
G01 X44.4287 Y26.9822
G01 X44.3791 Y27.0492
G01 X44.3213 Y27.1127
G01 X44.2612 Y27.1671
G01 X44.1952 Y27.2161
G01 X44.1205 Y27.2607
G01 X44.0473 Y27.2953
G01 X43.9687 Y27.3234
G01 X43.8878 Y27.3437
G01 X43.8078 Y27.3556
G01 X43.7195 Y27.3599
G01 X43.6387 Y27.3559
G01 X43.5562 Y27.3437
G01 X43.4753 Y27.3234
G01 X43.3990 Y27.2962
G01 X43.3192 Y27.2584
G01 X43.2498 Y27.2167
G01 X43.1837 Y27.1678
G01 X43.1210 Y27.1110
G01 X43.0649 Y27.0492
G01 X43.0153 Y26.9822
G01 X42.9724 Y26.9107
G01 X42.9367 Y26.8353
G01 X42.9086 Y26.7567
G01 X42.8883 Y26.6758
G01 X42.8761 Y26.5933
G01 X42.8720 Y26.5100
G01 X42.8761 Y26.4267
G01 X42.8883 Y26.3442
G01 X42.9086 Y26.2633
G01 X42.9367 Y26.1847
G01 X42.9724 Y26.1093
G01 X43.0153 Y26.0378
G01 X43.0665 Y25.9689
G01 X43.1210 Y25.9090
G01 X43.1809 Y25.8545
G01 X43.2498 Y25.8033
G01 X43.3235 Y25.7593
G01 X43.3967 Y25.7247
G01 X43.4741 Y25.6970
G01 X43.5586 Y25.6759
G01 X43.6387 Y25.6641
G01 X43.7208 Y25.6600
G01 X43.8065 Y25.6642
G01 X43.8866 Y25.6761
G01 X43.9128 Y25.6825
G01 X44.3766 Y25.2189
G01 X44.4075 Y25.1909
G01 X44.4430 Y25.1646
G01 X44.4809 Y25.1418
G01 X44.5197 Y25.1234
G01 X44.5648 Y25.1074
G01 X44.6053 Y25.0973
G01 X44.6502 Y25.0907
G01 X44.6931 Y25.0887
G01 X45.0498 Y25.0887
G01 X45.0498 Y20.5547
G01 X44.5495 Y21.0550
G01 X44.5559 Y21.0812
G01 X44.5678 Y21.1612
G01 X44.5720 Y21.2445
G01 X44.5679 Y21.3291
G01 X44.5559 Y21.4104
G01 X44.5354 Y21.4925
G01 X44.5073 Y21.5711
G01 X44.4716 Y21.6465
G01 X44.4287 Y21.7180
G01 X44.3775 Y21.7869
G01 X44.3230 Y21.8468
G01 X44.2612 Y21.9028
G01 X44.1942 Y21.9525
G01 X44.1248 Y21.9942
G01 X44.0461 Y22.0315
G01 X43.9687 Y22.0592
G01 X43.8854 Y22.0799
G01 X43.8053 Y22.0917
G01 X43.7245 Y22.0957
G01 X43.6411 Y22.0919
G01 X43.5562 Y22.0794
G01 X43.4753 Y22.0592
G01 X43.3967 Y22.0311
G01 X43.3213 Y21.9954
G01 X43.2498 Y21.9525
G01 X43.1828 Y21.9028
G01 X43.1210 Y21.8468
G01 X43.0634 Y21.7831
G01 X43.0153 Y21.7180
G01 X42.9736 Y21.6486
G01 X42.9377 Y21.5733
G01 X42.9086 Y21.4925
G01 X42.8883 Y21.4116
G01 X42.8761 Y21.3291
G01 X42.8721 Y21.2433
G01 X42.8761 Y21.1625
G01 X42.8879 Y21.0824
G01 X42.9086 Y20.9990
G01 X42.9367 Y20.9205
G01 X42.9736 Y20.8430
G01 X43.0153 Y20.7735
G01 X43.0634 Y20.7085
G01 X43.1210 Y20.6447
G01 X43.1847 Y20.5872
G01 X43.2498 Y20.5390
G01 X43.3192 Y20.4974
G01 X43.3967 Y20.4605
G01 X43.4764 Y20.4320
G01 X43.5586 Y20.4117
G01 X43.6387 Y20.3999
G01 X43.7208 Y20.3958
G01 X43.8065 Y20.4000
G01 X43.8866 Y20.4119
G01 X43.9128 Y20.4183
G01 X45.0498 Y19.2813
G01 X45.0498 Y17.8065
G01 X44.2975 Y17.0542
G01 X43.5440 Y17.0542
G01 X41.6912 Y18.9070
G01 X41.6912 Y25.1822
G01 X41.6891 Y25.2251
G01 X41.6830 Y25.2664
G01 X41.6711 Y25.3140
G01 X41.6570 Y25.3532
G01 X41.6381 Y25.3932
G01 X41.6154 Y25.4311
G01 X41.5898 Y25.4656
G01 X41.5594 Y25.4993
G01 X40.2286 Y26.8300
G01 X40.1976 Y26.8580
G01 X40.1621 Y26.8843
G01 X40.1242 Y26.9070
G01 X40.0865 Y26.9249
G01 X40.0403 Y26.9415
G01 X39.9998 Y26.9515
G01 X39.9561 Y26.9580
G01 X39.9120 Y26.9602
G01 X37.6260 Y26.9602
G01 X37.5794 Y26.9577
G01 X37.5382 Y26.9515
G01 X37.4965 Y26.9412
G01 X37.4537 Y26.9259
G01 X37.4138 Y26.9070
G01 X37.3759 Y26.8843
G01 X37.3385 Y26.8564
G01 X37.3077 Y26.8283
G01 X36.7233 Y26.2440
G01 X36.6945 Y26.2121
G01 X36.6696 Y26.1786
G01 X36.6454 Y26.1387
G01 X36.6257 Y26.0965
G01 X36.6117 Y26.0572
G01 X36.6012 Y26.0155
G01 X36.5945 Y25.9706
G01 X36.5923 Y25.9265
G01 X36.5923 Y22.9260
G01 X36.5945 Y22.8819
G01 X36.6005 Y22.8406
G01 X36.6124 Y22.7930
G01 X36.6266 Y22.7537
G01 X36.6443 Y22.7160
G01 X36.6668 Y22.6779
G01 X36.6945 Y22.6404
G01 X36.7233 Y22.6085
G01 X37.6185 Y21.7133
G01 X37.6352 Y21.6470
G01 X37.6674 Y21.5566
G01 X37.7110 Y21.4643
G01 X37.7624 Y21.3790
G01 X37.8196 Y21.3020
G01 X37.8848 Y21.2300
G01 X37.9605 Y21.1615
G01 X38.0375 Y21.1045
G01 X38.1219 Y21.0539
G01 X38.2131 Y21.0109
G01 X38.3035 Y20.9787
G01 X38.3965 Y20.9553
G01 X38.4975 Y20.9402
G01 X38.5933 Y20.9355
G01 X38.6920 Y20.9356
G01 X38.7878 Y20.9403
G01 X38.8827 Y20.9543
G01 X38.9793 Y20.9783
G01 X39.0731 Y21.0118
G01 X39.1642 Y21.0551
G01 X39.2485 Y21.1059
G01 X39.3255 Y21.1631
G01 X39.3966 Y21.2274
G01 X39.4644 Y21.3020
G01 X39.5244 Y21.3831
G01 X39.5736 Y21.4654
G01 X39.6147 Y21.5521
G01 X39.6488 Y21.6470
G01 X39.6727 Y21.7424
G01 X39.6874 Y21.8422
G01 X39.6920 Y21.9380
G01 X39.6874 Y22.0338
G01 X39.6727 Y22.1336
G01 X39.6481 Y22.2313
G01 X39.6157 Y22.3216
G01 X39.5747 Y22.4084
G01 X39.5230 Y22.4950
G01 X39.4644 Y22.5740
G01 X39.3984 Y22.6469
G01 X39.3235 Y22.7145
G01 X39.2465 Y22.7715
G01 X39.1642 Y22.8209
G01 X39.0743 Y22.8637
G01 X38.9781 Y22.8980
G01 X38.8851 Y22.9212
G01 X38.7878 Y22.9357
G01 X38.6907 Y22.9405
G01 X38.5933 Y22.9405
G01 X38.4962 Y22.9357
G01 X38.4013 Y22.9217
G01 X38.3012 Y22.8966
G01 X38.2109 Y22.8642
G01 X38.1230 Y22.8227
G01 X38.0365 Y22.7709
G01 X37.9595 Y22.7137
G01 X37.9237 Y22.6815
G01 X37.4927 Y23.1125
G01 X37.4927 Y25.7400
G01 X37.8125 Y26.0598
G01 X39.7255 Y26.0598
G01 X40.7908 Y24.9945
G01 X40.7908 Y18.7205
G01 X40.7933 Y18.6739
G01 X40.7995 Y18.6327
G01 X40.8099 Y18.5910
G01 X40.8251 Y18.5482
G01 X40.8452 Y18.5061
G01 X40.8667 Y18.4704
G01 X40.8915 Y18.4368
G01 X40.9218 Y18.4030
G01 X43.0401 Y16.2848
G01 X43.0719 Y16.2560
G01 X43.1054 Y16.2311
G01 X43.1475 Y16.2059
G01 X43.1852 Y16.1881
G01 X43.2268 Y16.1732
G01 X43.2697 Y16.1625
G01 X43.3110 Y16.1563
G01 X43.3575 Y16.1538
G01 X44.4852 Y16.1538
G01 X44.5281 Y16.1560
G01 X44.5742 Y16.1630
G01 X44.6147 Y16.1732
G01 X44.6540 Y16.1872
G01 X44.6951 Y16.2064
G01 X44.7361 Y16.2311
G01 X44.7696 Y16.2560
G01 X44.8015 Y16.2848
G01 X45.8192 Y17.3025
G01 X45.8495 Y17.3363
G01 X45.8743 Y17.3699
G01 X45.8958 Y17.4056
G01 X45.9159 Y17.4477
G01 X45.9308 Y17.4893
G01 X45.9415 Y17.5322
G01 X45.9477 Y17.5734
G01 X45.9502 Y17.6200
G01 X45.9502 Y25.0887
G01 X47.3200 Y25.0887
G01 X47.3339 Y25.0656
G01 X47.3822 Y25.0006
G01 X47.4398 Y24.9370
G01 X47.5027 Y24.8803
G01 X47.5678 Y24.8321
G01 X47.6382 Y24.7898
G01 X47.7147 Y24.7536
G01 X47.7956 Y24.7248
G01 X47.8742 Y24.7052
G01 X47.9542 Y24.6933
G01 X48.0400 Y24.6889
G01 X48.1258 Y24.6933
G01 X48.2058 Y24.7052
G01 X48.2844 Y24.7248
G01 X48.3653 Y24.7536
G01 X48.4407 Y24.7893
G01 X48.5142 Y24.8336
G01 X48.5792 Y24.8818
G01 X48.6393 Y24.9362
G01 X48.6971 Y24.9997
G01 X48.7453 Y25.0646
G01 X48.7510 Y25.0737
G01 X49.9340 Y25.0737
G01 X49.9341 Y24.6714
G01 X49.9347 Y24.6653
G01 X49.9362 Y24.6594
G01 X49.9378 Y24.6548
G01 X49.9405 Y24.6492
G01 X49.9438 Y24.6441
G01 X49.9478 Y24.6394
G01 X49.9523 Y24.6352
G01 X49.9573 Y24.6316
G01 X49.9637 Y24.6282
G01 X49.9707 Y24.6257
G01 X49.9767 Y24.6244
G01 X49.9840 Y24.6239
G01 X51.0973 Y24.6239
G01 X51.8333 Y23.8879
G01 X51.8333 Y13.4589
G01 X51.0660 Y12.6915
G01 X51.0096 Y12.7056
G01 X50.9247 Y12.7183
G01 X50.8352 Y12.7229
G01 X50.7458 Y12.7186
G01 X50.6572 Y12.7053
G01 X50.5704 Y12.6834
G01 X50.4896 Y12.6544
G01 X50.4119 Y12.6177
G01 X50.3340 Y12.5712
G01 X50.2621 Y12.5178
G01 X50.1976 Y12.4593
G01 X50.1368 Y12.3919
G01 X50.0844 Y12.3208
G01 X50.0403 Y12.2471
G01 X50.0035 Y12.1695
G01 X49.9728 Y12.0841
G01 X49.9513 Y11.9985
G01 X49.9383 Y11.9111
G01 X49.9340 Y11.8229
G01 X49.9383 Y11.7347
G01 X49.9513 Y11.6473
G01 X49.9728 Y11.5616
G01 X50.0035 Y11.4762
G01 X50.0403 Y11.3986
G01 X50.0844 Y11.3249
G01 X50.1368 Y11.2539
G01 X50.1976 Y11.1865
G01 X50.2621 Y11.1280
G01 X50.3340 Y11.0746
G01 X50.4119 Y11.0281
G01 X50.4896 Y10.9914
G01 X50.5704 Y10.9624
G01 X50.6572 Y10.9404
G01 X50.7458 Y10.9272
G01 X50.8352 Y10.9229
G01 X50.9247 Y10.9275
G01 X51.0096 Y10.9402
G01 X51.0660 Y10.9542
G01 X51.8333 Y10.1869
G01 X51.8333 Y6.3290
G01 X47.9905 Y2.4861
G01 X34.4652 Y2.4861
G01 X32.9064 Y4.0450
G01 X33.9942 Y5.1328
G01 X34.0230 Y5.1647
G01 X34.0507 Y5.2022
G01 X34.0721 Y5.2381
G01 X34.0900 Y5.2758
G01 X34.1055 Y5.3184
G01 X34.1170 Y5.3649
G01 X34.1231 Y5.4061
G01 X34.1252 Y5.4503
G01 X34.1252 Y7.4377
G01 X34.1231 Y7.4818
G01 X34.1166 Y7.5255
G01 X34.1058 Y7.5684
G01 X34.0910 Y7.6100
G01 X34.0721 Y7.6500
G01 X34.0494 Y7.6878
G01 X34.0230 Y7.7233
G01 X33.9934 Y7.7560
G01 X31.0526 Y10.6968
G01 X31.0199 Y10.7265
G01 X30.9854 Y10.7521
G01 X30.9476 Y10.7749
G01 X30.9264 Y10.7851
G01 X29.5053 Y12.2061
G01 X29.5053 Y22.2719
G01 X31.0073 Y23.7738
G01 X31.5447 Y23.7738
G01 X32.2253 Y23.0932
G01 X32.2253 Y19.1568
G01 X32.2278 Y19.1115
G01 X32.2340 Y19.0702
G01 X32.2440 Y19.0297
G01 X32.2596 Y18.9857
G01 X32.2785 Y18.9458
G01 X32.3012 Y18.9079
G01 X32.3260 Y18.8744
G01 X32.3572 Y18.8397
G01 X35.1338 Y16.0631
G01 X35.1338 Y14.7740
G01 X35.1108 Y14.7601
G01 X35.0438 Y14.7103
G01 X34.9830 Y14.6550
G01 X34.9262 Y14.5923
G01 X34.8773 Y14.5262
G01 X34.8344 Y14.4547
G01 X34.7987 Y14.3793
G01 X34.7703 Y14.2996
G01 X34.7503 Y14.2198
G01 X34.7381 Y14.1373
G01 X34.7340 Y14.0540
G01 X34.7381 Y13.9707
G01 X34.7503 Y13.8882
G01 X34.7706 Y13.8073
G01 X34.7987 Y13.7287
G01 X34.8350 Y13.6522
G01 X34.8773 Y13.5818
G01 X34.9269 Y13.5148
G01 X34.9830 Y13.4530
G01 X35.0429 Y13.3985
G01 X35.1138 Y13.3459
G01 X35.1833 Y13.3044
G01 X35.2587 Y13.2687
G01 X35.3373 Y13.2406
G01 X35.4158 Y13.2209
G01 X35.5031 Y13.2079
G01 X35.5840 Y13.2040
G01 X35.6673 Y13.2081
G01 X35.7498 Y13.2203
G01 X35.8284 Y13.2399
G01 X35.9115 Y13.2697
G01 X35.9847 Y13.3044
G01 X36.0562 Y13.3473
G01 X36.1232 Y13.3969
G01 X36.1833 Y13.4513
G01 X36.2426 Y13.5167
G01 X36.2907 Y13.5818
G01 X36.3336 Y13.6533
G01 X36.3693 Y13.7287
G01 X36.3966 Y13.8049
G01 X36.4181 Y13.8906
G01 X36.4299 Y13.9707
G01 X36.4339 Y14.0565
G01 X36.4299 Y14.1373
G01 X36.4181 Y14.2174
G01 X36.3981 Y14.2984
G01 X36.3693 Y14.3793
G01 X36.3330 Y14.4558
G01 X36.2907 Y14.5262
G01 X36.2426 Y14.5913
G01 X36.1859 Y14.6542
G01 X36.1223 Y14.7118
G01 X36.0572 Y14.7601
G01 X36.0342 Y14.7740
G01 X36.0341 Y16.2520
G01 X36.0320 Y16.2937
G01 X36.0260 Y16.3349
G01 X36.0148 Y16.3802
G01 X35.9989 Y16.4241
G01 X35.9810 Y16.4618
G01 X35.9590 Y16.4986
G01 X35.9320 Y16.5351
G01 X35.9023 Y16.5679
G01 X33.1257 Y19.3445
G01 X33.1257 Y23.2797
G01 X33.1235 Y23.3238
G01 X33.1168 Y23.3687
G01 X33.1063 Y23.4104
G01 X33.0923 Y23.4497
G01 X33.0726 Y23.4919
G01 X33.0484 Y23.5318
G01 X33.0235 Y23.5653
G01 X32.9947 Y23.5972
G01 X32.0487 Y24.5432
G01 X32.0168 Y24.5720
G01 X31.9813 Y24.5983
G01 X31.9434 Y24.6210
G01 X31.9057 Y24.6389
G01 X31.8619 Y24.6548
G01 X31.8190 Y24.6655
G01 X31.7753 Y24.6720
G01 X31.7324 Y24.6742
G01 X30.8196 Y24.6742
G01 X30.7767 Y24.6720
G01 X30.7354 Y24.6660
G01 X30.6901 Y24.6548
G01 X30.6463 Y24.6389
G01 X30.6086 Y24.6210
G01 X30.5717 Y24.5990
G01 X30.5352 Y24.5720
G01 X30.5025 Y24.5423
G01 X28.7360 Y22.7758
G01 X28.7056 Y22.7420
G01 X28.6808 Y22.7085
G01 X28.6593 Y22.6727
G01 X28.6392 Y22.6306
G01 X28.6237 Y22.5867
G01 X28.6136 Y22.5462
G01 X28.6074 Y22.5049
G01 X28.6049 Y22.4584
G01 X28.6049 Y12.0196
G01 X28.6070 Y11.9767
G01 X28.6136 Y11.9318
G01 X28.6237 Y11.8913
G01 X28.6402 Y11.8451
G01 X28.6581 Y11.8074
G01 X28.6808 Y11.7695
G01 X28.7071 Y11.7340
G01 X28.7368 Y11.7013
G01 X30.3780 Y10.0601
G01 X30.4107 Y10.0305
G01 X30.4452 Y10.0049
G01 X30.4830 Y9.9820
G01 X30.5042 Y9.9719
G01 X33.2248 Y7.2512
G01 X33.2248 Y5.6368
G01 X32.0832 Y4.4952
G01 X25.4217 Y4.4952
G01 X24.8724 Y5.0445
G01 X25.3739 Y5.5460
G01 X25.4019 Y5.5768
G01 X25.4298 Y5.6142
G01 X25.4526 Y5.6521
G01 X25.4714 Y5.6920
G01 X25.4863 Y5.7336
G01 X25.4971 Y5.7765
G01 X25.5032 Y5.8177
G01 X25.5057 Y5.8643
G01 X25.5057 Y7.0249
G01 X25.5032 Y7.0703
G01 X25.4971 Y7.1115
G01 X25.4870 Y7.1520
G01 X25.4714 Y7.1960
G01 X25.4513 Y7.2381
G01 X25.4298 Y7.2738
G01 X25.4050 Y7.3074
G01 X25.3747 Y7.3412
G01 X23.8853 Y8.8306
G01 X25.3747 Y10.3200
G01 X25.4035 Y10.3519
G01 X25.4298 Y10.3874
G01 X25.4526 Y10.4253
G01 X25.4710 Y10.4641
G01 X25.4863 Y10.5068
G01 X25.4971 Y10.5497
G01 X25.5035 Y10.5934
G01 X25.5057 Y10.6363
G01 X25.5057 Y12.3577
G01 X25.5034 Y12.4030
G01 X25.4971 Y12.4455
G01 X25.4870 Y12.4860
G01 X25.4704 Y12.5322
G01 X25.4526 Y12.5699
G01 X25.4298 Y12.6078
G01 X25.4035 Y12.6433
G01 X25.3747 Y12.6751
G01 X23.6313 Y14.4186
G01 X25.3739 Y16.1612
G01 X25.4050 Y16.1958
G01 X25.4298 Y16.2294
G01 X25.4526 Y16.2673
G01 X25.4714 Y16.3072
G01 X25.4870 Y16.3512
G01 X25.4971 Y16.3917
G01 X25.5032 Y16.4329
G01 X25.5057 Y16.4783
G01 X25.5057 Y17.6929
G01 X25.5035 Y17.7358
G01 X25.4975 Y17.7771
G01 X25.4856 Y17.8247
G01 X25.4714 Y17.8640
G01 X25.4537 Y17.9017
G01 X25.4312 Y17.9397
G01 X25.4035 Y17.9773
G01 X25.3739 Y18.0100
G01 X21.7415 Y21.6423
G01 X21.7088 Y21.6720
G01 X21.6723 Y21.6990
G01 X21.6332 Y21.7221
G01 X21.5955 Y21.7399
G01 X21.5562 Y21.7540
G01 X21.5110 Y21.7655
G01 X21.4661 Y21.7721
G01 X21.4232 Y21.7742
G01 X20.6460 Y21.7742
G01 X20.6460 Y21.8502
G01 X20.6453 Y21.8575
G01 X20.6431 Y21.8658
G01 X20.6401 Y21.8726
G01 X20.6362 Y21.8788
G01 X20.6314 Y21.8844
G01 X20.6258 Y21.8892
G01 X20.6206 Y21.8925
G01 X20.6140 Y21.8956
G01 X20.6070 Y21.8978
G01 X20.5997 Y21.8989
G01 X19.0960 Y21.8990
G01 X19.0911 Y21.8988
G01 X19.0850 Y21.8978
G01 X19.0803 Y21.8965
G01 X19.0746 Y21.8942
G01 X19.0682 Y21.8906
G01 X19.0624 Y21.8860
G01 X19.0573 Y21.8807
G01 X19.0538 Y21.8757
G01 X19.0503 Y21.8693
G01 X19.0478 Y21.8623
G01 X19.0464 Y21.8551
G01 X19.0460 Y21.8490
G01 X19.0460 Y20.7978
G01 X19.0465 Y20.7917
G01 X19.0475 Y20.7869
G01 X19.0489 Y20.7822
G01 X19.0513 Y20.7765
G01 X19.0544 Y20.7712
G01 X19.0573 Y20.7673
G01 X19.0615 Y20.7628
G01 X19.0652 Y20.7596
G01 X19.0724 Y20.7549
G01 X19.0803 Y20.7515
G01 X19.0887 Y20.7495
G01 X19.0960 Y20.7490
G01 X20.5985 Y20.7491
G01 X20.6058 Y20.7500
G01 X20.6117 Y20.7515
G01 X20.6185 Y20.7543
G01 X20.6248 Y20.7581
G01 X20.6305 Y20.7628
G01 X20.6354 Y20.7682
G01 X20.6395 Y20.7744
G01 X20.6426 Y20.7810
G01 X20.6450 Y20.7892
G01 X20.6460 Y20.7978
G01 X20.6460 Y20.8738
G01 X21.2367 Y20.8738
G01 X24.6053 Y17.5052
G01 X24.6053 Y16.6660
G01 X22.9946 Y15.0553
G01 X21.8886 Y16.1612
G01 X21.8549 Y16.1915
G01 X21.8213 Y16.2163
G01 X21.7856 Y16.2378
G01 X21.7435 Y16.2579
G01 X21.7031 Y16.2724
G01 X21.6566 Y16.2840
G01 X21.6154 Y16.2900
G01 X21.5725 Y16.2922
G01 X20.6460 Y16.2922
G01 X20.6460 Y16.3682
G01 X20.6450 Y16.3768
G01 X20.6426 Y16.3850
G01 X20.6395 Y16.3916
G01 X20.6362 Y16.3968
G01 X20.6314 Y16.4024
G01 X20.6258 Y16.4072
G01 X20.6196 Y16.4111
G01 X20.6128 Y16.4141
G01 X20.6058 Y16.4160
G01 X20.5985 Y16.4169
G01 X19.0948 Y16.4170
G01 X19.0875 Y16.4163
G01 X19.0815 Y16.4148
G01 X19.0757 Y16.4127
G01 X19.0703 Y16.4099
G01 X19.0652 Y16.4064
G01 X19.0598 Y16.4015
G01 X19.0558 Y16.3968
G01 X19.0525 Y16.3916
G01 X19.0498 Y16.3861
G01 X19.0478 Y16.3803
G01 X19.0464 Y16.3731
G01 X19.0460 Y16.3670
G01 X19.0460 Y15.3158
G01 X19.0465 Y15.3097
G01 X19.0478 Y15.3037
G01 X19.0498 Y15.2979
G01 X19.0525 Y15.2924
G01 X19.0558 Y15.2872
G01 X19.0598 Y15.2825
G01 X19.0643 Y15.2783
G01 X19.0693 Y15.2748
G01 X19.0746 Y15.2718
G01 X19.0815 Y15.2692
G01 X19.0887 Y15.2675
G01 X19.0960 Y15.2670
G01 X20.5985 Y15.2671
G01 X20.6058 Y15.2680
G01 X20.6128 Y15.2699
G01 X20.6196 Y15.2729
G01 X20.6258 Y15.2768
G01 X20.6314 Y15.2816
G01 X20.6362 Y15.2872
G01 X20.6401 Y15.2934
G01 X20.6426 Y15.2990
G01 X20.6450 Y15.3072
G01 X20.6460 Y15.3158
G01 X20.6460 Y15.3918
G01 X21.3847 Y15.3918
G01 X22.6763 Y14.1003
M5
G00 X20.4282 Y16.6618
M3
G01 X22.9360 Y16.6618
G01 X22.9499 Y16.6388
G01 X22.9982 Y16.5737
G01 X23.0558 Y16.5101
G01 X23.1168 Y16.4549
G01 X23.1818 Y16.4067
G01 X23.2564 Y16.3618
G01 X23.3307 Y16.3267
G01 X23.4069 Y16.2994
G01 X23.4902 Y16.2783
G01 X23.5727 Y16.2661
G01 X23.6535 Y16.2621
G01 X23.7405 Y16.2662
G01 X23.8218 Y16.2783
G01 X23.9027 Y16.2986
G01 X23.9813 Y16.3267
G01 X24.0567 Y16.3624
G01 X24.1282 Y16.4053
G01 X24.1952 Y16.4549
G01 X24.2570 Y16.5110
G01 X24.3131 Y16.5728
G01 X24.3627 Y16.6398
G01 X24.4056 Y16.7113
G01 X24.4413 Y16.7867
G01 X24.4694 Y16.8653
G01 X24.4897 Y16.9462
G01 X24.5019 Y17.0287
G01 X24.5060 Y17.1120
G01 X24.5018 Y17.1965
G01 X24.4897 Y17.2778
G01 X24.4694 Y17.3587
G01 X24.4413 Y17.4373
G01 X24.4056 Y17.5127
G01 X24.3627 Y17.5842
G01 X24.3131 Y17.6512
G01 X24.2570 Y17.7130
G01 X24.1971 Y17.7675
G01 X24.1282 Y17.8187
G01 X24.0588 Y17.8604
G01 X23.9790 Y17.8982
G01 X23.9027 Y17.9254
G01 X23.8218 Y17.9457
G01 X23.7393 Y17.9579
G01 X23.6572 Y17.9620
G01 X23.5702 Y17.9576
G01 X23.4902 Y17.9457
G01 X23.4116 Y17.9261
G01 X23.3307 Y17.8973
G01 X23.2542 Y17.8610
G01 X23.1838 Y17.8187
G01 X23.1187 Y17.7706
G01 X23.0558 Y17.7139
G01 X22.9982 Y17.6503
G01 X22.9499 Y17.5852
G01 X22.9360 Y17.5622
G01 X20.4282 Y17.5622
G01 X20.3905 Y17.5901
G01 X20.3442 Y17.6179
G01 X20.2933 Y17.6422
G01 X20.2379 Y17.6622
G01 X20.1808 Y17.6764
G01 X20.1274 Y17.6842
G01 X20.0722 Y17.6870
G01 X19.6185 Y17.6869
G01 X19.5646 Y17.6842
G01 X19.5112 Y17.6764
G01 X19.4541 Y17.6622
G01 X19.3987 Y17.6422
G01 X19.3499 Y17.6191
G01 X19.3036 Y17.5914
G01 X19.2562 Y17.5565
G01 X19.2127 Y17.5168
G01 X19.1765 Y17.4768
G01 X19.1443 Y17.4335
G01 X19.1139 Y17.3831
G01 X19.0898 Y17.3320
G01 X19.0708 Y17.2789
G01 X19.0570 Y17.2242
G01 X19.0488 Y17.1684
G01 X19.0460 Y17.1120
G01 X19.0488 Y17.0556
G01 X19.0570 Y16.9998
G01 X19.0708 Y16.9451
G01 X19.0898 Y16.8920
G01 X19.1139 Y16.8409
G01 X19.1429 Y16.7925
G01 X19.1765 Y16.7472
G01 X19.2144 Y16.7054
G01 X19.2562 Y16.6675
G01 X19.3015 Y16.6339
G01 X19.3499 Y16.6049
G01 X19.4010 Y16.5808
G01 X19.4541 Y16.5618
G01 X19.5088 Y16.5480
G01 X19.5659 Y16.5397
G01 X19.6210 Y16.5370
G01 X20.0710 Y16.5370
G01 X20.1249 Y16.5396
G01 X20.1856 Y16.5486
G01 X20.2379 Y16.5618
G01 X20.2910 Y16.5808
G01 X20.3442 Y16.6061
G01 X20.3905 Y16.6339
G01 X20.4282 Y16.6618
M5
G00 X20.4282 Y22.1438
M3
G01 X23.0142 Y22.1438
G01 X23.0550 Y22.0990
G01 X23.1149 Y22.0445
G01 X23.1838 Y21.9933
G01 X23.2575 Y21.9493
G01 X23.3307 Y21.9147
G01 X23.4069 Y21.8874
G01 X23.4902 Y21.8663
G01 X23.5751 Y21.8539
G01 X23.6560 Y21.8500
G01 X23.7369 Y21.8539
G01 X23.8206 Y21.8661
G01 X23.9027 Y21.8866
G01 X23.9813 Y21.9147
G01 X24.0567 Y21.9504
G01 X24.1282 Y21.9933
G01 X24.1952 Y22.0429
G01 X24.2570 Y22.0990
G01 X24.3131 Y22.1608
G01 X24.3627 Y22.2278
G01 X24.4056 Y22.2993
G01 X24.4413 Y22.3747
G01 X24.4694 Y22.4533
G01 X24.4897 Y22.5342
G01 X24.5019 Y22.6167
G01 X24.5060 Y22.7000
G01 X24.5019 Y22.7833
G01 X24.4899 Y22.8646
G01 X24.4694 Y22.9467
G01 X24.4422 Y23.0230
G01 X24.4044 Y23.1028
G01 X24.3627 Y23.1722
G01 X24.3131 Y23.2392
G01 X24.2570 Y23.3010
G01 X24.1952 Y23.3571
G01 X24.1282 Y23.4067
G01 X24.0567 Y23.4496
G01 X23.9813 Y23.4853
G01 X23.9051 Y23.5126
G01 X23.8194 Y23.5341
G01 X23.7393 Y23.5459
G01 X23.6560 Y23.5500
G01 X23.5727 Y23.5459
G01 X23.4926 Y23.5341
G01 X23.4093 Y23.5134
G01 X23.3307 Y23.4853
G01 X23.2575 Y23.4507
G01 X23.1838 Y23.4067
G01 X23.1149 Y23.3555
G01 X23.0550 Y23.3010
G01 X22.9989 Y23.2392
G01 X22.9479 Y23.1702
G01 X22.9064 Y23.1007
G01 X22.8796 Y23.0442
G01 X20.4282 Y23.0442
G01 X20.3905 Y23.0721
G01 X20.3442 Y23.0999
G01 X20.2933 Y23.1242
G01 X20.2379 Y23.1442
G01 X20.1808 Y23.1584
G01 X20.1274 Y23.1662
G01 X20.0722 Y23.1690
G01 X19.6185 Y23.1689
G01 X19.5646 Y23.1662
G01 X19.5112 Y23.1584
G01 X19.4541 Y23.1442
G01 X19.3987 Y23.1242
G01 X19.3499 Y23.1011
G01 X19.3036 Y23.0734
G01 X19.2562 Y23.0385
G01 X19.2127 Y22.9988
G01 X19.1765 Y22.9588
G01 X19.1443 Y22.9155
G01 X19.1139 Y22.8651
G01 X19.0898 Y22.8140
G01 X19.0708 Y22.7609
G01 X19.0570 Y22.7062
G01 X19.0488 Y22.6504
G01 X19.0460 Y22.5940
G01 X19.0488 Y22.5376
G01 X19.0570 Y22.4818
G01 X19.0708 Y22.4271
G01 X19.0898 Y22.3740
G01 X19.1139 Y22.3229
G01 X19.1429 Y22.2745
G01 X19.1765 Y22.2292
G01 X19.2144 Y22.1874
G01 X19.2562 Y22.1495
G01 X19.3015 Y22.1159
G01 X19.3499 Y22.0869
G01 X19.4010 Y22.0628
G01 X19.4541 Y22.0438
G01 X19.5088 Y22.0300
G01 X19.5659 Y22.0217
G01 X19.6210 Y22.0190
G01 X20.0710 Y22.0190
G01 X20.1249 Y22.0216
G01 X20.1856 Y22.0306
G01 X20.2379 Y22.0438
G01 X20.2910 Y22.0628
G01 X20.3442 Y22.0881
G01 X20.3905 Y22.1159
G01 X20.4282 Y22.1438
M5
G00 X34.2244 Y20.0634
M3
G01 X34.2265 Y20.0193
G01 X34.2330 Y19.9756
G01 X34.2437 Y19.9328
G01 X34.2586 Y19.8912
G01 X34.2775 Y19.8512
G01 X34.3002 Y19.8133
G01 X34.3265 Y19.7778
G01 X34.3554 Y19.7460
G01 X37.5328 Y16.5685
G01 X37.5328 Y12.6897
G01 X37.5350 Y12.6468
G01 X37.5415 Y12.6031
G01 X37.5522 Y12.5603
G01 X37.5662 Y12.5210
G01 X37.5872 Y12.4766
G01 X37.6087 Y12.4409
G01 X37.6350 Y12.4054
G01 X37.6647 Y12.3726
G01 X41.3817 Y8.6557
G01 X41.4144 Y8.6260
G01 X41.4499 Y8.5997
G01 X41.4900 Y8.5759
G01 X41.5277 Y8.5581
G01 X41.5670 Y8.5440
G01 X41.6122 Y8.5325
G01 X41.6571 Y8.5259
G01 X41.7000 Y8.5238
G01 X42.4840 Y8.5238
G01 X42.4979 Y8.5008
G01 X42.5462 Y8.4357
G01 X42.6021 Y8.3738
G01 X42.6648 Y8.3169
G01 X42.7328 Y8.2666
G01 X42.8055 Y8.2233
G01 X42.8787 Y8.1887
G01 X42.9549 Y8.1614
G01 X43.0382 Y8.1403
G01 X43.1195 Y8.1282
G01 X43.2040 Y8.1240
G01 X43.2873 Y8.1281
G01 X43.3698 Y8.1403
G01 X43.4507 Y8.1606
G01 X43.5293 Y8.1887
G01 X43.6047 Y8.2244
G01 X43.6762 Y8.2673
G01 X43.7432 Y8.3169
G01 X43.8050 Y8.3730
G01 X43.8611 Y8.4348
G01 X43.9107 Y8.5018
G01 X43.9547 Y8.5755
G01 X43.9893 Y8.6487
G01 X44.0166 Y8.7249
G01 X44.0371 Y8.8058
G01 X44.0499 Y8.8907
G01 X44.0540 Y8.9740
G01 X44.0499 Y9.0573
G01 X44.0377 Y9.1398
G01 X44.0174 Y9.2207
G01 X43.9883 Y9.3015
G01 X43.9524 Y9.3768
G01 X43.9107 Y9.4462
G01 X43.8626 Y9.5113
G01 X43.8050 Y9.5750
G01 X43.7442 Y9.6303
G01 X43.6762 Y9.6807
G01 X43.6047 Y9.7236
G01 X43.5293 Y9.7593
G01 X43.4507 Y9.7874
G01 X43.3698 Y9.8077
G01 X43.2873 Y9.8199
G01 X43.2040 Y9.8240
G01 X43.1195 Y9.8198
G01 X43.0382 Y9.8077
G01 X42.9549 Y9.7866
G01 X42.8787 Y9.7593
G01 X42.8055 Y9.7247
G01 X42.7328 Y9.6814
G01 X42.6648 Y9.6311
G01 X42.6021 Y9.5742
G01 X42.5462 Y9.5123
G01 X42.4979 Y9.4472
G01 X42.4840 Y9.4242
G01 X41.8865 Y9.4242
G01 X38.4332 Y12.8774
G01 X38.4332 Y16.7550
G01 X38.4311 Y16.7991
G01 X38.4246 Y16.8428
G01 X38.4138 Y16.8857
G01 X38.3990 Y16.9272
G01 X38.3801 Y16.9672
G01 X38.3574 Y17.0051
G01 X38.3310 Y17.0406
G01 X38.3014 Y17.0733
G01 X35.1248 Y20.2499
G01 X35.1247 Y24.1077
G01 X35.1226 Y24.1519
G01 X35.1161 Y24.1956
G01 X35.1054 Y24.2384
G01 X35.0909 Y24.2789
G01 X35.0716 Y24.3199
G01 X35.0489 Y24.3578
G01 X35.0226 Y24.3933
G01 X34.9929 Y24.4261
G01 X32.8767 Y26.5422
G01 X32.8448 Y26.5710
G01 X32.8114 Y26.5960
G01 X32.7693 Y26.6212
G01 X32.7315 Y26.6390
G01 X32.6899 Y26.6539
G01 X32.6471 Y26.6646
G01 X32.6046 Y26.6709
G01 X32.5592 Y26.6732
G01 X29.9915 Y26.6732
G01 X29.9462 Y26.6708
G01 X29.9049 Y26.6646
G01 X29.8644 Y26.6545
G01 X29.8205 Y26.6390
G01 X29.7805 Y26.6201
G01 X29.7426 Y26.5974
G01 X29.7091 Y26.5726
G01 X29.6744 Y26.5414
G01 X26.7378 Y23.6047
G01 X26.7081 Y23.5720
G01 X26.6818 Y23.5365
G01 X26.6591 Y23.4986
G01 X26.6393 Y23.4564
G01 X26.6253 Y23.4171
G01 X26.6146 Y23.3742
G01 X26.6081 Y23.3305
G01 X26.6059 Y23.2864
G01 X26.6059 Y10.6639
G01 X26.6081 Y10.6198
G01 X26.6141 Y10.5785
G01 X26.6261 Y10.5309
G01 X26.6402 Y10.4916
G01 X26.6591 Y10.4517
G01 X26.6818 Y10.4138
G01 X26.7081 Y10.3783
G01 X26.7378 Y10.3456
G01 X30.4485 Y6.6348
G01 X30.4421 Y6.6086
G01 X30.4302 Y6.5285
G01 X30.4260 Y6.4428
G01 X30.4301 Y6.3607
G01 X30.4419 Y6.2806
G01 X30.4630 Y6.1961
G01 X30.4907 Y6.1187
G01 X30.5253 Y6.0455
G01 X30.5693 Y5.9718
G01 X30.6205 Y5.9029
G01 X30.6750 Y5.8430
G01 X30.7358 Y5.7877
G01 X30.8038 Y5.7373
G01 X30.8753 Y5.6944
G01 X30.9507 Y5.6587
G01 X31.0293 Y5.6306
G01 X31.1102 Y5.6103
G01 X31.1927 Y5.5981
G01 X31.2760 Y5.5940
G01 X31.3593 Y5.5981
G01 X31.4418 Y5.6103
G01 X31.5227 Y5.6306
G01 X31.6013 Y5.6587
G01 X31.6767 Y5.6944
G01 X31.7482 Y5.7373
G01 X31.8152 Y5.7869
G01 X31.8770 Y5.8430
G01 X31.9323 Y5.9038
G01 X31.9827 Y5.9718
G01 X32.0244 Y6.0412
G01 X32.0622 Y6.1210
G01 X32.0894 Y6.1973
G01 X32.1097 Y6.2782
G01 X32.1219 Y6.3607
G01 X32.1260 Y6.4440
G01 X32.1219 Y6.5273
G01 X32.1097 Y6.6098
G01 X32.0894 Y6.6907
G01 X32.0622 Y6.7670
G01 X32.0244 Y6.8468
G01 X31.9827 Y6.9162
G01 X31.9315 Y6.9851
G01 X31.8770 Y7.0450
G01 X31.8171 Y7.0995
G01 X31.7482 Y7.1507
G01 X31.6745 Y7.1947
G01 X31.6013 Y7.2293
G01 X31.5239 Y7.2570
G01 X31.4394 Y7.2781
G01 X31.3593 Y7.2899
G01 X31.2772 Y7.2940
G01 X31.1915 Y7.2898
G01 X31.1114 Y7.2779
G01 X31.0852 Y7.2715
G01 X27.5063 Y10.8504
G01 X27.5063 Y23.0999
G01 X30.1792 Y25.7728
G01 X32.3728 Y25.7728
G01 X34.2243 Y23.9212
G01 X34.2244 Y20.0634
M5
G00 X35.9040 Y7.2786
M3
G01 X33.2502 Y9.9325
G01 X33.2502 Y10.2540
G01 X33.2480 Y10.2981
G01 X33.2415 Y10.3418
G01 X33.2308 Y10.3847
G01 X33.2159 Y10.4263
G01 X33.1964 Y10.4673
G01 X33.1743 Y10.5041
G01 X33.1495 Y10.5377
G01 X33.1183 Y10.5723
G01 X32.1035 Y11.5872
G01 X32.1099 Y11.6134
G01 X32.1218 Y11.6935
G01 X32.1260 Y11.7792
G01 X32.1219 Y11.8613
G01 X32.1101 Y11.9414
G01 X32.0897 Y12.0236
G01 X32.0613 Y12.1033
G01 X32.0244 Y12.1808
G01 X31.9827 Y12.2502
G01 X31.9346 Y12.3153
G01 X31.8762 Y12.3799
G01 X31.8152 Y12.4351
G01 X31.7482 Y12.4847
G01 X31.6767 Y12.5276
G01 X31.6013 Y12.5633
G01 X31.5227 Y12.5914
G01 X31.4418 Y12.6117
G01 X31.3593 Y12.6239
G01 X31.2760 Y12.6280
G01 X31.1927 Y12.6239
G01 X31.1102 Y12.6117
G01 X31.0293 Y12.5914
G01 X30.9507 Y12.5633
G01 X30.8753 Y12.5276
G01 X30.8038 Y12.4847
G01 X30.7368 Y12.4351
G01 X30.6741 Y12.3782
G01 X30.6189 Y12.3172
G01 X30.5693 Y12.2502
G01 X30.5264 Y12.1787
G01 X30.4917 Y12.1055
G01 X30.4619 Y12.0224
G01 X30.4423 Y11.9438
G01 X30.4301 Y11.8613
G01 X30.4260 Y11.7780
G01 X30.4301 Y11.6947
G01 X30.4423 Y11.6122
G01 X30.4619 Y11.5336
G01 X30.4917 Y11.4505
G01 X30.5264 Y11.3773
G01 X30.5693 Y11.3058
G01 X30.6205 Y11.2369
G01 X30.6750 Y11.1770
G01 X30.7368 Y11.1209
G01 X30.8038 Y11.0713
G01 X30.8732 Y11.0296
G01 X30.9519 Y10.9922
G01 X31.0293 Y10.9646
G01 X31.1078 Y10.9449
G01 X31.1939 Y10.9320
G01 X31.2760 Y10.9280
G01 X31.3581 Y10.9320
G01 X31.4406 Y10.9441
G01 X31.4668 Y10.9505
G01 X32.3498 Y10.0675
G01 X32.3498 Y9.7448
G01 X32.3520 Y9.7019
G01 X32.3582 Y9.6594
G01 X32.3692 Y9.6153
G01 X32.3851 Y9.5715
G01 X32.4030 Y9.5338
G01 X32.4244 Y9.4980
G01 X32.4528 Y9.4595
G01 X32.4817 Y9.4277
G01 X34.9312 Y6.9781
G01 X34.9254 Y6.9713
G01 X34.8773 Y6.9062
G01 X34.8344 Y6.8347
G01 X34.7987 Y6.7593
G01 X34.7699 Y6.6784
G01 X34.7499 Y6.5974
G01 X34.7381 Y6.5173
G01 X34.7341 Y6.4365
G01 X34.7381 Y6.3507
G01 X34.7509 Y6.2658
G01 X34.7714 Y6.1849
G01 X34.7987 Y6.1087
G01 X34.8333 Y6.0355
G01 X34.8773 Y5.9618
G01 X34.9269 Y5.8948
G01 X34.9847 Y5.8313
G01 X35.0448 Y5.7769
G01 X35.1098 Y5.7287
G01 X35.1833 Y5.6844
G01 X35.2599 Y5.6482
G01 X35.3373 Y5.6206
G01 X35.4182 Y5.6003
G01 X35.5007 Y5.5881
G01 X35.5840 Y5.5840
G01 X35.6673 Y5.5881
G01 X35.7498 Y5.6003
G01 X35.8307 Y5.6206
G01 X35.9093 Y5.6487
G01 X35.9847 Y5.6844
G01 X36.0562 Y5.7273
G01 X36.1232 Y5.7769
G01 X36.1850 Y5.8330
G01 X36.2411 Y5.8948
G01 X36.2907 Y5.9618
G01 X36.3336 Y6.0333
G01 X36.3698 Y6.1099
G01 X36.3974 Y6.1873
G01 X36.4177 Y6.2682
G01 X36.4299 Y6.3507
G01 X36.4340 Y6.4340
G01 X36.4299 Y6.5173
G01 X36.4177 Y6.5998
G01 X36.3974 Y6.6807
G01 X36.3698 Y6.7581
G01 X36.3336 Y6.8347
G01 X36.2921 Y6.9042
G01 X36.2395 Y6.9751
G01 X36.1850 Y7.0350
G01 X36.1232 Y7.0911
G01 X36.0562 Y7.1407
G01 X35.9858 Y7.1830
G01 X35.9718 Y7.1898
G01 X35.9583 Y7.2121
G01 X35.9328 Y7.2466
G01 X35.9040 Y7.2786
M5
G00 X43.2015 Y10.6641
M3
G01 X43.2873 Y10.6681
G01 X43.3698 Y10.6803
G01 X43.4507 Y10.7006
G01 X43.5293 Y10.7287
G01 X43.6047 Y10.7644
G01 X43.6762 Y10.8073
G01 X43.7432 Y10.8569
G01 X43.8050 Y10.9130
G01 X43.8611 Y10.9748
G01 X43.9107 Y11.0418
G01 X43.9536 Y11.1133
G01 X43.9893 Y11.1887
G01 X44.0174 Y11.2673
G01 X44.0377 Y11.3482
G01 X44.0499 Y11.4307
G01 X44.0540 Y11.5140
G01 X44.0499 Y11.5973
G01 X44.0377 Y11.6798
G01 X44.0174 Y11.7607
G01 X43.9893 Y11.8393
G01 X43.9536 Y11.9147
G01 X43.9107 Y11.9862
G01 X43.8611 Y12.0532
G01 X43.8050 Y12.1150
G01 X43.7432 Y12.1711
G01 X43.6762 Y12.2207
G01 X43.6047 Y12.2636
G01 X43.5293 Y12.2993
G01 X43.4507 Y12.3274
G01 X43.3698 Y12.3477
G01 X43.2873 Y12.3599
G01 X43.2040 Y12.3640
G01 X43.1207 Y12.3599
G01 X43.0382 Y12.3477
G01 X42.9573 Y12.3274
G01 X42.8787 Y12.2993
G01 X42.8033 Y12.2636
G01 X42.7318 Y12.2207
G01 X42.6648 Y12.1711
G01 X42.6030 Y12.1150
G01 X42.5469 Y12.0532
G01 X42.4973 Y11.9862
G01 X42.4544 Y11.9147
G01 X42.4187 Y11.8393
G01 X42.3906 Y11.7607
G01 X42.3703 Y11.6798
G01 X42.3581 Y11.5973
G01 X42.3540 Y11.5140
G01 X42.3581 Y11.4307
G01 X42.3703 Y11.3482
G01 X42.3906 Y11.2673
G01 X42.4187 Y11.1887
G01 X42.4544 Y11.1133
G01 X42.4973 Y11.0418
G01 X42.5469 Y10.9748
G01 X42.6030 Y10.9130
G01 X42.6648 Y10.8569
G01 X42.7318 Y10.8073
G01 X42.8033 Y10.7644
G01 X42.8787 Y10.7287
G01 X42.9573 Y10.7006
G01 X43.0382 Y10.6803
G01 X43.1207 Y10.6681
G01 X43.2015 Y10.6641
M5
G00 X50.0558 Y8.8327
M3
G01 X50.0857 Y8.7829
G01 X50.1391 Y8.7110
G01 X50.1976 Y8.6465
G01 X50.2640 Y8.5864
G01 X50.3340 Y8.5346
G01 X50.4097 Y8.4892
G01 X50.4896 Y8.4514
G01 X50.5739 Y8.4213
G01 X50.6584 Y8.4002
G01 X50.7458 Y8.3872
G01 X50.8340 Y8.3829
G01 X50.9222 Y8.3872
G01 X51.0096 Y8.4002
G01 X51.0953 Y8.4216
G01 X51.1784 Y8.4514
G01 X51.2593 Y8.4897
G01 X51.3340 Y8.5346
G01 X51.4050 Y8.5872
G01 X51.4704 Y8.6465
G01 X51.5297 Y8.7119
G01 X51.5823 Y8.7829
G01 X51.6277 Y8.8586
G01 X51.6655 Y8.9385
G01 X51.6952 Y9.0216
G01 X51.7167 Y9.1073
G01 X51.7297 Y9.1947
G01 X51.7340 Y9.2829
G01 X51.7297 Y9.3711
G01 X51.7167 Y9.4585
G01 X51.6952 Y9.5441
G01 X51.6655 Y9.6273
G01 X51.6271 Y9.7082
G01 X51.5823 Y9.7829
G01 X51.5312 Y9.8519
G01 X51.4704 Y9.9193
G01 X51.4030 Y9.9801
G01 X51.3340 Y10.0312
G01 X51.2604 Y10.0754
G01 X51.1784 Y10.1144
G01 X51.0929 Y10.1448
G01 X51.0096 Y10.1656
G01 X50.9247 Y10.1783
G01 X50.8340 Y10.1829
G01 X50.7433 Y10.1783
G01 X50.6584 Y10.1656
G01 X50.5751 Y10.1448
G01 X50.4896 Y10.1144
G01 X50.4087 Y10.0760
G01 X50.3320 Y10.0298
G01 X50.2630 Y9.9786
G01 X50.1985 Y9.9201
G01 X50.1375 Y9.8529
G01 X50.0857 Y9.7829
G01 X50.0558 Y9.7331
G01 X49.4456 Y9.7331
G01 X49.4027 Y9.7310
G01 X49.3578 Y9.7244
G01 X49.3149 Y9.7137
G01 X49.2733 Y9.6988
G01 X49.2323 Y9.6793
G01 X49.1955 Y9.6572
G01 X49.1620 Y9.6324
G01 X49.1273 Y9.6012
G01 X44.0112 Y4.4852
G01 X42.3968 Y4.4852
G01 X40.8867 Y5.9953
G01 X40.8867 Y6.6615
G01 X40.8845 Y6.7056
G01 X40.8780 Y6.7493
G01 X40.8679 Y6.7898
G01 X40.8524 Y6.8338
G01 X40.8335 Y6.8737
G01 X40.8121 Y6.9096
G01 X40.7837 Y6.9481
G01 X40.7548 Y6.9799
G01 X36.4115 Y11.3232
G01 X36.4179 Y11.3494
G01 X36.4298 Y11.4295
G01 X36.4340 Y11.5128
G01 X36.4299 Y11.5973
G01 X36.4174 Y11.6810
G01 X36.3966 Y11.7631
G01 X36.3693 Y11.8393
G01 X36.3347 Y11.9125
G01 X36.2907 Y11.9862
G01 X36.2395 Y12.0551
G01 X36.1850 Y12.1150
G01 X36.1251 Y12.1695
G01 X36.0562 Y12.2207
G01 X35.9825 Y12.2647
G01 X35.9093 Y12.2993
G01 X35.8319 Y12.3270
G01 X35.7474 Y12.3481
G01 X35.6673 Y12.3599
G01 X35.5852 Y12.3640
G01 X35.4995 Y12.3598
G01 X35.4194 Y12.3479
G01 X35.3932 Y12.3415
G01 X34.5202 Y13.2145
G01 X34.5202 Y16.3500
G01 X34.5180 Y16.3941
G01 X34.5115 Y16.4378
G01 X34.5008 Y16.4807
G01 X34.4854 Y16.5234
G01 X34.4670 Y16.5622
G01 X34.4443 Y16.6001
G01 X34.4180 Y16.6356
G01 X34.3883 Y16.6683
G01 X31.7262 Y19.3305
G01 X31.7262 Y21.9800
G01 X31.7492 Y21.9939
G01 X31.8162 Y22.0437
G01 X31.8770 Y22.0990
G01 X31.9338 Y22.1617
G01 X31.9827 Y22.2278
G01 X32.0256 Y22.2993
G01 X32.0613 Y22.3747
G01 X32.0890 Y22.4521
G01 X32.1097 Y22.5342
G01 X32.1216 Y22.6142
G01 X32.1259 Y22.7025
G01 X32.1219 Y22.7833
G01 X32.1097 Y22.8658
G01 X32.0894 Y22.9467
G01 X32.0618 Y23.0241
G01 X32.0244 Y23.1028
G01 X31.9827 Y23.1722
G01 X31.9346 Y23.2373
G01 X31.8770 Y23.3010
G01 X31.8133 Y23.3586
G01 X31.7482 Y23.4067
G01 X31.6788 Y23.4484
G01 X31.6013 Y23.4853
G01 X31.5204 Y23.5141
G01 X31.4418 Y23.5337
G01 X31.3593 Y23.5459
G01 X31.2735 Y23.5499
G01 X31.1927 Y23.5459
G01 X31.1126 Y23.5341
G01 X31.0293 Y23.5134
G01 X30.9485 Y23.4843
G01 X30.8753 Y23.4496
G01 X30.8058 Y23.4081
G01 X30.7368 Y23.3571
G01 X30.6733 Y23.2993
G01 X30.6189 Y23.2392
G01 X30.5707 Y23.1742
G01 X30.5253 Y23.0985
G01 X30.4907 Y23.0253
G01 X30.4619 Y22.9444
G01 X30.4423 Y22.8658
G01 X30.4301 Y22.7833
G01 X30.4260 Y22.7000
G01 X30.4300 Y22.6179
G01 X30.4423 Y22.5342
G01 X30.4634 Y22.4509
G01 X30.4907 Y22.3747
G01 X30.5253 Y22.3015
G01 X30.5686 Y22.2288
G01 X30.6189 Y22.1608
G01 X30.6758 Y22.0981
G01 X30.7377 Y22.0422
G01 X30.8028 Y21.9939
G01 X30.8258 Y21.9800
G01 X30.8258 Y19.1440
G01 X30.8283 Y19.0974
G01 X30.8345 Y19.0562
G01 X30.8452 Y19.0133
G01 X30.8601 Y18.9717
G01 X30.8802 Y18.9296
G01 X30.9017 Y18.8939
G01 X30.9265 Y18.8603
G01 X30.9568 Y18.8265
G01 X33.6198 Y16.1635
G01 X33.6198 Y13.0268
G01 X33.6223 Y12.9814
G01 X33.6285 Y12.9402
G01 X33.6385 Y12.8997
G01 X33.6541 Y12.8557
G01 X33.6742 Y12.8136
G01 X33.6957 Y12.7779
G01 X33.7205 Y12.7443
G01 X33.7517 Y12.7097
G01 X34.7565 Y11.7048
G01 X34.7501 Y11.6786
G01 X34.7382 Y11.5985
G01 X34.7340 Y11.5128
G01 X34.7381 Y11.4307
G01 X34.7499 Y11.3506
G01 X34.7703 Y11.2684
G01 X34.7987 Y11.1887
G01 X34.8356 Y11.1112
G01 X34.8773 Y11.0418
G01 X34.9254 Y10.9767
G01 X34.9830 Y10.9130
G01 X35.0467 Y10.8554
G01 X35.1118 Y10.8073
G01 X35.1812 Y10.7656
G01 X35.2587 Y10.7287
G01 X35.3384 Y10.7003
G01 X35.4206 Y10.6799
G01 X35.5007 Y10.6681
G01 X35.5828 Y10.6640
G01 X35.6685 Y10.6682
G01 X35.7486 Y10.6801
G01 X35.7748 Y10.6865
G01 X39.9863 Y6.4750
G01 X39.9863 Y5.8088
G01 X39.9883 Y5.7659
G01 X39.9949 Y5.7209
G01 X40.0064 Y5.6758
G01 X40.0205 Y5.6365
G01 X40.0383 Y5.5987
G01 X40.0628 Y5.5576
G01 X40.0885 Y5.5232
G01 X40.1181 Y5.4904
G01 X41.8919 Y3.7166
G01 X41.9247 Y3.6870
G01 X41.9582 Y3.6621
G01 X42.0003 Y3.6368
G01 X42.0380 Y3.6190
G01 X42.0796 Y3.6042
G01 X42.1225 Y3.5934
G01 X42.1637 Y3.5872
G01 X42.2103 Y3.5848
G01 X44.1989 Y3.5848
G01 X44.2418 Y3.5869
G01 X44.2831 Y3.5930
G01 X44.3284 Y3.6042
G01 X44.3722 Y3.6200
G01 X44.4099 Y3.6379
G01 X44.4468 Y3.6600
G01 X44.4833 Y3.6870
G01 X44.5161 Y3.7166
