; This gcode is generated by my specialised python script for my PCB manufacturer project :))

; Machine Initialization Sequence...

G21 ; to set metric units
G90 ; to set absolute mode , G91 for incremental mode
G94 ; To set the active feed rate mode to units per minute mode

M5 ; disabling spindle PWM
C0 ; Choosing the empty tool slot in the multiplexer circuits

B1 ; Turn ON Machine

$H ; Homing :)
G10 P0 L20 X0.0Y0.0Z0.0 ; Force Reset current coordinates after homing


; The following gcode is the PCB holes drill gcode

; Getting and Activating Tool-2, The Tool.Spindle
C2 ; Choosing tool 2 in the choose demultiplexer circuits

F600 ; setting default feedrate

S230 ; sets pwm speed when we enable it

G01 Z10F20 ; Moving Spindle to UP Postion

M3 ; Turn Motor ON
G4 P2 ; dwell for 2 seconds so motor reaches full RPM

G01 X40.25Y12.01675F600
G01 Z13F1
G01 Z10F20
G01 X40.25Y14.51675F600
G01 Z13F1
G01 Z10F20
G01 X49.2505Y8.41325F600
G01 Z13F1
G01 Z10F20
G01 X49.2505Y10.91325F600
G01 Z13F1
G01 Z10F20
G01 X49.2505Y13.41325F600
G01 Z13F1
G01 Z10F20
G01 X19.686Y13.41125F600
G01 Z13F1
G01 Z10F20
G01 X19.686Y10.87125F600
G01 Z13F1
G01 Z10F20
G01 X19.686Y8.33125F600
G01 Z13F1
G01 Z10F20
G01 X12.783Y16.51325F600
G01 Z13F1
G01 Z10F20
G01 X12.783Y3.81325F600
G01 Z13F1
G01 Z10F20
G01 X24.033Y9.60125F600
G01 Z13F1
G01 Z10F20
G01 X24.033Y8.33125F600
G01 Z13F1
G01 Z10F20
G01 X24.033Y7.06125F600
G01 Z13F1
G01 Z10F20
G01 X37.283Y14.51675F600
G01 Z13F1
G01 Z10F20
G01 X29.663Y14.51675F600
G01 Z13F1
G01 Z10F20
G01 X30.679Y7.61125F600
G01 Z13F1
G01 Z10F20
G01 X29.409Y7.61125F600
G01 Z13F1
G01 Z10F20
G01 X28.139Y7.61125F600
G01 Z13F1
G01 Z10F20
G01 X36.267Y7.61125F600
G01 Z13F1
G01 Z10F20
G01 X34.997Y7.61125F600
G01 Z13F1
G01 Z10F20
G01 X33.727Y7.61125F600
G01 Z13F1
G01 Z10F20
G01 X6.041Y13.91925F600
G01 Z13F1
G01 Z10F20
G01 X6.041Y8.83925F600
G01 Z13F1
G01 Z10F20
G01 X46.427Y9.01675F600
G01 Z13F1
G01 Z10F20
G01 X38.807Y9.01675F600
G01 Z13F1
G01 Z10F20
G01 X44.5Y14.47186F600
G01 Z13F1
G01 Z10F20
G01 X44.5Y11.97186F600
G01 Z13F1
G01 Z10F20
G01 X37.283Y11.88725F600
G01 Z13F1
G01 Z10F20
G01 X29.663Y11.88725F600
G01 Z13F1
G01 Z10F20
G01 X24.117Y12.64925F600
G01 Z13F1
G01 Z10F20
G01 X24.117Y13.91925F600
G01 Z13F1
G01 Z10F20
G01 X24.117Y15.18925F600
G01 Z13F1
G01 Z10F20

M5 ; disabling spindle PWM

; Returning the Deactivating Tool-2
C0 ; PWM Tool select demultiplexer to select tool zero which is the empty tool slot in multiplexers

; Machine deinitialization Sequence... 

G00X0.0Y0.0Z0.0
B0 ; Turn Machine OFF
