; This gcode is generated by my specialised python script for my PCB manufacturer project :))

; Machine Initialization Sequence...

G21 ; to set metric units
G90 ; to set absolute mode , G91 for incremental mode
G94 ; To set the active feed rate mode to units per minute mode

M5 ; disabling spindle PWM
C0 ; Choosing the empty tool slot in the multiplexer circuits

B1 ; Turn ON Machine

$H ; Homing :)
G10 P0 L20 X0.0Y0.0Z0.0 ; Force Reset current coordinates after homing


; The following gcode is the PCB trace laser marking gcode

M5 ; Being extra sure it won't light up before activation

; Getting and Activating Tool-1, The Tool.Laser
C1 ; Choosing tool 1 in the choose demultiplexer circuits

F400 ; setting default feedrate

G00Z16 ; Moving to correct focal length Z position

S200 ; Setting Laser Power

; Number of passes: 1

; Pass number: 1
G01 X48.97957Y11.74987
M3
G01 X49.04219Y11.75916
G01 X49.3755Y11.76325
G01 X49.45881Y11.75916
G01 X49.54133Y11.74692
G01 X49.62224Y11.72665
G01 X49.70078Y11.69855
G01 X49.77541Y11.66325
G01 X50.3535Y11.66325
G01 X50.42701Y11.65964
G01 X50.49982Y11.64884
G01 X50.57121Y11.63096
G01 X50.64051Y11.60616
G01 X50.70705Y11.57469
G01 X50.77018Y11.53685
G01 X50.82929Y11.49301
G01 X50.88383Y11.44358
G01 X52.03033Y10.29708
G01 X52.07976Y10.24254
G01 X52.1236Y10.18343
G01 X52.16144Y10.1203
G01 X52.19291Y10.05376
G01 X52.21771Y9.98446
G01 X52.23559Y9.91307
G01 X52.24639Y9.84026
G01 X52.25Y9.76675
G01 X52.25Y6.26675
G01 X52.24639Y6.19324
G01 X52.23559Y6.12043
G01 X52.21771Y6.04904
G01 X52.19291Y5.97974
G01 X52.16144Y5.9132
G01 X52.1236Y5.85007
G01 X52.07976Y5.79096
G01 X52.03033Y5.73642
G01 X50.53883Y4.24492
G01 X50.48429Y4.19549
G01 X50.42518Y4.15165
G01 X50.36205Y4.11381
G01 X50.29551Y4.08234
G01 X50.22621Y4.05754
G01 X50.15482Y4.03966
G01 X50.08201Y4.02886
G01 X50.0085Y4.02525
G01 X41.283Y4.02525
G01 X39.75Y4.02525
G01 X34.283Y4.02525
G01 X27.033Y4.02525
G01 X23.242Y4.02525
G01 X23.16849Y4.02886
G01 X23.13888Y4.03325
G01 X23.09568Y4.03966
G01 X23.02429Y4.05754
G01 X22.95499Y4.08234
G01 X22.88845Y4.11381
G01 X22.82532Y4.15165
G01 X22.76621Y4.19549
G01 X22.71167Y4.24492
G01 X22.71167Y4.24492
G01 X19.57471Y7.38188
G01 X19.54514Y7.38334
G01 X19.45268Y7.39705
G01 X19.362Y7.41976
G01 X19.27399Y7.45125
G01 X19.18949Y7.49122
G01 X19.10932Y7.53928
G01 X19.03424Y7.59496
G01 X18.96498Y7.65773
G01 X18.90221Y7.72699
G01 X18.84653Y7.80207
G01 X18.79847Y7.88224
G01 X18.7585Y7.96674
G01 X18.72701Y8.05475
G01 X18.7043Y8.14543
G01 X18.69059Y8.23789
G01 X18.686Y8.33125
G01 X18.69059Y8.42461
G01 X18.7043Y8.51707
G01 X18.72701Y8.60775
G01 X18.7585Y8.69576
G01 X18.79847Y8.78026
G01 X18.84653Y8.86043
G01 X18.90221Y8.93551
G01 X18.96498Y9.00477
G01 X19.03424Y9.06754
G01 X19.10932Y9.12322
G01 X19.18949Y9.17128
G01 X19.27399Y9.21125
G01 X19.362Y9.24274
G01 X19.45268Y9.26545
G01 X19.54514Y9.27916
G01 X19.7335Y9.28375
G01 X19.82686Y9.27916
G01 X19.91932Y9.26545
G01 X20.01Y9.24274
G01 X20.09801Y9.21125
G01 X20.18251Y9.17128
G01 X20.26268Y9.12322
G01 X20.33776Y9.06754
G01 X20.40702Y9.00477
G01 X20.46979Y8.93551
G01 X20.52547Y8.86043
G01 X20.57353Y8.78026
G01 X20.6135Y8.69576
G01 X20.64499Y8.60775
G01 X20.6677Y8.51707
G01 X20.68141Y8.42461
G01 X20.68287Y8.39504
G01 X23.55266Y5.52525
G01 X25.71731Y5.52525
G01 X24.58881Y6.65375
G01 X24.54967Y6.62473
G01 X24.50548Y6.59824
G01 X24.45891Y6.57621
G01 X24.4104Y6.55886
G01 X24.36042Y6.54634
G01 X24.30946Y6.53878
G01 X23.808Y6.53625
G01 X23.75654Y6.53878
G01 X23.70558Y6.54634
G01 X23.6556Y6.55886
G01 X23.60709Y6.57621
G01 X23.56052Y6.59824
G01 X23.51633Y6.62473
G01 X23.47494Y6.65542
G01 X23.43677Y6.69002
G01 X23.40217Y6.72819
G01 X23.37148Y6.76958
G01 X23.34499Y6.81377
G01 X23.32296Y6.86034
G01 X23.30561Y6.90885
G01 X23.29309Y6.95883
G01 X23.28553Y7.00979
G01 X23.283Y7.06125
G01 X23.28553Y7.11271
G01 X23.29309Y7.16367
G01 X23.30561Y7.21365
G01 X23.32296Y7.26216
G01 X23.34499Y7.30873
G01 X23.37148Y7.35292
G01 X23.40217Y7.39431
G01 X23.43677Y7.43248
G01 X23.47494Y7.46708
G01 X23.51633Y7.49777
G01 X23.56052Y7.52426
G01 X23.60709Y7.54629
G01 X23.6556Y7.56364
G01 X23.70558Y7.57616
G01 X23.75654Y7.58372
G01 X24.258Y7.58625
G01 X24.30946Y7.58372
G01 X24.36042Y7.57616
G01 X24.4104Y7.56364
G01 X24.45891Y7.54629
G01 X24.50548Y7.52426
G01 X24.54967Y7.49777
G01 X24.59106Y7.46708
G01 X24.59749Y7.46125
G01 X24.747Y7.46125
G01 X24.747Y7.46125
G01 X24.7547Y7.46087
G01 X24.78621Y7.45932
G01 X24.82504Y7.45356
G01 X24.86305Y7.44404
G01 X24.86311Y7.44403
G01 X24.90007Y7.4308
G01 X24.9168Y7.42289
G01 X24.93556Y7.41402
G01 X24.96923Y7.39384
G01 X24.98526Y7.38195
G01 X25.00076Y7.37045
G01 X25.02984Y7.34409
G01 X26.84869Y5.52525
G01 X27.033Y5.52525
G01 X32.96731Y5.52525
G01 X31.28131Y7.21125
G01 X31.204Y7.21125
G01 X31.204Y6.86125
G01 X30.154Y6.86125
G01 X30.154Y8.36125
G01 X31.204Y8.36125
G01 X31.204Y8.01125
G01 X31.447Y8.01125
G01 X31.48621Y8.00932
G01 X31.52504Y8.00356
G01 X31.56311Y7.99403
G01 X31.60007Y7.9808
G01 X31.63556Y7.96402
G01 X31.66923Y7.94384
G01 X31.70076Y7.92045
G01 X31.72182Y7.90136
G01 X31.72984Y7.89409
G01 X31.72984Y7.89409
G01 X34.09869Y5.52525
G01 X34.283Y5.52525
G01 X38.43431Y5.52525
G01 X36.792Y7.16756
G01 X36.792Y6.86125
G01 X35.742Y6.86125
G01 X35.742Y8.36125
G01 X36.792Y8.36125
G01 X36.792Y8.01125
G01 X36.914Y8.01125
G01 X36.95321Y8.00932
G01 X36.99204Y8.00356
G01 X37.03011Y7.99403
G01 X37.03968Y7.9906
G01 X37.06707Y7.9808
G01 X37.10256Y7.96402
G01 X37.13623Y7.94384
G01 X37.16776Y7.92045
G01 X37.19684Y7.89409
G01 X39.56569Y5.52525
G01 X39.75Y5.52525
G01 X41.283Y5.52525
G01 X49.69784Y5.52525
G01 X50.75Y6.57741
G01 X50.75Y9.45609
G01 X50.04284Y10.16325
G01 X49.77541Y10.16325
G01 X49.70078Y10.12795
G01 X49.62224Y10.09985
G01 X49.54133Y10.07958
G01 X49.45881Y10.06734
G01 X49.1255Y10.06325
G01 X49.04219Y10.06734
G01 X48.95967Y10.07958
G01 X48.87876Y10.09985
G01 X48.80022Y10.12795
G01 X48.72481Y10.16362
G01 X48.65327Y10.2065
G01 X48.58627Y10.25619
G01 X48.52446Y10.31221
G01 X48.46844Y10.37402
G01 X48.41875Y10.44102
G01 X48.37587Y10.51256
G01 X48.3402Y10.58797
G01 X48.3121Y10.66651
G01 X48.29183Y10.74742
G01 X48.27959Y10.82994
G01 X48.2755Y10.91325
G01 X48.27959Y10.99656
G01 X48.29183Y11.07908
G01 X48.3121Y11.15999
G01 X48.3402Y11.23853
G01 X48.34641Y11.25165
G01 X48.0262Y11.57186
G01 X45.19182Y11.57186
G01 X45.16518Y11.52741
G01 X45.11841Y11.46435
G01 X45.06569Y11.40618
G01 X45.00751Y11.35345
G01 X44.94446Y11.30669
G01 X44.87712Y11.26632
G01 X44.80615Y11.23276
G01 X44.73223Y11.20631
G01 X44.65607Y11.18723
G01 X44.57841Y11.17571
G01 X44.5Y11.17186
G01 X44.42159Y11.17571
G01 X44.34393Y11.18723
G01 X44.26777Y11.20631
G01 X44.19385Y11.23276
G01 X44.12288Y11.26632
G01 X44.05554Y11.30669
G01 X43.99249Y11.35345
G01 X43.93431Y11.40618
G01 X43.88159Y11.46435
G01 X43.83482Y11.52741
G01 X43.80818Y11.57186
G01 X40.91486Y11.57186
G01 X40.86841Y11.50924
G01 X40.81569Y11.45106
G01 X40.75751Y11.39834
G01 X40.69446Y11.35157
G01 X40.62712Y11.31121
G01 X40.55615Y11.27765
G01 X40.48223Y11.2512
G01 X40.40607Y11.23212
G01 X40.32841Y11.2206
G01 X40.25Y11.21675
G01 X40.17159Y11.2206
G01 X40.09393Y11.23212
G01 X40.01777Y11.2512
G01 X39.94385Y11.27765
G01 X39.87288Y11.31121
G01 X39.80554Y11.35157
G01 X39.74249Y11.39834
G01 X39.68431Y11.45106
G01 X39.63159Y11.50924
G01 X39.58482Y11.57229
G01 X39.54446Y11.63963
G01 X39.5109Y11.7106
G01 X39.48445Y11.78452
G01 X39.46537Y11.86068
G01 X39.45385Y11.93834
G01 X39.45Y12.01675
G01 X39.45385Y12.09516
G01 X39.46537Y12.17282
G01 X39.48445Y12.24898
G01 X39.5109Y12.3229
G01 X39.54446Y12.39387
G01 X39.58482Y12.46121
G01 X39.63159Y12.52426
G01 X39.68431Y12.58244
G01 X39.74249Y12.63516
G01 X39.80554Y12.68193
G01 X39.87288Y12.72229
G01 X39.94385Y12.75585
G01 X40.01777Y12.7823
G01 X40.09393Y12.80138
G01 X40.17159Y12.8129
G01 X40.25Y12.81675
G01 X40.32841Y12.8129
G01 X40.40607Y12.80138
G01 X40.48223Y12.7823
G01 X40.55615Y12.75585
G01 X40.62712Y12.72229
G01 X40.69446Y12.68193
G01 X40.75751Y12.63516
G01 X40.81569Y12.58244
G01 X40.86841Y12.52426
G01 X40.91518Y12.46121
G01 X40.95554Y12.39387
G01 X40.96594Y12.37186
G01 X43.80818Y12.37186
G01 X43.83482Y12.41632
G01 X43.88159Y12.47938
G01 X43.93431Y12.53755
G01 X43.99249Y12.59027
G01 X44.05554Y12.63704
G01 X44.12288Y12.6774
G01 X44.19385Y12.71097
G01 X44.26777Y12.73741
G01 X44.34393Y12.75649
G01 X44.42159Y12.76801
G01 X44.5Y12.77186
G01 X44.57841Y12.76801
G01 X44.65607Y12.75649
G01 X44.73223Y12.73741
G01 X44.80615Y12.71097
G01 X44.87712Y12.6774
G01 X44.94446Y12.63704
G01 X45.00751Y12.59027
G01 X45.06569Y12.53755
G01 X45.11841Y12.47938
G01 X45.16518Y12.41632
G01 X45.19182Y12.37186
G01 X48.19189Y12.37186
G01 X48.23109Y12.36994
G01 X48.26992Y12.36418
G01 X48.308Y12.35464
G01 X48.34496Y12.34141
G01 X48.38045Y12.32463
G01 X48.41412Y12.30445
G01 X48.44565Y12.28107
G01 X48.47473Y12.2547
G01 X48.97957Y11.74987
G01 X48.97957Y11.74987
M5
G01 X24.71323Y14.81802
M3
G01 X24.67506Y14.78342
G01 X24.63367Y14.75273
G01 X24.58948Y14.72624
G01 X24.54291Y14.70421
G01 X24.4944Y14.68686
G01 X24.44442Y14.67434
G01 X24.39346Y14.66678
G01 X23.892Y14.66425
G01 X23.84054Y14.66678
G01 X23.78958Y14.67434
G01 X23.7396Y14.68686
G01 X23.69109Y14.70421
G01 X23.64452Y14.72624
G01 X23.60033Y14.75273
G01 X23.55894Y14.78342
G01 X23.52077Y14.81802
G01 X23.48617Y14.85619
G01 X23.45548Y14.89758
G01 X23.42899Y14.94177
G01 X23.40696Y14.98834
G01 X23.38961Y15.03685
G01 X23.37709Y15.08683
G01 X23.36953Y15.13779
G01 X23.367Y15.18925
G01 X23.36953Y15.24071
G01 X23.37709Y15.29167
G01 X23.38961Y15.34165
G01 X23.40696Y15.39016
G01 X23.42899Y15.43673
G01 X23.45548Y15.48092
G01 X23.48617Y15.52231
G01 X23.52077Y15.56048
G01 X23.55894Y15.59508
G01 X23.60033Y15.62577
G01 X23.64452Y15.65226
G01 X23.69109Y15.67429
G01 X23.717Y15.68356
G01 X23.717Y15.93525
G01 X13.983Y15.93525
G01 X13.983Y15.31325
G01 X11.583Y15.31325
G01 X11.583Y15.76325
G01 X8.94566Y15.76325
G01 X7.541Y14.35859
G01 X7.541Y12.41925
G01 X4.541Y12.41925
G01 X4.541Y15.41925
G01 X6.48034Y15.41925
G01 X8.10467Y17.04358
G01 X8.15921Y17.09301
G01 X8.21832Y17.13685
G01 X8.28145Y17.17469
G01 X8.34799Y17.20616
G01 X8.41729Y17.23096
G01 X8.48868Y17.24884
G01 X8.56149Y17.25964
G01 X8.635Y17.26325
G01 X11.583Y17.26325
G01 X11.583Y17.71325
G01 X13.983Y17.71325
G01 X13.983Y17.43525
G01 X24.25Y17.43525
G01 X45.9785Y17.43525
G01 X46.05201Y17.43164
G01 X46.12482Y17.42084
G01 X46.19621Y17.40296
G01 X46.26551Y17.37816
G01 X46.33205Y17.34669
G01 X46.39518Y17.30885
G01 X46.45429Y17.26501
G01 X46.50883Y17.21558
G01 X49.46637Y14.25804
G01 X49.54133Y14.24692
G01 X49.62224Y14.22665
G01 X49.70078Y14.19855
G01 X49.77619Y14.16288
G01 X49.84773Y14.12
G01 X49.91473Y14.07031
G01 X49.97654Y14.01429
G01 X50.03256Y13.95248
G01 X50.08225Y13.88548
G01 X50.12513Y13.81394
G01 X50.1608Y13.73853
G01 X50.1889Y13.65999
G01 X50.20917Y13.57908
G01 X50.22141Y13.49656
G01 X50.2255Y13.41325
G01 X50.22141Y13.32994
G01 X50.20917Y13.24742
G01 X50.1889Y13.16651
G01 X50.1608Y13.08797
G01 X50.12513Y13.01256
G01 X50.08225Y12.94102
G01 X50.03256Y12.87402
G01 X49.97654Y12.81221
G01 X49.91473Y12.75619
G01 X49.84773Y12.7065
G01 X49.77619Y12.66362
G01 X49.70078Y12.62795
G01 X49.62224Y12.59985
G01 X49.54133Y12.57958
G01 X49.45881Y12.56734
G01 X49.1255Y12.56325
G01 X49.04219Y12.56734
G01 X48.95967Y12.57958
G01 X48.87876Y12.59985
G01 X48.80022Y12.62795
G01 X48.72481Y12.66362
G01 X48.65327Y12.7065
G01 X48.58627Y12.75619
G01 X48.52446Y12.81221
G01 X48.46844Y12.87402
G01 X48.41875Y12.94102
G01 X48.37587Y13.01256
G01 X48.3402Y13.08797
G01 X48.3121Y13.16651
G01 X48.29183Y13.24742
G01 X48.28071Y13.32238
G01 X45.73101Y15.87208
G01 X45.1308Y15.27186
G01 X45.3Y15.27186
G01 X45.3Y13.67186
G01 X43.7Y13.67186
G01 X43.7Y14.11675
G01 X40.94182Y14.11675
G01 X40.91518Y14.07229
G01 X40.86841Y14.00924
G01 X40.81569Y13.95106
G01 X40.75751Y13.89834
G01 X40.69446Y13.85157
G01 X40.62712Y13.81121
G01 X40.55615Y13.77765
G01 X40.48223Y13.7512
G01 X40.40607Y13.73212
G01 X40.32841Y13.7206
G01 X40.25Y13.71675
G01 X40.17159Y13.7206
G01 X40.09393Y13.73212
G01 X40.01777Y13.7512
G01 X39.94385Y13.77765
G01 X39.87288Y13.81121
G01 X39.80554Y13.85157
G01 X39.74249Y13.89834
G01 X39.68431Y13.95106
G01 X39.63159Y14.00924
G01 X39.58482Y14.07229
G01 X39.55818Y14.11675
G01 X37.97482Y14.11675
G01 X37.94818Y14.07229
G01 X37.90141Y14.00924
G01 X37.84869Y13.95106
G01 X37.79051Y13.89834
G01 X37.72746Y13.85157
G01 X37.683Y13.82493
G01 X37.683Y12.57907
G01 X37.72746Y12.55243
G01 X37.79051Y12.50566
G01 X37.84869Y12.45294
G01 X37.90141Y12.39476
G01 X37.94818Y12.33171
G01 X37.98854Y12.26437
G01 X38.0221Y12.1934
G01 X38.04855Y12.11948
G01 X38.06763Y12.04332
G01 X38.07915Y11.96566
G01 X38.083Y11.88725
G01 X38.07915Y11.80884
G01 X38.06763Y11.73118
G01 X38.04855Y11.65502
G01 X38.0221Y11.5811
G01 X37.98854Y11.51013
G01 X37.94818Y11.44279
G01 X37.90141Y11.37974
G01 X37.84869Y11.32156
G01 X37.79051Y11.26884
G01 X37.72746Y11.22207
G01 X37.66012Y11.18171
G01 X37.58915Y11.14815
G01 X37.51523Y11.1217
G01 X37.43907Y11.10262
G01 X37.36141Y11.0911
G01 X37.283Y11.08725
G01 X37.20459Y11.0911
G01 X37.12693Y11.10262
G01 X37.05077Y11.1217
G01 X36.97685Y11.14815
G01 X36.90588Y11.18171
G01 X36.83854Y11.22207
G01 X36.77549Y11.26884
G01 X36.71731Y11.32156
G01 X36.66459Y11.37974
G01 X36.61782Y11.44279
G01 X36.57746Y11.51013
G01 X36.5439Y11.5811
G01 X36.51745Y11.65502
G01 X36.49837Y11.73118
G01 X36.48685Y11.80884
G01 X36.483Y11.88725
G01 X36.48685Y11.96566
G01 X36.49837Y12.04332
G01 X36.51745Y12.11948
G01 X36.5439Y12.1934
G01 X36.57746Y12.26437
G01 X36.61782Y12.33171
G01 X36.66459Y12.39476
G01 X36.71731Y12.45294
G01 X36.77549Y12.50566
G01 X36.83854Y12.55243
G01 X36.883Y12.57907
G01 X36.883Y13.82493
G01 X36.83854Y13.85157
G01 X36.77549Y13.89834
G01 X36.71731Y13.95106
G01 X36.66459Y14.00924
G01 X36.61782Y14.07229
G01 X36.57746Y14.13963
G01 X36.5439Y14.2106
G01 X36.51745Y14.28452
G01 X36.49837Y14.36068
G01 X36.48685Y14.43834
G01 X36.483Y14.51675
G01 X36.48685Y14.59516
G01 X36.49837Y14.67282
G01 X36.51745Y14.74898
G01 X36.5439Y14.8229
G01 X36.57746Y14.89387
G01 X36.61782Y14.96121
G01 X36.66459Y15.02426
G01 X36.71731Y15.08244
G01 X36.77549Y15.13516
G01 X36.83854Y15.18193
G01 X36.90588Y15.22229
G01 X36.97685Y15.25585
G01 X37.05077Y15.2823
G01 X37.12693Y15.30138
G01 X37.20459Y15.3129
G01 X37.283Y15.31675
G01 X37.36141Y15.3129
G01 X37.43907Y15.30138
G01 X37.51523Y15.2823
G01 X37.58915Y15.25585
G01 X37.66012Y15.22229
G01 X37.72746Y15.18193
G01 X37.79051Y15.13516
G01 X37.84869Y15.08244
G01 X37.90141Y15.02426
G01 X37.94818Y14.96121
G01 X37.97482Y14.91675
G01 X39.55818Y14.91675
G01 X39.58482Y14.96121
G01 X39.63159Y15.02426
G01 X39.68431Y15.08244
G01 X39.74249Y15.13516
G01 X39.80554Y15.18193
G01 X39.87288Y15.22229
G01 X39.94385Y15.25585
G01 X40.01777Y15.2823
G01 X40.09393Y15.30138
G01 X40.17159Y15.3129
G01 X40.25Y15.31675
G01 X40.32841Y15.3129
G01 X40.40607Y15.30138
G01 X40.48223Y15.2823
G01 X40.55615Y15.25585
G01 X40.62712Y15.22229
G01 X40.69446Y15.18193
G01 X40.75751Y15.13516
G01 X40.81569Y15.08244
G01 X40.86841Y15.02426
G01 X40.91518Y14.96121
G01 X40.94182Y14.91675
G01 X43.7Y14.91675
G01 X43.7Y15.27186
G01 X44.10577Y15.27186
G01 X44.10769Y15.28479
G01 X44.11722Y15.32286
G01 X44.13045Y15.35982
G01 X44.14723Y15.39531
G01 X44.16741Y15.42898
G01 X44.1908Y15.46051
G01 X44.21716Y15.48959
G01 X44.66281Y15.93525
G01 X24.517Y15.93525
G01 X24.517Y15.68356
G01 X24.54291Y15.67429
G01 X24.58948Y15.65226
G01 X24.63367Y15.62577
G01 X24.67506Y15.59508
G01 X24.71323Y15.56048
G01 X24.74783Y15.52231
G01 X24.77852Y15.48092
G01 X24.80501Y15.43673
G01 X24.82704Y15.39016
G01 X24.84439Y15.34165
G01 X24.85691Y15.29167
G01 X24.86447Y15.24071
G01 X24.867Y15.18925
G01 X24.86447Y15.13779
G01 X24.85691Y15.08683
G01 X24.84439Y15.03685
G01 X24.82704Y14.98834
G01 X24.80501Y14.94177
G01 X24.77852Y14.89758
G01 X24.74783Y14.85619
G01 X24.71323Y14.81802
G01 X24.71323Y14.81802
M5
G01 X46.27093Y9.80138
M3
G01 X46.34859Y9.8129
G01 X46.427Y9.81675
G01 X46.50541Y9.8129
G01 X46.58307Y9.80138
G01 X46.65923Y9.7823
G01 X46.73315Y9.75585
G01 X46.80412Y9.72229
G01 X46.87146Y9.68193
G01 X46.93451Y9.63516
G01 X46.99269Y9.58244
G01 X47.04541Y9.52426
G01 X47.09218Y9.46121
G01 X47.13254Y9.39387
G01 X47.1661Y9.3229
G01 X47.19255Y9.24898
G01 X47.21163Y9.17282
G01 X47.22315Y9.09516
G01 X47.227Y9.01675
G01 X47.22315Y8.93834
G01 X47.21163Y8.86068
G01 X47.19975Y8.81325
G01 X48.5255Y8.81325
G01 X48.5255Y9.01325
G01 X49.9755Y9.01325
G01 X49.9755Y7.81325
G01 X48.5255Y7.81325
G01 X48.5255Y8.01325
G01 X47.0305Y8.01325
G01 X46.99129Y8.01518
G01 X46.95246Y8.02094
G01 X46.91439Y8.03047
G01 X46.87743Y8.0437
G01 X46.84194Y8.06048
G01 X46.80827Y8.08066
G01 X46.77674Y8.10405
G01 X46.74766Y8.13041
G01 X46.63335Y8.24472
G01 X46.58307Y8.23212
G01 X46.50541Y8.2206
G01 X46.427Y8.21675
G01 X46.34859Y8.2206
G01 X46.27093Y8.23212
G01 X46.19477Y8.2512
G01 X46.12085Y8.27765
G01 X46.04988Y8.31121
G01 X45.98254Y8.35157
G01 X45.91949Y8.39834
G01 X45.86131Y8.45106
G01 X45.80859Y8.50924
G01 X45.76182Y8.57229
G01 X45.72146Y8.63963
G01 X45.6879Y8.7106
G01 X45.66145Y8.78452
G01 X45.64237Y8.86068
G01 X45.63085Y8.93834
G01 X45.627Y9.01675
G01 X45.63085Y9.09516
G01 X45.64237Y9.17282
G01 X45.66145Y9.24898
G01 X45.6879Y9.3229
G01 X45.72146Y9.39387
G01 X45.76182Y9.46121
G01 X45.80859Y9.52426
G01 X45.86131Y9.58244
G01 X45.91949Y9.63516
G01 X45.98254Y9.68193
G01 X46.04988Y9.72229
G01 X46.12085Y9.75585
G01 X46.19477Y9.7823
G01 X46.27093Y9.80138
G01 X46.27093Y9.80138
M5
G01 X24.867Y13.17425
M3
G01 X24.867Y12.12425
G01 X24.517Y12.12425
G01 X24.517Y10.12625
G01 X24.783Y10.12625
G01 X24.783Y9.07625
G01 X23.283Y9.07625
G01 X23.283Y10.12625
G01 X23.717Y10.12625
G01 X23.717Y12.12425
G01 X23.367Y12.12425
G01 X23.367Y12.24925
G01 X20.448Y12.24925
G01 X20.40879Y12.25118
G01 X20.36996Y12.25694
G01 X20.33189Y12.26647
G01 X20.29493Y12.2797
G01 X20.25944Y12.29648
G01 X20.22577Y12.31666
G01 X20.19424Y12.34005
G01 X20.16516Y12.36641
G01 X20.07281Y12.45875
G01 X18.686Y12.45875
G01 X18.686Y14.36375
G01 X20.686Y14.36375
G01 X20.686Y13.04925
G01 X23.367Y13.04925
G01 X23.367Y13.17425
G01 X24.867Y13.17425
G01 X24.867Y13.17425
M5
G01 X20.18251Y10.03122
M3
G01 X20.09801Y9.99125
G01 X20.01Y9.95976
G01 X19.91932Y9.93705
G01 X19.82686Y9.92334
G01 X19.6385Y9.91875
G01 X19.54514Y9.92334
G01 X19.45268Y9.93705
G01 X19.362Y9.95976
G01 X19.27399Y9.99125
G01 X19.18949Y10.03122
G01 X19.10932Y10.07928
G01 X19.05272Y10.12125
G01 X17.59166Y10.12125
G01 X13.533Y6.06259
G01 X13.533Y4.74922
G01 X13.54427Y4.74086
G01 X13.63153Y4.66178
G01 X13.71061Y4.57452
G01 X13.78076Y4.47993
G01 X13.84131Y4.37893
G01 X13.89166Y4.27247
G01 X13.93133Y4.16159
G01 X13.95994Y4.04736
G01 X13.97722Y3.93087
G01 X13.983Y3.81325
G01 X13.97722Y3.69563
G01 X13.95994Y3.57914
G01 X13.93133Y3.46491
G01 X13.89166Y3.35403
G01 X13.84131Y3.24757
G01 X13.78076Y3.14657
G01 X13.71061Y3.05198
G01 X13.63153Y2.96472
G01 X13.54427Y2.88564
G01 X13.44968Y2.81549
G01 X13.34868Y2.75494
G01 X13.24222Y2.70459
G01 X13.13134Y2.66492
G01 X13.01711Y2.63631
G01 X12.90062Y2.61903
G01 X12.783Y2.61325
G01 X12.66538Y2.61903
G01 X12.54889Y2.63631
G01 X12.43466Y2.66492
G01 X12.32378Y2.70459
G01 X12.21732Y2.75494
G01 X12.11632Y2.81549
G01 X12.02173Y2.88564
G01 X11.93447Y2.96472
G01 X11.85539Y3.05198
G01 X11.78524Y3.14657
G01 X11.72469Y3.24757
G01 X11.67434Y3.35403
G01 X11.63467Y3.46491
G01 X11.60606Y3.57914
G01 X11.58878Y3.69563
G01 X11.583Y3.81325
G01 X11.58878Y3.93087
G01 X11.60606Y4.04736
G01 X11.63467Y4.16159
G01 X11.67434Y4.27247
G01 X11.72469Y4.37893
G01 X11.78524Y4.47993
G01 X11.85539Y4.57452
G01 X11.93447Y4.66178
G01 X12.02173Y4.74086
G01 X12.033Y4.74922
G01 X12.033Y6.06259
G01 X10.00634Y8.08925
G01 X7.33817Y8.08925
G01 X7.2882Y8.00589
G01 X7.20052Y7.88766
G01 X7.10166Y7.77859
G01 X6.99259Y7.67973
G01 X6.87436Y7.59205
G01 X6.7481Y7.51637
G01 X6.61503Y7.45343
G01 X6.47643Y7.40384
G01 X6.33364Y7.36807
G01 X6.18803Y7.34647
G01 X6.041Y7.33925
G01 X5.89397Y7.34647
G01 X5.74836Y7.36807
G01 X5.60557Y7.40384
G01 X5.46697Y7.45343
G01 X5.3339Y7.51637
G01 X5.20764Y7.59205
G01 X5.08941Y7.67973
G01 X4.98034Y7.77859
G01 X4.88148Y7.88766
G01 X4.7938Y8.00589
G01 X4.71812Y8.13215
G01 X4.65518Y8.26522
G01 X4.60559Y8.40382
G01 X4.56982Y8.54661
G01 X4.54822Y8.69222
G01 X4.541Y8.83925
G01 X4.54822Y8.98628
G01 X4.56982Y9.13189
G01 X4.60559Y9.27468
G01 X4.65518Y9.41328
G01 X4.71812Y9.54635
G01 X4.7938Y9.67261
G01 X4.88148Y9.79084
G01 X4.98034Y9.89991
G01 X5.08941Y9.99877
G01 X5.20764Y10.08645
G01 X5.3339Y10.16213
G01 X5.46697Y10.22507
G01 X5.60557Y10.27466
G01 X5.74836Y10.31043
G01 X5.89397Y10.33203
G01 X6.041Y10.33925
G01 X6.18803Y10.33203
G01 X6.33364Y10.31043
G01 X6.47643Y10.27466
G01 X6.61503Y10.22507
G01 X6.7481Y10.16213
G01 X6.87436Y10.08645
G01 X6.99259Y9.99877
G01 X7.10166Y9.89991
G01 X7.20052Y9.79084
G01 X7.2882Y9.67261
G01 X7.33817Y9.58925
G01 X10.317Y9.58925
G01 X10.317Y9.58925
G01 X10.317Y9.58925
G01 X10.39051Y9.58564
G01 X10.46332Y9.57484
G01 X10.53471Y9.55696
G01 X10.60401Y9.53216
G01 X10.67055Y9.50069
G01 X10.70207Y9.48179
G01 X10.73368Y9.46285
G01 X10.76421Y9.44021
G01 X10.79279Y9.41901
G01 X10.81605Y9.39793
G01 X10.84733Y9.36958
G01 X10.84733Y9.36958
G01 X12.783Y7.43391
G01 X16.75067Y11.40158
G01 X16.80521Y11.45101
G01 X16.82901Y11.46866
G01 X16.86432Y11.49485
G01 X16.92745Y11.53269
G01 X16.92745Y11.53269
G01 X16.99399Y11.56416
G01 X17.06329Y11.58896
G01 X17.13468Y11.60684
G01 X17.20749Y11.61764
G01 X17.281Y11.62125
G01 X19.05272Y11.62125
G01 X19.10932Y11.66322
G01 X19.18949Y11.71128
G01 X19.27399Y11.75125
G01 X19.362Y11.78274
G01 X19.45268Y11.80545
G01 X19.54514Y11.81916
G01 X19.7335Y11.82375
G01 X19.82686Y11.81916
G01 X19.91932Y11.80545
G01 X20.01Y11.78274
G01 X20.09801Y11.75125
G01 X20.18251Y11.71128
G01 X20.26268Y11.66322
G01 X20.33776Y11.60754
G01 X20.40702Y11.54477
G01 X20.46979Y11.47551
G01 X20.52547Y11.40043
G01 X20.57353Y11.32026
G01 X20.6135Y11.23576
G01 X20.64499Y11.14775
G01 X20.6677Y11.05707
G01 X20.68141Y10.96461
G01 X20.686Y10.87125
G01 X20.68141Y10.77789
G01 X20.6677Y10.68543
G01 X20.64499Y10.59475
G01 X20.6135Y10.50674
G01 X20.57353Y10.42224
G01 X20.52547Y10.34207
G01 X20.46979Y10.26699
G01 X20.40702Y10.19773
G01 X20.33776Y10.13496
G01 X20.26268Y10.07928
G01 X20.18251Y10.03122
G01 X20.18251Y10.03122
M5
G01 X23.70558Y7.81634
M3
G01 X23.6556Y7.82886
G01 X23.60709Y7.84621
G01 X23.56052Y7.86824
G01 X23.51633Y7.89473
G01 X23.47494Y7.92542
G01 X23.43677Y7.96002
G01 X23.40217Y7.99819
G01 X23.37148Y8.03958
G01 X23.34499Y8.08377
G01 X23.32296Y8.13034
G01 X23.30561Y8.17885
G01 X23.29309Y8.22883
G01 X23.28553Y8.27979
G01 X23.283Y8.33125
G01 X23.28553Y8.38271
G01 X23.29309Y8.43367
G01 X23.30561Y8.48365
G01 X23.32296Y8.53216
G01 X23.34499Y8.57873
G01 X23.37148Y8.62292
G01 X23.40217Y8.66431
G01 X23.43677Y8.70248
G01 X23.47494Y8.73708
G01 X23.51633Y8.76777
G01 X23.56052Y8.79426
G01 X23.60709Y8.81629
G01 X23.6556Y8.83364
G01 X23.70558Y8.84616
G01 X23.75654Y8.85372
G01 X24.258Y8.85625
G01 X24.30946Y8.85372
G01 X24.36042Y8.84616
G01 X24.4104Y8.83364
G01 X24.45891Y8.81629
G01 X24.50548Y8.79426
G01 X24.54967Y8.76777
G01 X24.59106Y8.73708
G01 X24.59749Y8.73125
G01 X27.019Y8.73125
G01 X27.019Y12.29125
G01 X26.55Y12.29125
G01 X26.51079Y12.29318
G01 X26.47196Y12.29894
G01 X26.43389Y12.30847
G01 X26.39693Y12.3217
G01 X26.36144Y12.33848
G01 X26.32777Y12.35866
G01 X26.29624Y12.38205
G01 X26.26716Y12.40841
G01 X25.15631Y13.51925
G01 X24.68149Y13.51925
G01 X24.67506Y13.51342
G01 X24.63367Y13.48273
G01 X24.58948Y13.45624
G01 X24.54291Y13.43421
G01 X24.4944Y13.41686
G01 X24.44442Y13.40434
G01 X24.39346Y13.39678
G01 X23.892Y13.39425
G01 X23.84054Y13.39678
G01 X23.78958Y13.40434
G01 X23.7396Y13.41686
G01 X23.69109Y13.43421
G01 X23.64452Y13.45624
G01 X23.60033Y13.48273
G01 X23.55894Y13.51342
G01 X23.52077Y13.54802
G01 X23.48617Y13.58619
G01 X23.45548Y13.62758
G01 X23.42899Y13.67177
G01 X23.40696Y13.71834
G01 X23.38961Y13.76685
G01 X23.37709Y13.81683
G01 X23.36953Y13.86779
G01 X23.367Y13.91925
G01 X23.36953Y13.97071
G01 X23.37709Y14.02167
G01 X23.38961Y14.07165
G01 X23.40696Y14.12016
G01 X23.42899Y14.16673
G01 X23.45548Y14.21092
G01 X23.48617Y14.25231
G01 X23.52077Y14.29048
G01 X23.55894Y14.32508
G01 X23.60033Y14.35577
G01 X23.64452Y14.38226
G01 X23.69109Y14.40429
G01 X23.7396Y14.42164
G01 X23.78958Y14.43416
G01 X23.84054Y14.44172
G01 X24.342Y14.44425
G01 X24.39346Y14.44172
G01 X24.44442Y14.43416
G01 X24.4944Y14.42164
G01 X24.54291Y14.40429
G01 X24.58948Y14.38226
G01 X24.63367Y14.35577
G01 X24.67506Y14.32508
G01 X24.68149Y14.31925
G01 X25.322Y14.31925
G01 X25.36121Y14.31732
G01 X25.40004Y14.31156
G01 X25.43811Y14.30203
G01 X25.47507Y14.2888
G01 X25.51056Y14.27202
G01 X25.54423Y14.25184
G01 X25.57576Y14.22845
G01 X25.60484Y14.20209
G01 X26.71569Y13.09125
G01 X27.419Y13.09125
G01 X27.67181Y13.09125
G01 X28.89097Y14.3104
G01 X28.87837Y14.36068
G01 X28.86685Y14.43834
G01 X28.863Y14.51675
G01 X28.86685Y14.59516
G01 X28.87837Y14.67282
G01 X28.89745Y14.74898
G01 X28.9239Y14.8229
G01 X28.95746Y14.89387
G01 X28.99782Y14.96121
G01 X29.04459Y15.02426
G01 X29.09731Y15.08244
G01 X29.15549Y15.13516
G01 X29.21854Y15.18193
G01 X29.28588Y15.22229
G01 X29.35685Y15.25585
G01 X29.43077Y15.2823
G01 X29.50693Y15.30138
G01 X29.58459Y15.3129
G01 X29.663Y15.31675
G01 X29.74141Y15.3129
G01 X29.81907Y15.30138
G01 X29.89523Y15.2823
G01 X29.96915Y15.25585
G01 X30.04012Y15.22229
G01 X30.10746Y15.18193
G01 X30.17051Y15.13516
G01 X30.22869Y15.08244
G01 X30.28141Y15.02426
G01 X30.32818Y14.96121
G01 X30.36854Y14.89387
G01 X30.4021Y14.8229
G01 X30.42855Y14.74898
G01 X30.44763Y14.67282
G01 X30.45915Y14.59516
G01 X30.463Y14.51675
G01 X30.45915Y14.43834
G01 X30.44763Y14.36068
G01 X30.42855Y14.28452
G01 X30.4021Y14.2106
G01 X30.36854Y14.13963
G01 X30.32818Y14.07229
G01 X30.28141Y14.00924
G01 X30.22869Y13.95106
G01 X30.17051Y13.89834
G01 X30.10746Y13.85157
G01 X30.04012Y13.81121
G01 X29.96915Y13.77765
G01 X29.89523Y13.7512
G01 X29.81907Y13.73212
G01 X29.74141Y13.7206
G01 X29.663Y13.71675
G01 X29.58459Y13.7206
G01 X29.50693Y13.73212
G01 X29.45665Y13.74472
G01 X28.12034Y12.40841
G01 X28.09126Y12.38205
G01 X28.05973Y12.35866
G01 X28.02606Y12.33848
G01 X27.99057Y12.3217
G01 X27.95361Y12.30847
G01 X27.91554Y12.29894
G01 X27.87671Y12.29318
G01 X27.8375Y12.29125
G01 X27.819Y12.29125
G01 X27.819Y8.49694
G01 X27.97974Y8.33619
G01 X27.9866Y8.33864
G01 X28.03658Y8.35116
G01 X28.08754Y8.35872
G01 X28.139Y8.36125
G01 X28.19046Y8.35872
G01 X28.24142Y8.35116
G01 X28.2914Y8.33864
G01 X28.33991Y8.32129
G01 X28.38648Y8.29926
G01 X28.43067Y8.27277
G01 X28.47206Y8.24208
G01 X28.51023Y8.20748
G01 X28.54483Y8.16931
G01 X28.57552Y8.12792
G01 X28.60201Y8.08373
G01 X28.62404Y8.03716
G01 X28.64139Y7.98865
G01 X28.65391Y7.93867
G01 X28.66147Y7.88771
G01 X28.664Y7.38625
G01 X28.66147Y7.33479
G01 X28.65391Y7.28383
G01 X28.64139Y7.23385
G01 X28.62404Y7.18534
G01 X28.60201Y7.13877
G01 X28.57552Y7.09458
G01 X28.54483Y7.05319
G01 X28.51023Y7.01502
G01 X28.47206Y6.98042
G01 X28.43067Y6.94973
G01 X28.38648Y6.92324
G01 X28.33991Y6.90121
G01 X28.2914Y6.88386
G01 X28.24142Y6.87134
G01 X28.19046Y6.86378
G01 X28.139Y6.86125
G01 X28.08754Y6.86378
G01 X28.03658Y6.87134
G01 X27.9866Y6.88386
G01 X27.93809Y6.90121
G01 X27.89152Y6.92324
G01 X27.84733Y6.94973
G01 X27.80594Y6.98042
G01 X27.76777Y7.01502
G01 X27.73317Y7.05319
G01 X27.70248Y7.09458
G01 X27.67599Y7.13877
G01 X27.65396Y7.18534
G01 X27.63661Y7.23385
G01 X27.62409Y7.28383
G01 X27.61653Y7.33479
G01 X27.61535Y7.56922
G01 X27.25331Y7.93125
G01 X24.59749Y7.93125
G01 X24.59106Y7.92542
G01 X24.54967Y7.89473
G01 X24.50548Y7.86824
G01 X24.45891Y7.84621
G01 X24.4104Y7.82886
G01 X24.36042Y7.81634
G01 X24.30946Y7.80878
G01 X23.808Y7.80625
G01 X23.75654Y7.80878
G01 X23.70558Y7.81634
G01 X23.70558Y7.81634
M5
G01 X28.9239Y11.5811
M3
G01 X28.89745Y11.65502
G01 X28.87837Y11.73118
G01 X28.86685Y11.80884
G01 X28.863Y11.88725
G01 X28.86685Y11.96566
G01 X28.87837Y12.04332
G01 X28.89745Y12.11948
G01 X28.9239Y12.1934
G01 X28.95746Y12.26437
G01 X28.99782Y12.33171
G01 X29.04459Y12.39476
G01 X29.09731Y12.45294
G01 X29.15549Y12.50566
G01 X29.21854Y12.55243
G01 X29.28588Y12.59279
G01 X29.35685Y12.62635
G01 X29.43077Y12.6528
G01 X29.50693Y12.67188
G01 X29.58459Y12.6834
G01 X29.663Y12.68725
G01 X29.74141Y12.6834
G01 X29.81907Y12.67188
G01 X29.89523Y12.6528
G01 X29.96915Y12.62635
G01 X30.04012Y12.59279
G01 X30.10746Y12.55243
G01 X30.17051Y12.50566
G01 X30.22869Y12.45294
G01 X30.28141Y12.39476
G01 X30.32818Y12.33171
G01 X30.36854Y12.26437
G01 X30.4021Y12.1934
G01 X30.42855Y12.11948
G01 X30.44763Y12.04332
G01 X30.45915Y11.96566
G01 X30.463Y11.88725
G01 X30.45915Y11.80884
G01 X30.44763Y11.73118
G01 X30.43503Y11.6809
G01 X31.17459Y10.94134
G01 X31.17459Y10.94134
G01 X31.17459Y10.94134
G01 X33.75612Y8.35982
G01 X33.77846Y8.35872
G01 X33.82942Y8.35116
G01 X33.8794Y8.33864
G01 X33.92791Y8.32129
G01 X33.97448Y8.29926
G01 X34.01867Y8.27277
G01 X34.06006Y8.24208
G01 X34.09823Y8.20748
G01 X34.13283Y8.16931
G01 X34.16352Y8.12792
G01 X34.19001Y8.08373
G01 X34.21204Y8.03716
G01 X34.22939Y7.98865
G01 X34.24191Y7.93867
G01 X34.24947Y7.88771
G01 X34.252Y7.38625
G01 X34.24947Y7.33479
G01 X34.24191Y7.28383
G01 X34.22939Y7.23385
G01 X34.21204Y7.18534
G01 X34.19001Y7.13877
G01 X34.16352Y7.09458
G01 X34.13283Y7.05319
G01 X34.09823Y7.01502
G01 X34.06006Y6.98042
G01 X34.01867Y6.94973
G01 X33.97448Y6.92324
G01 X33.92791Y6.90121
G01 X33.8794Y6.88386
G01 X33.82942Y6.87134
G01 X33.77846Y6.86378
G01 X33.727Y6.86125
G01 X33.67554Y6.86378
G01 X33.62458Y6.87134
G01 X33.5746Y6.88386
G01 X33.52609Y6.90121
G01 X33.47952Y6.92324
G01 X33.43533Y6.94973
G01 X33.39394Y6.98042
G01 X33.35577Y7.01502
G01 X33.32117Y7.05319
G01 X33.29048Y7.09458
G01 X33.26399Y7.13877
G01 X33.24196Y7.18534
G01 X33.22461Y7.23385
G01 X33.21209Y7.28383
G01 X33.20453Y7.33479
G01 X33.20227Y7.78229
G01 X30.89175Y10.09281
G01 X29.809Y9.01006
G01 X29.809Y8.17574
G01 X29.81483Y8.16931
G01 X29.84552Y8.12792
G01 X29.87201Y8.08373
G01 X29.89404Y8.03716
G01 X29.91139Y7.98865
G01 X29.92391Y7.93867
G01 X29.93147Y7.88771
G01 X29.934Y7.38625
G01 X29.93147Y7.33479
G01 X29.92391Y7.28383
G01 X29.91139Y7.23385
G01 X29.89404Y7.18534
G01 X29.87201Y7.13877
G01 X29.84552Y7.09458
G01 X29.81483Y7.05319
G01 X29.78023Y7.01502
G01 X29.74206Y6.98042
G01 X29.70067Y6.94973
G01 X29.65648Y6.92324
G01 X29.60991Y6.90121
G01 X29.5614Y6.88386
G01 X29.51142Y6.87134
G01 X29.46046Y6.86378
G01 X29.409Y6.86125
G01 X29.35754Y6.86378
G01 X29.30658Y6.87134
G01 X29.2566Y6.88386
G01 X29.20809Y6.90121
G01 X29.16152Y6.92324
G01 X29.11733Y6.94973
G01 X29.07594Y6.98042
G01 X29.03777Y7.01502
G01 X29.00317Y7.05319
G01 X28.97248Y7.09458
G01 X28.94599Y7.13877
G01 X28.92396Y7.18534
G01 X28.90661Y7.23385
G01 X28.89409Y7.28383
G01 X28.88653Y7.33479
G01 X28.884Y7.83625
G01 X28.88653Y7.88771
G01 X28.89409Y7.93867
G01 X28.90661Y7.98865
G01 X28.92396Y8.03716
G01 X28.94599Y8.08373
G01 X28.97248Y8.12792
G01 X29.00317Y8.16931
G01 X29.009Y8.17574
G01 X29.009Y9.17575
G01 X29.009Y9.17575
G01 X29.01093Y9.21496
G01 X29.01669Y9.25379
G01 X29.02622Y9.29186
G01 X29.03945Y9.32882
G01 X29.05623Y9.36431
G01 X29.07641Y9.39798
G01 X29.0998Y9.42951
G01 X29.12616Y9.45859
G01 X30.32606Y10.6585
G01 X29.86935Y11.11522
G01 X29.81907Y11.10262
G01 X29.74141Y11.0911
G01 X29.663Y11.08725
G01 X29.58459Y11.0911
G01 X29.50693Y11.10262
G01 X29.43077Y11.1217
G01 X29.35685Y11.14815
G01 X29.28588Y11.18171
G01 X29.21854Y11.22207
G01 X29.15549Y11.26884
G01 X29.09731Y11.32156
G01 X29.04459Y11.37974
G01 X28.99782Y11.44279
G01 X28.95746Y11.51013
G01 X28.9239Y11.5811
G01 X28.9239Y11.5811
M5
G01 X35.37277Y10.14555
M3
G01 X35.38389Y10.14953
G01 X35.42196Y10.15906
G01 X35.42196Y10.15906
G01 X35.46079Y10.16482
G01 X35.49356Y10.16643
G01 X35.5Y10.16675
G01 X35.5Y10.16675
G01 X38.0Y10.16675
G01 X38.03921Y10.16482
G01 X38.07804Y10.15906
G01 X38.11611Y10.14953
G01 X38.15307Y10.1363
G01 X38.18856Y10.11952
G01 X38.22223Y10.09934
G01 X38.25376Y10.07595
G01 X38.28284Y10.04959
G01 X38.55663Y9.77581
G01 X38.57477Y9.7823
G01 X38.65093Y9.80138
G01 X38.72859Y9.8129
G01 X38.807Y9.81675
G01 X38.88541Y9.8129
G01 X38.96307Y9.80138
G01 X39.03923Y9.7823
G01 X39.11315Y9.75585
G01 X39.18412Y9.72229
G01 X39.25146Y9.68193
G01 X39.31451Y9.63516
G01 X39.37269Y9.58244
G01 X39.42541Y9.52426
G01 X39.47218Y9.46121
G01 X39.51254Y9.39387
G01 X39.5461Y9.3229
G01 X39.57255Y9.24898
G01 X39.59163Y9.17282
G01 X39.60315Y9.09516
G01 X39.607Y9.01675
G01 X39.60315Y8.93834
G01 X39.59163Y8.86068
G01 X39.57255Y8.78452
G01 X39.5461Y8.7106
G01 X39.51254Y8.63963
G01 X39.47218Y8.57229
G01 X39.42541Y8.50924
G01 X39.37269Y8.45106
G01 X39.31451Y8.39834
G01 X39.25146Y8.35157
G01 X39.18412Y8.31121
G01 X39.11315Y8.27765
G01 X39.03923Y8.2512
G01 X38.96307Y8.23212
G01 X38.88541Y8.2206
G01 X38.807Y8.21675
G01 X38.72859Y8.2206
G01 X38.65093Y8.23212
G01 X38.57477Y8.2512
G01 X38.50085Y8.27765
G01 X38.42988Y8.31121
G01 X38.36254Y8.35157
G01 X38.29949Y8.39834
G01 X38.24131Y8.45106
G01 X38.18859Y8.50924
G01 X38.14182Y8.57229
G01 X38.10146Y8.63963
G01 X38.0679Y8.7106
G01 X38.04145Y8.78452
G01 X38.02237Y8.86068
G01 X38.01085Y8.93834
G01 X38.007Y9.01675
G01 X38.01085Y9.09516
G01 X38.02237Y9.17282
G01 X38.02355Y9.17752
G01 X37.83431Y9.36675
G01 X35.66569Y9.36675
G01 X35.397Y9.09806
G01 X35.397Y8.17574
G01 X35.40283Y8.16931
G01 X35.43352Y8.12792
G01 X35.46001Y8.08373
G01 X35.48204Y8.03716
G01 X35.49939Y7.98865
G01 X35.51191Y7.93867
G01 X35.51947Y7.88771
G01 X35.522Y7.38625
G01 X35.51947Y7.33479
G01 X35.51191Y7.28383
G01 X35.49939Y7.23385
G01 X35.48204Y7.18534
G01 X35.46001Y7.13877
G01 X35.43352Y7.09458
G01 X35.40283Y7.05319
G01 X35.36823Y7.01502
G01 X35.33006Y6.98042
G01 X35.28867Y6.94973
G01 X35.24448Y6.92324
G01 X35.19791Y6.90121
G01 X35.1494Y6.88386
G01 X35.09942Y6.87134
G01 X35.04846Y6.86378
G01 X34.997Y6.86125
G01 X34.94554Y6.86378
G01 X34.89458Y6.87134
G01 X34.8446Y6.88386
G01 X34.79609Y6.90121
G01 X34.74952Y6.92324
G01 X34.70533Y6.94973
G01 X34.66394Y6.98042
G01 X34.62577Y7.01502
G01 X34.59117Y7.05319
G01 X34.56048Y7.09458
G01 X34.53399Y7.13877
G01 X34.51196Y7.18534
G01 X34.49461Y7.23385
G01 X34.48209Y7.28383
G01 X34.47453Y7.33479
G01 X34.472Y7.83625
G01 X34.47453Y7.88771
G01 X34.48209Y7.93867
G01 X34.49461Y7.98865
G01 X34.51196Y8.03716
G01 X34.53399Y8.08373
G01 X34.56048Y8.12792
G01 X34.59117Y8.16931
G01 X34.597Y8.17574
G01 X34.597Y9.26375
G01 X34.597Y9.26375
G01 X34.59707Y9.26521
G01 X34.59893Y9.30296
G01 X34.60402Y9.3373
G01 X34.60469Y9.34179
G01 X34.61422Y9.37986
G01 X34.61777Y9.38978
G01 X34.62745Y9.41682
G01 X34.63828Y9.43973
G01 X34.64423Y9.45231
G01 X34.6533Y9.46745
G01 X34.66441Y9.48598
G01 X34.6878Y9.51751
G01 X34.71416Y9.54659
G01 X35.21716Y10.04959
G01 X35.2302Y10.06141
G01 X35.24624Y10.07595
G01 X35.26749Y10.09171
G01 X35.27777Y10.09934
G01 X35.31144Y10.11952
G01 X35.32818Y10.12744
G01 X35.34693Y10.1363
G01 X35.37277Y10.14555
G01 X35.37277Y10.14555
M5
G01 X1.99513Y1.95024
M3
G01 X1.99511Y1.95024
G01 X1.9951Y1.95024
G01 X1.99269Y1.9506
G01 X1.99028Y1.95095
G01 X1.99026Y1.95096
G01 X1.99025Y1.95096
G01 X1.98788Y1.95155
G01 X1.98552Y1.95214
G01 X1.9855Y1.95215
G01 X1.98549Y1.95215
G01 X1.98319Y1.95297
G01 X1.98089Y1.95379
G01 X1.98088Y1.9538
G01 X1.98087Y1.95381
G01 X1.97866Y1.95485
G01 X1.97646Y1.95589
G01 X1.97644Y1.9559
G01 X1.97643Y1.9559
G01 X1.97434Y1.95716
G01 X1.97225Y1.95841
G01 X1.97223Y1.95842
G01 X1.97222Y1.95843
G01 X1.97026Y1.95988
G01 X1.9683Y1.96133
G01 X1.96829Y1.96134
G01 X1.96828Y1.96135
G01 X1.96647Y1.96299
G01 X1.96467Y1.96462
G01 X1.96466Y1.96463
G01 X1.96464Y1.96464
G01 X1.96301Y1.96645
G01 X1.96137Y1.96826
G01 X1.96136Y1.96827
G01 X1.96135Y1.96828
G01 X1.9599Y1.97024
G01 X1.95844Y1.9722
G01 X1.95844Y1.97221
G01 X1.95843Y1.97222
G01 X1.95717Y1.97431
G01 X1.95592Y1.9764
G01 X1.95591Y1.97642
G01 X1.9559Y1.97643
G01 X1.95486Y1.97863
G01 X1.95382Y1.98084
G01 X1.95381Y1.98085
G01 X1.95381Y1.98087
G01 X1.95298Y1.98316
G01 X1.95216Y1.98546
G01 X1.95216Y1.98547
G01 X1.95215Y1.98549
G01 X1.95156Y1.98785
G01 X1.95097Y1.99022
G01 X1.95096Y1.99023
G01 X1.95096Y1.99025
G01 X1.9506Y1.99266
G01 X1.95024Y1.99507
G01 X1.95024Y1.99508
G01 X1.95024Y1.9951
G01 X1.95012Y1.99753
G01 X1.95Y1.99997
G01 X1.95Y1.99998
G01 X1.95Y2.0
G01 X1.95Y17.98325
G01 X1.95012Y17.98569
G01 X1.95024Y17.98812
G01 X1.95024Y17.98814
G01 X1.95024Y17.98815
G01 X1.9506Y17.99056
G01 X1.95095Y17.99297
G01 X1.95096Y17.99299
G01 X1.95096Y17.993
G01 X1.95155Y17.99537
G01 X1.95214Y17.99773
G01 X1.95215Y17.99775
G01 X1.95215Y17.99776
G01 X1.95297Y18.00006
G01 X1.95379Y18.00236
G01 X1.9538Y18.00237
G01 X1.95381Y18.00238
G01 X1.95485Y18.00459
G01 X1.95589Y18.00679
G01 X1.9559Y18.00681
G01 X1.9559Y18.00682
G01 X1.95716Y18.00891
G01 X1.95841Y18.011
G01 X1.95842Y18.01102
G01 X1.95843Y18.01103
G01 X1.95988Y18.01299
G01 X1.96133Y18.01495
G01 X1.96134Y18.01496
G01 X1.96135Y18.01497
G01 X1.96299Y18.01678
G01 X1.96462Y18.01858
G01 X1.96463Y18.01859
G01 X1.96464Y18.01861
G01 X1.96645Y18.02024
G01 X1.96826Y18.02188
G01 X1.96827Y18.02189
G01 X1.96828Y18.0219
G01 X1.97024Y18.02335
G01 X1.9722Y18.02481
G01 X1.97221Y18.02481
G01 X1.97222Y18.02482
G01 X1.97431Y18.02608
G01 X1.9764Y18.02733
G01 X1.97642Y18.02734
G01 X1.97643Y18.02735
G01 X1.97863Y18.02839
G01 X1.98084Y18.02943
G01 X1.98085Y18.02944
G01 X1.98087Y18.02944
G01 X1.98316Y18.03027
G01 X1.98546Y18.03109
G01 X1.98547Y18.03109
G01 X1.98549Y18.0311
G01 X1.98785Y18.03169
G01 X1.99022Y18.03228
G01 X1.99023Y18.03229
G01 X1.99025Y18.03229
G01 X1.99266Y18.03265
G01 X1.99507Y18.03301
G01 X1.99508Y18.03301
G01 X1.9951Y18.03301
G01 X1.99753Y18.03313
G01 X1.99997Y18.03325
G01 X56.24997Y18.06675
G01 X56.24998Y18.06675
G01 X56.25Y18.06675
G01 X56.25244Y18.06663
G01 X56.25487Y18.06651
G01 X56.25489Y18.06651
G01 X56.2549Y18.06651
G01 X56.25731Y18.06615
G01 X56.25972Y18.0658
G01 X56.25974Y18.06579
G01 X56.25975Y18.06579
G01 X56.26212Y18.0652
G01 X56.26448Y18.06461
G01 X56.2645Y18.0646
G01 X56.26451Y18.0646
G01 X56.26681Y18.06378
G01 X56.26911Y18.06296
G01 X56.26912Y18.06295
G01 X56.26913Y18.06294
G01 X56.27134Y18.0619
G01 X56.27354Y18.06086
G01 X56.27356Y18.06085
G01 X56.27357Y18.06085
G01 X56.27566Y18.05959
G01 X56.27775Y18.05834
G01 X56.27777Y18.05833
G01 X56.27778Y18.05832
G01 X56.27974Y18.05687
G01 X56.2817Y18.05542
G01 X56.28171Y18.05541
G01 X56.28172Y18.0554
G01 X56.28353Y18.05376
G01 X56.28533Y18.05213
G01 X56.28534Y18.05212
G01 X56.28536Y18.05211
G01 X56.28699Y18.0503
G01 X56.28863Y18.04849
G01 X56.28864Y18.04848
G01 X56.28865Y18.04847
G01 X56.2901Y18.04651
G01 X56.29156Y18.04455
G01 X56.29156Y18.04454
G01 X56.29157Y18.04453
G01 X56.29283Y18.04244
G01 X56.29408Y18.04035
G01 X56.29409Y18.04033
G01 X56.2941Y18.04032
G01 X56.29514Y18.03812
G01 X56.29618Y18.03591
G01 X56.29619Y18.0359
G01 X56.29619Y18.03588
G01 X56.29702Y18.03359
G01 X56.29784Y18.03129
G01 X56.29784Y18.03128
G01 X56.29785Y18.03126
G01 X56.29844Y18.0289
G01 X56.29903Y18.02653
G01 X56.29904Y18.02652
G01 X56.29904Y18.0265
G01 X56.2994Y18.02409
G01 X56.29976Y18.02168
G01 X56.29976Y18.02167
G01 X56.29976Y18.02165
G01 X56.29988Y18.01922
G01 X56.3Y18.01678
G01 X56.3Y18.01677
G01 X56.3Y18.01675
G01 X56.3Y2.0335
G01 X56.29988Y2.03106
G01 X56.29976Y2.02863
G01 X56.29976Y2.02861
G01 X56.29976Y2.0286
G01 X56.2994Y2.02619
G01 X56.29905Y2.02378
G01 X56.29904Y2.02376
G01 X56.29904Y2.02375
G01 X56.29845Y2.02138
G01 X56.29786Y2.01902
G01 X56.29785Y2.019
G01 X56.29785Y2.01899
G01 X56.29703Y2.01669
G01 X56.29621Y2.01439
G01 X56.2962Y2.01438
G01 X56.29619Y2.01437
G01 X56.29515Y2.01216
G01 X56.29411Y2.00996
G01 X56.2941Y2.00994
G01 X56.2941Y2.00993
G01 X56.29284Y2.00784
G01 X56.29159Y2.00575
G01 X56.29158Y2.00573
G01 X56.29157Y2.00572
G01 X56.29012Y2.00376
G01 X56.28867Y2.0018
G01 X56.28866Y2.00179
G01 X56.28865Y2.00178
G01 X56.28701Y1.99997
G01 X56.28538Y1.99817
G01 X56.28537Y1.99816
G01 X56.28536Y1.99814
G01 X56.28355Y1.99651
G01 X56.28174Y1.99487
G01 X56.28173Y1.99486
G01 X56.28172Y1.99485
G01 X56.27976Y1.9934
G01 X56.2778Y1.99194
G01 X56.27779Y1.99194
G01 X56.27778Y1.99193
G01 X56.27569Y1.99067
G01 X56.2736Y1.98942
G01 X56.27358Y1.98941
G01 X56.27357Y1.9894
G01 X56.27137Y1.98836
G01 X56.26916Y1.98732
G01 X56.26915Y1.98731
G01 X56.26913Y1.98731
G01 X56.26684Y1.98648
G01 X56.26454Y1.98566
G01 X56.26453Y1.98566
G01 X56.26451Y1.98565
G01 X56.26215Y1.98506
G01 X56.25978Y1.98447
G01 X56.25977Y1.98446
G01 X56.25975Y1.98446
G01 X56.25734Y1.9841
G01 X56.25493Y1.98374
G01 X56.25492Y1.98374
G01 X56.2549Y1.98374
G01 X56.25247Y1.98362
G01 X56.25003Y1.9835
G01 X2.00003Y1.95
G01 X2.00002Y1.95
G01 X2.0Y1.95
G01 X1.99756Y1.95012
G01 X1.99513Y1.95024
G01 X1.99513Y1.95024
M5

M5 ; Disable End-Effector Signal

; Returning the Deactivating Tool-1
C0 ; PWM Tool select demultiplexer to select tool zero which is the empty tool slot in multiplexers

; Machine deinitialization Sequence... 

G00X0.0Y0.0Z0.0
B0 ; Turn Machine OFF
