;FLAVOR:Marlin
;TIME:4284
;Filament used: 2.77007m
;Layer height: 0.2
;MINX:136.908
;MINY:111.566
;MINZ:0.2
;MAXX:170.508
;MAXY:174.166
;MAXZ:24
;Generated with Cura_SteamEngine 4.13.1
M140 S65
M105
M190 S65
M104 S210
M105
M109 S210
M82 ;absolute extrusion mode
M201 X500.00 Y500.00 Z100.00 E5000.00 ;Setup machine max acceleration
M203 X500.00 Y500.00 Z10.00 E50.00 ;Setup machine max feedrate
M204 P500.00 R1000.00 T500.00 ;Setup Print/Retract/Travel acceleration
M205 X8.00 Y8.00 Z0.40 E5.00 ;Setup Jerk
M220 S100 ;Reset Feedrate
M221 S100 ;Reset Flowrate

G28 ;Home

G92 E0 ;Reset Extruder
G1 Z2.0 F3000 ;Move Z Axis up
G1 X10.1 Y20 Z0.28 F5000.0 ;Move to start position
G1 X10.1 Y200.0 Z0.28 F1500.0 E15 ;Draw the first line
G1 X10.4 Y200.0 Z0.28 F5000.0 ;Move to side a little
G1 X10.4 Y20 Z0.28 F1500.0 E30 ;Draw the second line
G92 E0 ;Reset Extruder
G1 Z2.0 F3000 ;Move Z Axis up

G92 E0
G92 E0
G1 F2700 E-5
;LAYER_COUNT:120
;LAYER:0
M107
M204 S500
M205 X8 Y8
G0 F6000 X138.788 Y114.288 Z0.2
;TYPE:SKIRT
G1 F2700 E0
G1 F1200 X139.331 Y113.715 E0.02626
G1 X139.93 Y113.2 E0.05253
G1 X140.578 Y112.749 E0.07879
G1 X141.269 Y112.365 E0.10508
G1 X141.994 Y112.053 E0.13133
G1 X142.747 Y111.816 E0.15759
G1 X143.521 Y111.657 E0.18387
G1 X144.306 Y111.576 E0.21012
G1 X144.708 Y111.566 E0.22349
G1 X162.708 Y111.566 E0.82218
G1 X163.497 Y111.606 E0.84845
G1 X164.277 Y111.725 E0.87469
G1 X165.042 Y111.923 E0.90098
G1 X165.782 Y112.197 E0.92722
G1 X166.491 Y112.545 E0.95349
G1 X167.162 Y112.963 E0.97979
G1 X167.786 Y113.446 E1.00603
G1 X168.359 Y113.989 E1.03229
G1 X168.874 Y114.588 E1.05856
G1 X169.325 Y115.236 E1.08482
G1 X169.709 Y115.927 E1.11111
G1 X170.021 Y116.652 E1.13736
G1 X170.258 Y117.405 E1.16362
G1 X170.417 Y118.179 E1.1899
G1 X170.498 Y118.964 E1.21615
G1 X170.508 Y119.366 E1.22952
G1 X170.508 Y166.366 E2.79275
G1 X170.468 Y167.155 E2.81903
G1 X170.349 Y167.935 E2.84527
G1 X170.151 Y168.7 E2.87155
G1 X169.877 Y169.44 E2.8978
G1 X169.529 Y170.149 E2.92407
G1 X169.111 Y170.82 E2.95036
G1 X168.628 Y171.444 E2.9766
G1 X168.085 Y172.017 E3.00286
G1 X167.486 Y172.532 E3.02913
G1 X166.838 Y172.983 E3.05539
G1 X166.147 Y173.367 E3.08169
G1 X165.422 Y173.679 E3.10794
G1 X164.669 Y173.916 E3.13419
G1 X163.895 Y174.075 E3.16048
G1 X163.11 Y174.156 E3.18672
G1 X162.708 Y174.166 E3.2001
G1 X144.708 Y174.166 E3.79878
G1 X143.919 Y174.126 E3.82506
G1 X143.139 Y174.007 E3.8513
G1 X142.374 Y173.809 E3.87758
G1 X141.634 Y173.535 E3.90383
G1 X140.925 Y173.187 E3.9301
G1 X140.254 Y172.769 E3.95639
G1 X139.63 Y172.286 E3.98264
G1 X139.057 Y171.743 E4.00889
G1 X138.542 Y171.144 E4.03517
G1 X138.091 Y170.496 E4.06142
G1 X137.707 Y169.805 E4.08772
G1 X137.395 Y169.08 E4.11397
G1 X137.158 Y168.327 E4.14022
G1 X136.999 Y167.553 E4.16651
G1 X136.918 Y166.768 E4.19275
G1 X136.908 Y166.366 E4.20613
G1 X136.908 Y119.366 E5.76935
G1 X136.948 Y118.577 E5.79563
G1 X137.067 Y117.797 E5.82187
G1 X137.265 Y117.032 E5.84816
G1 X137.539 Y116.292 E5.8744
G1 X137.887 Y115.583 E5.90067
G1 X138.305 Y114.912 E5.92696
G1 X138.788 Y114.288 E5.95321
G0 F6000 X139.183 Y114.443
G1 F1200 X139.724 Y113.896 E5.9788
G1 X140.319 Y113.408 E6.00439
G1 X140.961 Y112.985 E6.02996
G1 X141.644 Y112.63 E6.05557
G1 X142.359 Y112.349 E6.08112
G1 X143.101 Y112.143 E6.10673
G1 X143.859 Y112.015 E6.1323
G1 X144.708 Y111.966 E6.16058
G1 X162.708 Y111.966 E6.75927
G1 X163.476 Y112.006 E6.78484
G1 X164.236 Y112.125 E6.81043
G1 X164.979 Y112.323 E6.836
G1 X165.698 Y112.597 E6.8616
G1 X166.384 Y112.944 E6.88717
G1 X167.031 Y113.36 E6.91275
G1 X167.631 Y113.841 E6.93833
G1 X168.178 Y114.382 E6.96391
G1 X168.666 Y114.977 E6.98951
G1 X169.089 Y115.619 E7.01508
G1 X169.444 Y116.302 E7.04068
G1 X169.725 Y117.017 E7.06623
G1 X169.931 Y117.759 E7.09185
G1 X170.059 Y118.517 E7.11741
G1 X170.108 Y119.366 E7.1457
G1 X170.108 Y166.366 E8.70893
G1 X170.068 Y167.134 E8.7345
G1 X169.949 Y167.894 E8.76009
G1 X169.751 Y168.637 E8.78566
G1 X169.477 Y169.356 E8.81126
G1 X169.13 Y170.042 E8.83683
G1 X168.714 Y170.689 E8.86241
G1 X168.233 Y171.289 E8.88799
G1 X167.692 Y171.836 E8.91357
G1 X167.097 Y172.324 E8.93917
G1 X166.455 Y172.747 E8.96474
G1 X165.772 Y173.102 E8.99034
G1 X165.057 Y173.383 E9.01589
G1 X164.315 Y173.589 E9.04151
G1 X163.557 Y173.717 E9.06707
G1 X162.708 Y173.766 E9.09536
G1 X144.708 Y173.766 E9.69404
G1 X143.94 Y173.726 E9.71962
G1 X143.18 Y173.607 E9.74521
G1 X142.437 Y173.409 E9.77078
G1 X141.718 Y173.135 E9.79637
G1 X141.032 Y172.788 E9.82194
G1 X140.385 Y172.372 E9.84752
G1 X139.785 Y171.891 E9.8731
G1 X139.238 Y171.35 E9.89869
G1 X138.75 Y170.755 E9.92428
G1 X138.327 Y170.113 E9.94986
G1 X137.972 Y169.43 E9.97546
G1 X137.691 Y168.715 E10.00101
G1 X137.485 Y167.973 E10.02662
G1 X137.357 Y167.215 E10.05219
G1 X137.308 Y166.366 E10.08048
G1 X137.308 Y119.366 E11.6437
G1 X137.348 Y118.598 E11.66928
G1 X137.467 Y117.838 E11.69487
G1 X137.665 Y117.095 E11.72044
G1 X137.939 Y116.376 E11.74603
G1 X138.286 Y115.69 E11.7716
G1 X138.702 Y115.043 E11.79718
G1 X139.183 Y114.443 E11.82276
G0 F6000 X139.579 Y114.603
G1 F1200 X140.116 Y114.082 E11.84765
G1 X140.706 Y113.623 E11.87251
G1 X141.342 Y113.228 E11.89741
G1 X142.016 Y112.904 E11.92228
G1 X142.721 Y112.654 E11.94716
G1 X143.449 Y112.48 E11.97206
G1 X144.191 Y112.385 E11.99694
G1 X144.708 Y112.366 E12.01415
G1 X162.708 Y112.366 E12.61283
G1 X163.455 Y112.406 E12.63771
G1 X164.193 Y112.525 E12.66257
G1 X164.915 Y112.723 E12.68747
G1 X165.611 Y112.996 E12.71234
G1 X166.274 Y113.343 E12.73723
G1 X166.897 Y113.758 E12.76213
G1 X167.471 Y114.237 E12.78699
G1 X167.992 Y114.774 E12.81188
G1 X168.451 Y115.364 E12.83674
G1 X168.846 Y116 E12.86164
G1 X169.17 Y116.674 E12.88651
G1 X169.42 Y117.379 E12.91139
G1 X169.594 Y118.107 E12.93629
G1 X169.689 Y118.849 E12.96117
G1 X169.708 Y119.366 E12.97838
G1 X169.708 Y166.366 E14.5416
G1 X169.668 Y167.113 E14.56648
G1 X169.549 Y167.851 E14.59135
G1 X169.351 Y168.573 E14.61625
G1 X169.078 Y169.269 E14.64111
G1 X168.731 Y169.932 E14.666
G1 X168.316 Y170.555 E14.6909
G1 X167.837 Y171.129 E14.71576
G1 X167.3 Y171.65 E14.74065
G1 X166.71 Y172.109 E14.76551
G1 X166.074 Y172.504 E14.79041
G1 X165.4 Y172.828 E14.81529
G1 X164.695 Y173.078 E14.84017
G1 X163.967 Y173.252 E14.86506
G1 X163.225 Y173.347 E14.88994
G1 X162.708 Y173.366 E14.90715
G1 X144.708 Y173.366 E15.50583
G1 X143.961 Y173.326 E15.53071
G1 X143.223 Y173.207 E15.55557
G1 X142.501 Y173.009 E15.58048
G1 X141.805 Y172.736 E15.60534
G1 X141.142 Y172.389 E15.63023
G1 X140.519 Y171.974 E15.65513
G1 X139.945 Y171.495 E15.67999
G1 X139.424 Y170.958 E15.70488
G1 X138.965 Y170.368 E15.72974
G1 X138.57 Y169.732 E15.75464
G1 X138.246 Y169.058 E15.77952
G1 X137.996 Y168.353 E15.80439
G1 X137.822 Y167.625 E15.82929
G1 X137.727 Y166.883 E15.85417
G1 X137.708 Y166.366 E15.87138
G1 X137.708 Y119.366 E17.4346
G1 X137.748 Y118.619 E17.45948
G1 X137.867 Y117.881 E17.48435
G1 X138.065 Y117.159 E17.50925
G1 X138.338 Y116.463 E17.53411
G1 X138.685 Y115.8 E17.559
G1 X139.1 Y115.177 E17.5839
G1 X139.579 Y114.603 E17.60877
G0 F6000 X139.497 Y115.316
G1 F1200 X139.973 Y114.768 E17.63291
G1 X140.507 Y114.275 E17.65708
G1 X141.092 Y113.845 E17.68123
G1 X141.721 Y113.481 E17.7054
G1 X142.386 Y113.188 E17.72957
G1 X143.079 Y112.97 E17.75373
G1 X143.791 Y112.83 E17.77787
G1 X144.708 Y112.766 E17.80844
G1 X162.708 Y112.766 E18.40712
G1 X163.433 Y112.806 E18.43127
G1 X164.15 Y112.925 E18.45545
G1 X164.849 Y113.123 E18.47961
G1 X165.522 Y113.396 E18.50377
G1 X166.161 Y113.741 E18.52792
G1 X166.758 Y114.155 E18.55208
G1 X167.306 Y114.631 E18.57623
G1 X167.799 Y115.165 E18.6004
G1 X168.229 Y115.75 E18.62455
G1 X168.593 Y116.379 E18.64872
G1 X168.886 Y117.044 E18.67289
G1 X169.104 Y117.737 E18.69705
G1 X169.244 Y118.449 E18.72119
G1 X169.308 Y119.366 E18.75176
G1 X169.308 Y166.366 E20.31499
G1 X169.268 Y167.091 E20.33914
G1 X169.149 Y167.808 E20.36331
G1 X168.951 Y168.507 E20.38747
G1 X168.678 Y169.18 E20.41163
G1 X168.333 Y169.819 E20.43578
G1 X167.919 Y170.416 E20.45994
G1 X167.443 Y170.964 E20.48409
G1 X166.909 Y171.457 E20.50826
G1 X166.324 Y171.887 E20.53241
G1 X165.695 Y172.251 E20.55658
G1 X165.03 Y172.544 E20.58075
G1 X164.337 Y172.762 E20.60491
G1 X163.625 Y172.902 E20.62905
G1 X162.708 Y172.966 E20.65962
G1 X144.708 Y172.966 E21.2583
G1 X143.983 Y172.926 E21.28245
G1 X143.266 Y172.807 E21.30663
G1 X142.567 Y172.609 E21.33079
G1 X141.894 Y172.336 E21.35495
G1 X141.255 Y171.991 E21.3791
G1 X140.658 Y171.577 E21.40326
G1 X140.11 Y171.101 E21.4274
G1 X139.617 Y170.567 E21.45158
G1 X139.187 Y169.982 E21.47573
G1 X138.823 Y169.353 E21.4999
G1 X138.53 Y168.688 E21.52407
G1 X138.312 Y167.995 E21.54823
G1 X138.172 Y167.283 E21.57236
G1 X138.108 Y166.366 E21.60294
G1 X138.108 Y119.366 E23.16616
G1 X138.148 Y118.641 E23.19031
G1 X138.267 Y117.924 E23.21449
G1 X138.465 Y117.225 E23.23865
G1 X138.738 Y116.552 E23.26281
G1 X139.083 Y115.913 E23.28696
G1 X139.497 Y115.316 E23.31112
G0 F6000 X139.893 Y115.46
G1 F1200 X140.367 Y114.939 E23.33455
G1 X140.897 Y114.475 E23.35798
G1 X141.476 Y114.075 E23.38139
G1 X142.097 Y113.743 E23.40481
G1 X142.751 Y113.483 E23.42821
G1 X143.431 Y113.299 E23.45164
G1 X144.127 Y113.193 E23.47506
G1 X144.708 Y113.166 E23.49441
G1 X162.708 Y113.166 E24.09309
G1 X163.411 Y113.206 E24.11651
G1 X164.105 Y113.325 E24.13993
G1 X164.78 Y113.523 E24.16332
G1 X165.429 Y113.795 E24.18673
G1 X166.043 Y114.14 E24.21015
G1 X166.614 Y114.551 E24.23355
G1 X167.135 Y115.025 E24.25698
G1 X167.599 Y115.555 E24.28041
G1 X167.999 Y116.134 E24.30382
G1 X168.331 Y116.755 E24.32724
G1 X168.591 Y117.409 E24.35064
G1 X168.775 Y118.089 E24.37407
G1 X168.881 Y118.785 E24.39749
G1 X168.908 Y119.366 E24.41684
G1 X168.908 Y166.366 E25.98006
G1 X168.868 Y167.069 E26.00348
G1 X168.749 Y167.763 E26.0269
G1 X168.551 Y168.438 E26.0503
G1 X168.279 Y169.087 E26.0737
G1 X167.934 Y169.701 E26.09713
G1 X167.523 Y170.272 E26.12053
G1 X167.049 Y170.793 E26.14395
G1 X166.519 Y171.257 E26.16738
G1 X165.94 Y171.657 E26.19079
G1 X165.319 Y171.989 E26.21421
G1 X164.665 Y172.249 E26.23762
G1 X163.985 Y172.433 E26.26105
G1 X163.289 Y172.539 E26.28446
G1 X162.708 Y172.566 E26.30381
G1 X144.708 Y172.566 E26.90249
G1 X144.005 Y172.526 E26.92591
G1 X143.311 Y172.407 E26.94933
G1 X142.636 Y172.209 E26.97273
G1 X141.987 Y171.937 E26.99613
G1 X141.373 Y171.592 E27.01956
G1 X140.802 Y171.181 E27.04296
G1 X140.281 Y170.707 E27.06638
G1 X139.817 Y170.177 E27.08981
G1 X139.417 Y169.598 E27.11322
G1 X139.085 Y168.977 E27.13664
G1 X138.825 Y168.323 E27.16005
G1 X138.641 Y167.643 E27.18348
G1 X138.535 Y166.947 E27.20689
G1 X138.508 Y166.366 E27.22624
G1 X138.508 Y119.366 E28.78947
G1 X138.548 Y118.663 E28.81289
G1 X138.667 Y117.969 E28.8363
G1 X138.865 Y117.294 E28.8597
G1 X139.137 Y116.645 E28.88311
G1 X139.482 Y116.031 E28.90653
G1 X139.893 Y115.46 E28.92993
G0 F6000 X140.29 Y115.608
G1 F1200 X140.761 Y115.117 E28.95256
G1 X141.286 Y114.683 E28.97522
G1 X141.858 Y114.314 E28.99786
G1 X142.47 Y114.015 E29.02051
G1 X143.112 Y113.79 E29.04314
G1 X143.777 Y113.641 E29.0658
G1 X144.708 Y113.566 E29.09687
G1 X162.708 Y113.566 E29.69555
G1 X163.388 Y113.606 E29.71821
G1 X164.058 Y113.725 E29.74084
G1 X164.71 Y113.922 E29.76349
G1 X165.334 Y114.194 E29.78613
G1 X165.922 Y114.538 E29.80879
G1 X166.466 Y114.948 E29.83145
G1 X166.957 Y115.419 E29.85408
G1 X167.391 Y115.944 E29.87673
G1 X167.76 Y116.516 E29.89937
G1 X168.059 Y117.128 E29.92203
G1 X168.284 Y117.77 E29.94466
G1 X168.433 Y118.435 E29.96732
G1 X168.508 Y119.366 E29.99839
G1 X168.508 Y166.366 E31.56161
G1 X168.468 Y167.046 E31.58427
G1 X168.349 Y167.716 E31.6069
G1 X168.152 Y168.368 E31.62956
G1 X167.88 Y168.992 E31.6522
G1 X167.536 Y169.58 E31.67485
G1 X167.126 Y170.124 E31.69751
G1 X166.655 Y170.615 E31.72014
G1 X166.13 Y171.049 E31.7428
G1 X165.558 Y171.418 E31.76544
G1 X164.946 Y171.717 E31.78809
G1 X164.304 Y171.942 E31.81072
G1 X163.639 Y172.091 E31.83338
G1 X162.708 Y172.166 E31.86445
G1 X144.708 Y172.166 E32.46313
G1 X144.028 Y172.126 E32.48579
G1 X143.358 Y172.007 E32.50842
G1 X142.706 Y171.81 E32.53108
G1 X142.082 Y171.538 E32.55372
G1 X141.494 Y171.194 E32.57637
G1 X140.95 Y170.784 E32.59903
G1 X140.459 Y170.313 E32.62166
G1 X140.025 Y169.788 E32.64432
G1 X139.656 Y169.216 E32.66696
G1 X139.357 Y168.604 E32.68961
G1 X139.132 Y167.962 E32.71224
G1 X138.983 Y167.297 E32.7349
G1 X138.908 Y166.366 E32.76597
G1 X138.908 Y119.366 E34.32919
G1 X138.948 Y118.686 E34.35185
G1 X139.067 Y118.016 E34.37448
G1 X139.264 Y117.364 E34.39714
G1 X139.536 Y116.74 E34.41978
G1 X139.88 Y116.152 E34.44244
G1 X140.29 Y115.608 E34.46509
G0 F6000 X140.686 Y115.763
G1 F1200 X141.153 Y115.301 E34.48694
G1 X141.673 Y114.9 E34.50878
G1 X142.237 Y114.564 E34.53062
G1 X142.839 Y114.3 E34.55248
G1 X143.468 Y114.11 E34.57434
G1 X144.115 Y113.999 E34.59617
G1 X144.708 Y113.966 E34.61592
G1 X162.708 Y113.966 E35.2146
G1 X163.364 Y114.006 E35.23646
G1 X164.01 Y114.125 E35.25831
G1 X164.637 Y114.322 E35.28017
G1 X165.235 Y114.594 E35.30202
G1 X165.796 Y114.936 E35.32387
G1 X166.311 Y115.344 E35.34573
G1 X166.773 Y115.811 E35.36758
G1 X167.174 Y116.331 E35.38942
G1 X167.51 Y116.895 E35.41125
G1 X167.774 Y117.497 E35.43312
G1 X167.964 Y118.126 E35.45497
G1 X168.075 Y118.773 E35.4768
G1 X168.108 Y119.366 E35.49656
G1 X168.108 Y166.366 E37.05978
G1 X168.068 Y167.022 E37.08164
G1 X167.949 Y167.668 E37.10349
G1 X167.752 Y168.295 E37.12535
G1 X167.48 Y168.893 E37.1472
G1 X167.138 Y169.454 E37.16905
G1 X166.73 Y169.969 E37.19091
G1 X166.263 Y170.431 E37.21275
G1 X165.743 Y170.832 E37.23459
G1 X165.179 Y171.168 E37.25643
G1 X164.577 Y171.432 E37.27829
G1 X163.948 Y171.622 E37.30015
G1 X163.301 Y171.733 E37.32198
G1 X162.708 Y171.766 E37.34174
G1 X144.708 Y171.766 E37.94042
G1 X144.052 Y171.726 E37.96228
G1 X143.406 Y171.607 E37.98412
G1 X142.779 Y171.41 E38.00598
G1 X142.181 Y171.138 E38.02783
G1 X141.62 Y170.796 E38.04969
G1 X141.105 Y170.388 E38.07154
G1 X140.643 Y169.921 E38.09339
G1 X140.242 Y169.401 E38.11523
G1 X139.906 Y168.837 E38.13706
G1 X139.642 Y168.235 E38.15893
G1 X139.452 Y167.606 E38.18078
G1 X139.341 Y166.959 E38.20262
G1 X139.308 Y166.366 E38.22237
G1 X139.308 Y119.366 E39.7856
G1 X139.348 Y118.71 E39.80745
G1 X139.467 Y118.064 E39.8293
G1 X139.664 Y117.437 E39.85116
G1 X139.936 Y116.839 E39.87301
G1 X140.278 Y116.278 E39.89486
G1 X140.686 Y115.763 E39.91672
G0 F6000 X141.081 Y115.925
G1 F1200 X141.544 Y115.495 E39.93773
G1 X142.058 Y115.126 E39.95878
G1 X142.614 Y114.826 E39.97979
G1 X143.203 Y114.598 E40.0008
G1 X143.817 Y114.446 E40.02184
G1 X144.708 Y114.366 E40.05159
G1 X162.708 Y114.366 E40.65027
G1 X163.339 Y114.406 E40.6713
G1 X163.96 Y114.525 E40.69233
G1 X164.56 Y114.722 E40.71334
G1 X165.132 Y114.993 E40.73439
G1 X165.664 Y115.333 E40.75539
G1 X166.149 Y115.739 E40.77643
G1 X166.579 Y116.202 E40.79744
G1 X166.948 Y116.716 E40.81849
G1 X167.248 Y117.272 E40.8395
G1 X167.476 Y117.861 E40.86051
G1 X167.628 Y118.475 E40.88154
G1 X167.708 Y119.366 E40.9113
G1 X167.708 Y166.366 E42.47452
G1 X167.668 Y166.997 E42.49555
G1 X167.549 Y167.618 E42.51658
G1 X167.352 Y168.218 E42.53759
G1 X167.081 Y168.79 E42.55864
G1 X166.741 Y169.322 E42.57964
G1 X166.335 Y169.807 E42.60068
G1 X165.872 Y170.237 E42.62169
G1 X165.358 Y170.606 E42.64274
G1 X164.802 Y170.906 E42.66375
G1 X164.213 Y171.134 E42.68476
G1 X163.599 Y171.286 E42.7058
G1 X162.708 Y171.366 E42.73555
G1 X144.708 Y171.366 E43.33423
G1 X144.077 Y171.326 E43.35526
G1 X143.456 Y171.207 E43.37629
G1 X142.856 Y171.01 E43.3973
G1 X142.284 Y170.739 E43.41835
G1 X141.752 Y170.399 E43.43935
