; This gcode is generated by my python script specially for my PCB manufacturer project :))

G21 ; to set metric units
G90 ; to set absolute mode , G91 for incremental mode
G94 ; To set the active feed rate mode to units per minute mode

F600 ; setting default feedrate

M5 ; disabling spindle PWM
S230 ; sets pwm speed when we enable it
C2 ; C2 chooses second tool in the choose PWM demultiplexer circuit I built

G01 Z20F10

M3 ; Turn Motor ON
G4 P2000 ; dwell for 2 seconds so motor reaches full RPM

G01 X47.545Y29.125F600
G01 Z25F10
G01 Z20F10
G01 X47.545Y21.505F600
G01 Z25F10
G01 Z20F10
G01 X26.89Y31.235F600
G01 Z25F10
G01 Z20F10
G01 X32.94Y33.185F600
G01 Z25F10
G01 Z20F10
G01 X46.165424Y32.305F600
G01 Z25F10
G01 Z20F10
G01 X44.895424Y32.305F600
G01 Z25F10
G01 Z20F10
G01 X43.625424Y32.305F600
G01 Z25F10
G01 Z20F10
G01 X39.915Y10.055F600
G01 Z25F10
G01 Z20F10
G01 X42.455Y10.055F600
G01 Z25F10
G01 Z20F10
G01 X44.995Y10.055F600
G01 Z25F10
G01 Z20F10
G01 X47.535Y10.055F600
G01 Z25F10
G01 Z20F10
G01 X10.08Y9.445F600
G01 Z25F10
G01 Z20F10
G01 X45.005Y21.51F600
G01 Z25F10
G01 Z20F10
G01 X45.005Y29.13F600
G01 Z25F10
G01 Z20F10
G01 X45.025Y13.255F600
G01 Z25F10
G01 Z20F10
G01 X47.525Y13.255F600
G01 Z25F10
G01 Z20F10
G01 X43.64Y17.7F600
G01 Z25F10
G01 Z20F10
G01 X45.64Y17.7F600
G01 Z25F10
G01 Z20F10
G01 X49.958Y15.824F600
G01 Z25F10
G01 Z20F10
G01 X49.958Y18.364F600
G01 Z25F10
G01 Z20F10

M5 ; Turn Motor OFF
C0 ; PWM Tool select demultiplexer to select tool zero (which is nothing)

