; This gcode is generated by my specialised python script for my PCB manufacturer project :))

; Machine Initialization Sequence...

G21 ; to set metric units
G90 ; to set absolute mode , G91 for incremental mode
G94 ; To set the active feed rate mode to units per minute mode

M5 ; disabling spindle PWM
C0 ; Choosing the empty tool slot in the multiplexer circuits

B1 ; Turn ON Machine

$H ; Homing :)
G10 P0 L20 X0Y0Z0 ; Force Reset current coordinates after homing


; The following gcode is the PCB trace laser marking gcode

M5 ; Being extra sure it won't light up before activation

; Getting and Activating Tool-1, The Tool.Laser
G00X165Y0Z10.5 ; Go to Tool-1 Home Pos
G00X188 ; Enter Female Kinematic Mount Home Pos
A1 ; Latch on Kinematic Mount
G4 P5 ; Wait for Kinematic Mount to fully attach
G00X92 ; Exit Female Kinematic Mount Home Pos
#TODO X0Y0Z0 ;  ;Add tool offset coordinate
C1 ; Choosing tool 1 in the choose demultiplexer circuits

F600 ; setting default feedrate

G00Z16 ; Moving to correct focal length Z position

S150 ; Setting Laser Power

Number of passes: 1

; Pass number: 0
G01 X17.433Y25.73
M3
G01 X15.86Y27.303
G01 X15.86Y31.665
G01 X17.08Y32.885
G01 X11.325Y32.885
G01 X7.23Y28.79
G01 X7.332Y28.497
G01 X7.359Y28.278
G01 X7.352Y28.094
G01 X7.323Y27.932
G01 X7.277Y27.787
G01 X7.217Y27.655
G01 X7.146Y27.536
G01 X7.064Y27.427
G01 X6.971Y27.328
G01 X6.867Y27.241
G01 X6.753Y27.163
G01 X6.628Y27.097
G01 X6.49Y27.044
G01 X6.337Y27.006
G01 X6.165Y26.986
G01 X5.967Y26.993
G01 X5.722Y27.047
G01 X5.226Y27.351
G01 X4.922Y27.846
G01 X4.868Y28.091
G01 X4.861Y28.289
G01 X4.881Y28.461
G01 X4.919Y28.614
G01 X4.972Y28.752
G01 X5.038Y28.878
G01 X5.115Y28.992
G01 X5.203Y29.095
G01 X5.301Y29.188
G01 X5.41Y29.271
G01 X5.53Y29.342
G01 X5.661Y29.402
G01 X5.807Y29.448
G01 X5.969Y29.477
G01 X6.153Y29.484
G01 X6.371Y29.457
G01 X6.664Y29.355
G01 X10.995Y33.685
G01 X10.995Y33.685
G01 X18.045Y33.685
G01 X40.901Y33.685
G01 X43.565Y31.021
G01 X43.565Y30.055
G01 X43.69Y30.055
G01 X43.69Y28.555
G01 X43.565Y28.555
G01 X43.565Y27.671
G01 X43.565Y27.671
G01 X44.379Y26.857
G01 X44.393Y26.859
G01 X44.406Y26.862
G01 X44.42Y26.865
G01 X44.434Y26.867
G01 X44.449Y26.869
G01 X44.465Y26.871
G01 X44.481Y26.872
G01 X44.498Y26.874
G01 X44.516Y26.874
G01 X44.535Y26.875
G01 X44.555Y26.875
G01 X44.576Y26.874
G01 X44.599Y26.873
G01 X44.624Y26.871
G01 X44.653Y26.867
G01 X44.687Y26.861
G01 X44.73Y26.852
G01 X44.832Y26.818
G01 X44.928Y26.77
G01 X44.966Y26.746
G01 X44.994Y26.726
G01 X45.016Y26.708
G01 X45.036Y26.692
G01 X45.053Y26.677
G01 X45.069Y26.662
G01 X45.083Y26.648
G01 X45.096Y26.634
G01 X45.108Y26.621
G01 X45.119Y26.608
G01 X45.129Y26.595
G01 X45.139Y26.583
G01 X45.148Y26.571
G01 X45.156Y26.559
G01 X45.165Y26.548
G01 X45.172Y26.536
G01 X45.179Y26.525
G01 X46.389Y26.525
G01 X46.471Y26.644
G01 X46.554Y26.728
G01 X46.636Y26.792
G01 X46.719Y26.842
G01 X46.801Y26.879
G01 X46.884Y26.905
G01 X46.967Y26.921
G01 X47.05Y26.93
G01 X47.133Y26.928
G01 X47.216Y26.919
G01 X47.299Y26.901
G01 X47.382Y26.872
G01 X47.465Y26.834
G01 X47.549Y26.783
G01 X47.632Y26.714
G01 X47.716Y26.622
G01 X47.799Y26.49
G01 X47.885Y26.136
G01 X47.805Y25.78
G01 X47.723Y25.647
G01 X47.64Y25.554
G01 X47.558Y25.485
G01 X47.475Y25.431
G01 X47.393Y25.392
G01 X47.31Y25.363
G01 X47.227Y25.343
G01 X47.144Y25.332
G01 X47.061Y25.33
G01 X46.978Y25.337
G01 X46.895Y25.353
G01 X46.812Y25.379
G01 X46.729Y25.414
G01 X46.646Y25.461
G01 X46.562Y25.524
G01 X46.479Y25.608
G01 X46.395Y25.725
G01 X45.179Y25.725
G01 X45.16Y25.696
G01 X45.139Y25.667
G01 X45.116Y25.639
G01 X45.092Y25.611
G01 X45.065Y25.585
G01 X45.037Y25.559
G01 X45.007Y25.534
G01 X44.974Y25.51
G01 X44.939Y25.487
G01 X44.902Y25.465
G01 X44.861Y25.445
G01 X44.816Y25.426
G01 X44.767Y25.409
G01 X44.712Y25.394
G01 X44.65Y25.382
G01 X44.575Y25.376
G01 X44.479Y25.378
G01 X44.258Y25.432
G01 X44.063Y25.55
G01 X43.994Y25.616
G01 X43.946Y25.674
G01 X43.91Y25.726
G01 X43.882Y25.775
G01 X43.859Y25.822
G01 X43.841Y25.867
G01 X43.826Y25.91
G01 X43.815Y25.953
G01 X43.807Y25.994
G01 X43.801Y26.034
G01 X43.797Y26.073
G01 X43.795Y26.111
G01 X43.795Y26.148
G01 X43.797Y26.185
G01 X43.801Y26.221
G01 X43.807Y26.256
G01 X43.813Y26.291
G01 X42.765Y27.339
G01 X42.765Y27.339
G01 X42.765Y28.555
G01 X42.64Y28.555
G01 X42.64Y30.055
G01 X42.765Y30.055
G01 X42.765Y30.689
G01 X42.765Y30.689
G01 X40.569Y32.885
G01 X18.21Y32.885
G01 X16.66Y31.335
G01 X16.66Y27.635
G01 X17.765Y26.53
G01 X21.62Y26.53
G01 X22.77Y27.679
G01 X22.668Y27.973
G01 X22.641Y28.191
G01 X22.648Y28.375
G01 X22.677Y28.538
G01 X22.723Y28.683
G01 X22.783Y28.815
G01 X22.854Y28.934
G01 X22.937Y29.043
G01 X23.029Y29.142
G01 X23.133Y29.23
G01 X23.247Y29.307
G01 X23.372Y29.373
G01 X23.51Y29.426
G01 X23.663Y29.464
G01 X23.835Y29.484
G01 X24.033Y29.477
G01 X24.278Y29.423
G01 X24.774Y29.119
G01 X25.078Y28.623
G01 X25.132Y28.379
G01 X25.139Y28.18
G01 X25.119Y28.008
G01 X25.081Y27.855
G01 X25.028Y27.717
G01 X24.962Y27.592
G01 X24.885Y27.478
G01 X24.797Y27.375
G01 X24.698Y27.282
G01 X24.59Y27.199
G01 X24.47Y27.128
G01 X24.338Y27.068
G01 X24.193Y27.022
G01 X24.031Y26.993
G01 X23.846Y26.986
G01 X23.628Y27.013
G01 X23.334Y27.115
G01 X21.95Y25.73
G01 X21.95Y25.73
G01 X17.433Y25.73
M5
G01 X38.43Y11.055
M3
G01 X38.43Y15.5
G01 X41.232Y18.302
G01 X41.208Y18.444
G01 X41.207Y18.562
G01 X41.22Y18.666
G01 X41.245Y18.759
G01 X41.278Y18.843
G01 X41.318Y18.92
G01 X41.365Y18.99
G01 X41.419Y19.054
G01 X41.478Y19.112
G01 X41.544Y19.164
G01 X41.616Y19.209
G01 X41.695Y19.247
G01 X41.781Y19.278
G01 X41.877Y19.3
G01 X41.984Y19.31
G01 X42.108Y19.303
G01 X42.261Y19.268
G01 X42.57Y19.076
G01 X42.763Y18.767
G01 X42.798Y18.614
G01 X42.805Y18.49
G01 X42.795Y18.383
G01 X42.773Y18.287
G01 X42.743Y18.2
G01 X42.704Y18.122
G01 X42.659Y18.049
G01 X42.608Y17.984
G01 X42.55Y17.924
G01 X42.486Y17.871
G01 X42.416Y17.824
G01 X42.339Y17.783
G01 X42.255Y17.75
G01 X42.162Y17.726
G01 X42.058Y17.712
G01 X41.94Y17.713
G01 X41.798Y17.737
G01 X39.23Y15.17
G01 X39.23Y15.17
G01 X39.23Y10.725
G01 X37.315Y8.81
G01 X37.315Y7.805
G01 X37.449Y7.716
G01 X37.544Y7.627
G01 X37.614Y7.538
G01 X37.668Y7.449
G01 X37.708Y7.361
G01 X37.737Y7.272
G01 X37.755Y7.183
G01 X37.764Y7.094
G01 X37.764Y7.005
G01 X37.754Y6.916
G01 X37.734Y6.827
G01 X37.704Y6.738
G01 X37.662Y6.649
G01 X37.606Y6.561
G01 X37.533Y6.472
G01 X37.435Y6.383
G01 X37.293Y6.294
G01 X36.915Y6.205
G01 X36.537Y6.294
G01 X36.395Y6.383
G01 X36.297Y6.472
G01 X36.224Y6.561
G01 X36.168Y6.649
G01 X36.126Y6.738
G01 X36.096Y6.827
G01 X36.076Y6.916
G01 X36.066Y7.005
G01 X36.066Y7.094
G01 X36.075Y7.183
G01 X36.093Y7.272
G01 X36.122Y7.361
G01 X36.162Y7.449
G01 X36.216Y7.538
G01 X36.286Y7.627
G01 X36.381Y7.716
G01 X36.515Y7.805
G01 X36.515Y9.14
G01 X36.515Y9.14
G01 X38.43Y11.055
M5
G01 X40.205Y7.455
M3
G01 X41.245Y7.455
G01 X41.248Y7.461
G01 X41.252Y7.468
G01 X41.256Y7.474
G01 X41.259Y7.481
G01 X41.264Y7.488
G01 X41.268Y7.495
G01 X41.272Y7.503
G01 X41.277Y7.51
G01 X41.282Y7.519
G01 X41.288Y7.527
G01 X41.294Y7.536
G01 X41.301Y7.545
G01 X41.308Y7.556
G01 X41.316Y7.567
G01 X41.326Y7.579
G01 X41.338Y7.594
G01 X41.353Y7.612
G01 X41.394Y7.656
G01 X41.438Y7.697
G01 X41.456Y7.712
G01 X41.471Y7.724
G01 X41.483Y7.734
G01 X41.494Y7.742
G01 X41.505Y7.749
G01 X41.514Y7.756
G01 X41.523Y7.762
G01 X41.531Y7.768
G01 X41.54Y7.773
G01 X41.547Y7.778
G01 X41.555Y7.782
G01 X41.562Y7.786
G01 X41.569Y7.791
G01 X41.576Y7.794
G01 X41.582Y7.798
G01 X41.589Y7.802
G01 X41.595Y7.805
G01 X41.595Y9.58
G01 X41.583Y9.588
G01 X41.571Y9.596
G01 X41.559Y9.605
G01 X41.546Y9.614
G01 X41.533Y9.624
G01 X41.52Y9.634
G01 X41.507Y9.645
G01 X41.493Y9.657
G01 X41.479Y9.67
G01 X41.465Y9.684
G01 X41.45Y9.699
G01 X41.435Y9.715
G01 X41.418Y9.734
G01 X41.401Y9.754
G01 X41.382Y9.779
G01 X41.361Y9.809
G01 X41.336Y9.849
G01 X41.285Y9.95
G01 X41.25Y10.058
G01 X41.239Y10.104
G01 X41.233Y10.14
G01 X41.229Y10.171
G01 X41.227Y10.198
G01 X41.226Y10.222
G01 X41.225Y10.245
G01 X41.225Y10.266
G01 X41.226Y10.286
G01 X41.227Y10.305
G01 X41.228Y10.323
G01 X41.23Y10.34
G01 X41.231Y10.357
G01 X41.234Y10.372
G01 X41.236Y10.388
G01 X41.239Y10.403
G01 X41.242Y10.417
G01 X41.245Y10.431
G01 X40.24Y11.479
G01 X40.24Y11.479
G01 X40.24Y14.007
G01 X40.122Y14.09
G01 X40.038Y14.173
G01 X39.975Y14.256
G01 X39.926Y14.339
G01 X39.89Y14.422
G01 X39.864Y14.505
G01 X39.848Y14.588
G01 X39.841Y14.671
G01 X39.842Y14.754
G01 X39.852Y14.836
G01 X39.871Y14.919
G01 X39.899Y15.002
G01 X39.939Y15.085
G01 X39.991Y15.168
G01 X40.06Y15.251
G01 X40.152Y15.334
G01 X40.285Y15.417
G01 X40.64Y15.5
G01 X40.995Y15.417
G01 X41.128Y15.334
G01 X41.22Y15.251
G01 X41.289Y15.168
G01 X41.341Y15.085
G01 X41.381Y15.002
G01 X41.409Y14.919
G01 X41.428Y14.836
G01 X41.438Y14.754
G01 X41.439Y14.671
G01 X41.432Y14.588
G01 X41.416Y14.505
G01 X41.39Y14.422
G01 X41.354Y14.339
G01 X41.305Y14.256
G01 X41.242Y14.173
G01 X41.158Y14.09
G01 X41.04Y14.007
G01 X41.04Y11.8
G01 X41.04Y11.8
G01 X41.788Y11.019
G01 X41.827Y11.03
G01 X41.867Y11.039
G01 X41.908Y11.046
G01 X41.95Y11.051
G01 X41.992Y11.054
G01 X42.036Y11.055
G01 X42.08Y11.053
G01 X42.126Y11.049
G01 X42.173Y11.041
G01 X42.221Y11.031
G01 X42.27Y11.016
G01 X42.322Y10.998
G01 X42.375Y10.974
G01 X42.431Y10.944
G01 X42.491Y10.905
G01 X42.556Y10.853
G01 X42.632Y10.777
G01 X42.765Y10.56
G01 X42.823Y10.312
G01 X42.823Y10.205
G01 X42.814Y10.122
G01 X42.799Y10.052
G01 X42.78Y9.991
G01 X42.759Y9.937
G01 X42.735Y9.887
G01 X42.71Y9.842
G01 X42.684Y9.801
G01 X42.656Y9.763
G01 X42.626Y9.727
G01 X42.596Y9.695
G01 X42.565Y9.665
G01 X42.533Y9.637
G01 X42.499Y9.611
G01 X42.465Y9.587
G01 X42.431Y9.565
G01 X42.395Y9.546
G01 X42.395Y7.805
G01 X42.45Y7.773
G01 X42.501Y7.738
G01 X42.549Y7.7
G01 X42.593Y7.659
G01 X42.635Y7.614
G01 X42.674Y7.566
G01 X42.709Y7.516
G01 X42.741Y7.462
G01 X42.77Y7.404
G01 X42.795Y7.343
G01 X42.816Y7.277
G01 X42.831Y7.207
G01 X42.842Y7.131
G01 X42.845Y7.048
G01 X42.839Y6.956
G01 X42.82Y6.85
G01 X42.776Y6.721
G01 X42.596Y6.454
G01 X42.329Y6.274
G01 X42.2Y6.23
G01 X42.094Y6.211
G01 X42.002Y6.205
G01 X41.919Y6.208
G01 X41.843Y6.219
G01 X41.773Y6.234
G01 X41.707Y6.255
G01 X41.646Y6.28
G01 X41.588Y6.309
G01 X41.534Y6.341
G01 X41.483Y6.376
G01 X41.436Y6.415
G01 X41.391Y6.457
G01 X41.35Y6.501
G01 X41.312Y6.549
G01 X41.277Y6.6
G01 X41.245Y6.655
G01 X40.205Y6.655
G01 X40.197Y6.64
G01 X40.188Y6.625
G01 X40.179Y6.609
G01 X40.169Y6.593
G01 X40.158Y6.577
G01 X40.147Y6.561
G01 X40.135Y6.544
G01 X40.121Y6.527
G01 X40.107Y6.51
G01 X40.091Y6.492
G01 X40.074Y6.473
G01 X40.056Y6.453
G01 X40.034Y6.433
G01 X40.01Y6.411
G01 X39.982Y6.388
G01 X39.947Y6.362
G01 X39.901Y6.331
G01 X39.78Y6.27
G01 X39.651Y6.228
G01 X39.596Y6.217
G01 X39.553Y6.211
G01 X39.517Y6.207
G01 X39.484Y6.206
G01 X39.455Y6.205
G01 X39.428Y6.205
G01 X39.403Y6.207
G01 X39.379Y6.208
G01 X39.356Y6.211
G01 X39.335Y6.214
G01 X39.315Y6.217
G01 X39.295Y6.22
G01 X39.276Y6.224
G01 X39.258Y6.228
G01 X39.24Y6.233
G01 X39.223Y6.237
G01 X39.207Y6.242
G01 X37.74Y4.775
G01 X37.74Y4.775
G01 X34.854Y4.775
G01 X32.715Y6.914
G01 X32.715Y21.215
G01 X38.03Y26.53
G01 X38.772Y26.53
G01 X38.775Y26.535
G01 X38.778Y26.54
G01 X38.782Y26.546
G01 X38.785Y26.551
G01 X38.788Y26.557
G01 X38.792Y26.563
G01 X38.796Y26.569
G01 X38.8Y26.575
G01 X38.805Y26.582
G01 X38.81Y26.589
G01 X38.815Y26.596
G01 X38.821Y26.604
G01 X38.827Y26.613
G01 X38.834Y26.622
G01 X38.842Y26.632
G01 X38.852Y26.644
G01 X38.865Y26.66
G01 X38.899Y26.696
G01 X38.935Y26.73
G01 X38.951Y26.743
G01 X38.963Y26.753
G01 X38.973Y26.761
G01 X38.982Y26.768
G01 X38.991Y26.774
G01 X38.999Y26.78
G01 X39.006Y26.785
G01 X39.013Y26.79
G01 X39.02Y26.795
G01 X39.026Y26.799
G01 X39.032Y26.803
G01 X39.038Y26.806
G01 X39.044Y26.81
G01 X39.049Y26.813
G01 X39.055Y26.817
G01 X39.06Y26.82
G01 X39.065Y26.823
G01 X39.065Y28.31
G01 X39.065Y28.31
G01 X40.1Y29.344
G01 X40.1Y30.055
G01 X41.15Y30.055
G01 X41.15Y28.555
G01 X40.441Y28.555
G01 X39.865Y27.98
G01 X39.865Y27.98
G01 X39.865Y26.823
G01 X39.914Y26.792
G01 X39.959Y26.759
G01 X40.002Y26.723
G01 X40.042Y26.684
G01 X40.08Y26.642
G01 X40.114Y26.597
G01 X40.146Y26.55
G01 X40.175Y26.499
G01 X40.2Y26.446
G01 X40.222Y26.389
G01 X40.24Y26.328
G01 X40.254Y26.262
G01 X40.263Y26.192
G01 X40.265Y26.115
G01 X40.259Y26.03
G01 X40.24Y25.932
G01 X40.199Y25.812
G01 X40.031Y25.564
G01 X39.783Y25.396
G01 X39.663Y25.355
G01 X39.565Y25.336
G01 X39.48Y25.33
G01 X39.403Y25.332
G01 X39.333Y25.341
G01 X39.267Y25.355
G01 X39.206Y25.373
G01 X39.149Y25.395
G01 X39.096Y25.42
G01 X39.045Y25.449
G01 X38.998Y25.481
G01 X38.953Y25.515
G01 X38.911Y25.553
G01 X38.872Y25.593
G01 X38.836Y25.636
G01 X38.803Y25.681
G01 X38.772Y25.73
G01 X38.36Y25.73
G01 X38.36Y25.73
G01 X33.515Y20.885
G01 X33.515Y7.246
G01 X35.186Y5.575
G01 X37.41Y5.575
G01 X38.642Y6.807
G01 X38.63Y6.848
G01 X38.621Y6.891
G01 X38.614Y6.934
G01 X38.609Y6.978
G01 X38.606Y7.023
G01 X38.605Y7.069
G01 X38.607Y7.116
G01 X38.612Y7.164
G01 X38.62Y7.213
G01 X38.631Y7.264
G01 X38.646Y7.317
G01 X38.666Y7.371
G01 X38.691Y7.428
G01 X38.723Y7.487
G01 X38.764Y7.55
G01 X38.819Y7.619
G01 X38.9Y7.699
G01 X39.129Y7.84
G01 X39.392Y7.903
G01 X39.505Y7.904
G01 X39.593Y7.894
G01 X39.667Y7.878
G01 X39.731Y7.859
G01 X39.789Y7.837
G01 X39.841Y7.812
G01 X39.889Y7.786
G01 X39.933Y7.758
G01 X39.974Y7.728
G01 X40.011Y7.698
G01 X40.046Y7.666
G01 X40.078Y7.633
G01 X40.108Y7.599
G01 X40.135Y7.565
G01 X40.161Y7.529
G01 X40.184Y7.492
G01 X40.205Y7.455
M5
G01 X41.552Y3.505
M3
G01 X34.71Y3.505
G01 X31.715Y6.5
G01 X31.715Y24.625
G01 X34.77Y27.68
G01 X34.763Y27.695
G01 X34.756Y27.71
G01 X34.748Y27.726
G01 X34.741Y27.743
G01 X34.734Y27.76
G01 X34.727Y27.778
G01 X34.719Y27.796
G01 X34.712Y27.816
G01 X34.705Y27.837
G01 X34.698Y27.859
G01 X34.691Y27.883
G01 X34.683Y27.909
G01 X34.676Y27.937
G01 X34.669Y27.968
G01 X34.662Y28.003
G01 X34.654Y28.045
G01 X34.647Y28.101
G01 X34.64Y28.235
G01 X34.647Y28.369
G01 X34.654Y28.425
G01 X34.662Y28.467
G01 X34.669Y28.502
G01 X34.676Y28.533
G01 X34.683Y28.561
G01 X34.691Y28.587
G01 X34.698Y28.611
G01 X34.705Y28.633
G01 X34.712Y28.654
G01 X34.719Y28.674
G01 X34.727Y28.692
G01 X34.734Y28.71
G01 X34.741Y28.727
G01 X34.748Y28.744
G01 X34.756Y28.76
G01 X34.763Y28.775
G01 X34.77Y28.79
G01 X31.674Y31.885
G01 X31.674Y31.885
G01 X22.325Y31.885
G01 X19.23Y28.79
G01 X19.332Y28.496
G01 X19.359Y28.278
G01 X19.352Y28.094
G01 X19.323Y27.932
G01 X19.277Y27.787
G01 X19.217Y27.655
G01 X19.146Y27.535
G01 X19.063Y27.426
G01 X18.97Y27.328
G01 X18.867Y27.24
G01 X18.753Y27.163
G01 X18.627Y27.097
G01 X18.489Y27.044
G01 X18.336Y27.006
G01 X18.165Y26.986
G01 X17.966Y26.993
G01 X17.721Y27.047
G01 X17.226Y27.351
G01 X16.922Y27.847
G01 X16.868Y28.092
G01 X16.861Y28.29
G01 X16.881Y28.462
G01 X16.919Y28.615
G01 X16.972Y28.753
G01 X17.038Y28.878
G01 X17.116Y28.992
G01 X17.204Y29.096
G01 X17.302Y29.189
G01 X17.411Y29.271
G01 X17.531Y29.343
G01 X17.662Y29.402
G01 X17.808Y29.448
G01 X17.97Y29.477
G01 X18.154Y29.484
G01 X18.372Y29.457
G01 X18.666Y29.355
G01 X21.995Y32.685
G01 X21.995Y32.685
G01 X32.006Y32.685
G01 X35.336Y29.355
G01 X35.436Y29.4
G01 X35.536Y29.434
G01 X35.636Y29.459
G01 X35.737Y29.476
G01 X35.837Y29.484
G01 X35.937Y29.484
G01 X36.037Y29.476
G01 X36.138Y29.46
G01 X36.238Y29.436
G01 X36.338Y29.402
G01 X36.438Y29.358
G01 X36.539Y29.304
G01 X36.639Y29.236
G01 X36.739Y29.152
G01 X36.839Y29.048
G01 X36.939Y28.914
G01 X37.04Y28.726
G01 X37.14Y28.235
G01 X37.04Y27.744
G01 X36.939Y27.556
G01 X36.839Y27.422
G01 X36.739Y27.318
G01 X36.639Y27.234
G01 X36.539Y27.166
G01 X36.438Y27.112
G01 X36.338Y27.068
G01 X36.238Y27.034
G01 X36.138Y27.01
G01 X36.037Y26.994
G01 X35.937Y26.986
G01 X35.837Y26.986
G01 X35.737Y26.994
G01 X35.636Y27.011
G01 X35.536Y27.036
G01 X35.436Y27.07
G01 X35.336Y27.115
G01 X32.515Y24.295
G01 X32.515Y24.295
G01 X32.515Y6.832
G01 X35.042Y4.305
G01 X41.219Y4.305
G01 X43.685Y6.815
G01 X43.685Y7.905
G01 X44.125Y7.905
G01 X44.125Y9.562
G01 X44.112Y9.57
G01 X44.099Y9.578
G01 X44.085Y9.587
G01 X44.071Y9.596
G01 X44.057Y9.606
G01 X44.043Y9.617
G01 X44.028Y9.628
G01 X44.013Y9.64
G01 X43.998Y9.653
G01 X43.982Y9.668
G01 X43.966Y9.683
G01 X43.949Y9.7
G01 X43.931Y9.72
G01 X43.912Y9.741
G01 X43.891Y9.767
G01 X43.868Y9.798
G01 X43.841Y9.841
G01 X43.786Y9.949
G01 X43.748Y10.064
G01 X43.738Y10.113
G01 X43.732Y10.152
G01 X43.728Y10.184
G01 X43.726Y10.213
G01 X43.725Y10.239
G01 X43.725Y10.264
G01 X43.726Y10.286
G01 X43.727Y10.307
G01 X43.728Y10.328
G01 X43.73Y10.347
G01 X43.733Y10.365
G01 X43.735Y10.383
G01 X43.738Y10.4
G01 X43.741Y10.416
G01 X43.745Y10.432
G01 X43.748Y10.447
G01 X43.752Y10.462
G01 X42.24Y11.974
G01 X42.24Y11.974
G01 X42.24Y13.9
G01 X41.84Y13.9
G01 X41.84Y15.5
G01 X42.24Y15.5
G01 X42.24Y16.765
G01 X42.24Y16.765
G01 X43.795Y18.32
G01 X43.795Y19.255
G01 X45.295Y19.255
G01 X45.295Y17.755
G01 X44.361Y17.755
G01 X43.04Y16.435
G01 X43.04Y16.435
G01 X43.04Y15.5
G01 X43.44Y15.5
G01 X43.44Y13.9
G01 X43.04Y13.9
G01 X43.04Y12.306
G01 X43.04Y12.306
G01 X44.318Y11.028
G01 X44.324Y11.029
G01 X44.33Y11.031
G01 X44.336Y11.032
G01 X44.342Y11.034
G01 X44.349Y11.035
G01 X44.356Y11.037
G01 X44.363Y11.038
G01 X44.37Y11.04
G01 X44.378Y11.041
G01 X44.386Y11.043
G01 X44.395Y11.044
G01 X44.405Y11.046
G01 X44.415Y11.047
G01 X44.427Y11.049
G01 X44.44Y11.05
G01 X44.455Y11.052
G01 X44.476Y11.053
G01 X44.525Y11.055
G01 X44.574Y11.053
G01 X44.595Y11.052
G01 X44.61Y11.05
G01 X44.623Y11.049
G01 X44.635Y11.047
G01 X44.645Y11.046
G01 X44.655Y11.044
G01 X44.664Y11.043
G01 X44.672Y11.041
G01 X44.68Y11.04
G01 X44.687Y11.038
G01 X44.694Y11.037
G01 X44.701Y11.035
G01 X44.708Y11.034
G01 X44.714Y11.032
G01 X44.72Y11.031
G01 X44.726Y11.029
G01 X44.732Y11.028
G01 X46.144Y12.44
G01 X46.084Y12.607
G01 X46.061Y12.746
G01 X46.059Y12.868
G01 X46.071Y12.979
G01 X46.095Y13.081
G01 X46.129Y13.175
G01 X46.172Y13.262
G01 X46.222Y13.342
G01 X46.281Y13.417
G01 X46.347Y13.485
G01 X46.422Y13.547
G01 X46.505Y13.602
G01 X46.598Y13.649
G01 X46.703Y13.687
G01 X46.822Y13.714
G01 X46.963Y13.724
G01 X47.139Y13.706
G01 X47.514Y13.532
G01 X47.772Y13.209
G01 X47.831Y13.041
G01 X47.855Y12.903
G01 X47.857Y12.78
G01 X47.845Y12.67
G01 X47.821Y12.568
G01 X47.787Y12.474
G01 X47.745Y12.387
G01 X47.694Y12.306
G01 X47.636Y12.232
G01 X47.569Y12.163
G01 X47.495Y12.101
G01 X47.411Y12.046
G01 X47.318Y11.999
G01 X47.213Y11.961
G01 X47.094Y11.934
G01 X46.954Y11.924
G01 X46.777Y11.942
G01 X45.298Y10.463
G01 X45.301Y10.448
G01 X45.305Y10.433
G01 X45.308Y10.417
G01 X45.312Y10.4
G01 X45.315Y10.384
G01 X45.317Y10.366
G01 X45.32Y10.348
G01 X45.322Y10.328
G01 X45.323Y10.308
G01 X45.324Y10.287
G01 X45.325Y10.264
G01 X45.325Y10.24
G01 X45.324Y10.214
G01 X45.322Y10.185
G01 X45.318Y10.152
G01 X45.312Y10.114
G01 X45.302Y10.065
G01 X45.264Y9.949
G01 X45.209Y9.841
G01 X45.182Y9.798
G01 X45.159Y9.767
G01 X45.139Y9.742
G01 X45.119Y9.72
G01 X45.102Y9.7
G01 X45.085Y9.683
G01 X45.068Y9.668
G01 X45.052Y9.653
G01 X45.037Y9.64
G01 X45.022Y9.628
G01 X45.007Y9.617
G01 X44.993Y9.606
G01 X44.979Y9.596
G01 X44.965Y9.587
G01 X44.952Y9.578
G01 X44.938Y9.57
G01 X44.925Y9.562
G01 X44.925Y7.905
G01 X45.385Y7.905
G01 X45.385Y6.205
G01 X44.204Y6.205
G01 X41.552Y3.505
G01 X41.552Y3.505
M5
G01 X11.771Y28.736
M3
G01 X4.41Y21.375
G01 X4.41Y5.73
G01 X5.395Y4.745
G01 X15.115Y4.745
G01 X16.426Y6.056
G01 X16.38Y6.322
G01 X16.378Y6.544
G01 X16.404Y6.738
G01 X16.45Y6.913
G01 X16.512Y7.071
G01 X16.587Y7.215
G01 X16.676Y7.346
G01 X16.776Y7.466
G01 X16.888Y7.574
G01 X17.011Y7.671
G01 X17.146Y7.756
G01 X17.294Y7.828
G01 X17.456Y7.885
G01 X17.636Y7.926
G01 X17.837Y7.945
G01 X18.069Y7.932
G01 X18.355Y7.866
G01 X18.936Y7.506
G01 X19.296Y6.925
G01 X19.362Y6.639
G01 X19.375Y6.407
G01 X19.356Y6.206
G01 X19.315Y6.026
G01 X19.258Y5.864
G01 X19.186Y5.716
G01 X19.101Y5.581
G01 X19.004Y5.458
G01 X18.896Y5.346
G01 X18.776Y5.246
G01 X18.645Y5.157
G01 X18.501Y5.082
G01 X18.343Y5.02
G01 X18.168Y4.974
G01 X17.974Y4.948
G01 X17.752Y4.95
G01 X17.486Y4.996
G01 X15.735Y3.245
G01 X15.735Y3.245
G01 X4.775Y3.245
G01 X2.91Y5.11
G01 X2.91Y21.995
G01 X10.711Y29.796
G01 X10.665Y30.062
G01 X10.663Y30.284
G01 X10.689Y30.478
G01 X10.735Y30.653
G01 X10.797Y30.811
G01 X10.872Y30.955
G01 X10.961Y31.086
G01 X11.061Y31.206
G01 X11.173Y31.314
G01 X11.296Y31.411
G01 X11.431Y31.496
G01 X11.579Y31.568
G01 X11.741Y31.625
G01 X11.921Y31.666
G01 X12.122Y31.685
G01 X12.354Y31.672
G01 X12.64Y31.606
G01 X13.221Y31.246
G01 X13.581Y30.665
G01 X13.647Y30.379
G01 X13.66Y30.147
G01 X13.641Y29.946
G01 X13.6Y29.766
G01 X13.543Y29.604
G01 X13.471Y29.456
G01 X13.386Y29.321
G01 X13.289Y29.198
G01 X13.181Y29.086
G01 X13.061Y28.986
G01 X12.93Y28.897
G01 X12.786Y28.822
G01 X12.628Y28.76
G01 X12.453Y28.714
G01 X12.259Y28.688
G01 X12.037Y28.69
G01 X11.771Y28.736
M5
G01 X30.69Y28.886
M3
G01 X30.69Y13.12
G01 X24.455Y6.885
G01 X24.455Y4.945
G01 X21.455Y4.945
G01 X21.455Y7.945
G01 X23.395Y7.945
G01 X29.19Y13.74
G01 X29.19Y13.74
G01 X29.19Y28.886
G01 X28.969Y29.041
G01 X28.811Y29.197
G01 X28.692Y29.352
G01 X28.601Y29.508
G01 X28.534Y29.663
G01 X28.485Y29.819
G01 X28.455Y29.974
G01 X28.441Y30.13
G01 X28.443Y30.285
G01 X28.462Y30.441
G01 X28.498Y30.596
G01 X28.551Y30.752
G01 X28.625Y30.907
G01 X28.724Y31.063
G01 X28.853Y31.218
G01 X29.025Y31.374
G01 X29.275Y31.529
G01 X29.94Y31.685
G01 X30.605Y31.529
G01 X30.855Y31.374
G01 X31.027Y31.218
G01 X31.156Y31.063
G01 X31.255Y30.907
G01 X31.329Y30.752
G01 X31.382Y30.596
G01 X31.418Y30.441
G01 X31.437Y30.285
G01 X31.439Y30.13
G01 X31.425Y29.974
G01 X31.395Y29.819
G01 X31.346Y29.663
G01 X31.279Y29.508
G01 X31.188Y29.352
G01 X31.069Y29.197
G01 X30.911Y29.041
G01 X30.69Y28.886
M5
G01 X6.86Y14.736
M3
G01 X6.86Y7.945
G01 X8.58Y7.945
G01 X8.58Y4.945
G01 X5.58Y4.945
G01 X5.58Y6.885
G01 X5.36Y7.105
G01 X5.36Y7.105
G01 X5.36Y14.736
G01 X5.139Y14.891
G01 X4.981Y15.047
G01 X4.862Y15.202
G01 X4.771Y15.358
G01 X4.704Y15.513
G01 X4.655Y15.669
G01 X4.625Y15.824
G01 X4.611Y15.98
G01 X4.613Y16.135
G01 X4.632Y16.291
G01 X4.668Y16.446
G01 X4.721Y16.602
G01 X4.795Y16.757
G01 X4.894Y16.913
G01 X5.023Y17.068
G01 X5.195Y17.224
G01 X5.445Y17.379
G01 X6.11Y17.535
G01 X6.775Y17.379
G01 X7.025Y17.224
G01 X7.197Y17.068
G01 X7.326Y16.913
G01 X7.425Y16.757
G01 X7.499Y16.602
G01 X7.552Y16.446
G01 X7.588Y16.291
G01 X7.607Y16.135
G01 X7.609Y15.98
G01 X7.595Y15.824
G01 X7.565Y15.669
G01 X7.516Y15.513
G01 X7.449Y15.358
G01 X7.358Y15.202
G01 X7.239Y15.047
G01 X7.081Y14.891
G01 X6.86Y14.736
M5
G01 X21.44Y16.785
M3
G01 X22.591Y16.785
G01 X22.746Y17.006
G01 X22.902Y17.164
G01 X23.057Y17.283
G01 X23.213Y17.374
G01 X23.368Y17.441
G01 X23.524Y17.49
G01 X23.679Y17.52
G01 X23.835Y17.534
G01 X23.99Y17.532
G01 X24.146Y17.513
G01 X24.301Y17.477
G01 X24.457Y17.424
G01 X24.612Y17.35
G01 X24.768Y17.251
G01 X24.923Y17.122
G01 X25.079Y16.95
G01 X25.234Y16.7
G01 X25.39Y16.035
G01 X25.234Y15.37
G01 X25.079Y15.12
G01 X24.923Y14.948
G01 X24.768Y14.819
G01 X24.612Y14.72
G01 X24.457Y14.646
G01 X24.301Y14.593
G01 X24.146Y14.557
G01 X23.99Y14.538
G01 X23.835Y14.536
G01 X23.679Y14.55
G01 X23.524Y14.58
G01 X23.368Y14.629
G01 X23.213Y14.696
G01 X23.057Y14.787
G01 X22.902Y14.906
G01 X22.746Y15.064
G01 X22.591Y15.285
G01 X22.06Y15.285
G01 X22.06Y15.285
G01 X13.609Y6.834
G01 X13.655Y6.568
G01 X13.657Y6.346
G01 X13.631Y6.152
G01 X13.585Y5.977
G01 X13.523Y5.819
G01 X13.448Y5.675
G01 X13.359Y5.544
G01 X13.259Y5.424
G01 X13.147Y5.316
G01 X13.024Y5.219
G01 X12.889Y5.134
G01 X12.741Y5.062
G01 X12.579Y5.005
G01 X12.399Y4.964
G01 X12.198Y4.945
G01 X11.966Y4.958
G01 X11.68Y5.024
G01 X11.099Y5.384
G01 X10.739Y5.965
G01 X10.673Y6.251
G01 X10.66Y6.483
G01 X10.679Y6.684
G01 X10.72Y6.864
G01 X10.777Y7.026
G01 X10.849Y7.174
G01 X10.934Y7.309
G01 X11.031Y7.432
G01 X11.139Y7.544
G01 X11.259Y7.644
G01 X11.39Y7.733
G01 X11.534Y7.808
G01 X11.692Y7.87
G01 X11.867Y7.916
G01 X12.061Y7.942
G01 X12.283Y7.94
G01 X12.549Y7.894
G01 X21.44Y16.785
G01 X21.44Y16.785
M5
G01 X47.485Y17.817
M3
G01 X47.485Y16.264
G01 X47.858Y16.264
G01 X47.858Y14.464
G01 X46.058Y14.464
G01 X46.058Y16.264
G01 X46.685Y16.264
G01 X46.685Y17.817
G01 X46.567Y17.9
G01 X46.483Y17.983
G01 X46.42Y18.066
G01 X46.371Y18.149
G01 X46.335Y18.232
G01 X46.309Y18.315
G01 X46.293Y18.398
G01 X46.286Y18.481
G01 X46.287Y18.564
G01 X46.297Y18.646
G01 X46.316Y18.729
G01 X46.344Y18.812
G01 X46.384Y18.895
G01 X46.436Y18.978
G01 X46.505Y19.061
G01 X46.597Y19.144
G01 X46.73Y19.227
G01 X47.085Y19.31
G01 X47.44Y19.227
G01 X47.573Y19.144
G01 X47.665Y19.061
G01 X47.734Y18.978
G01 X47.786Y18.895
G01 X47.826Y18.812
G01 X47.854Y18.729
G01 X47.873Y18.646
G01 X47.883Y18.564
G01 X47.884Y18.481
G01 X47.877Y18.398
G01 X47.861Y18.315
G01 X47.835Y18.232
G01 X47.799Y18.149
G01 X47.75Y18.066
G01 X47.687Y17.983
G01 X47.603Y17.9
G01 X47.485Y17.817
M5
G01 X39.865Y23.425
M3
G01 X39.865Y19.203
G01 X39.983Y19.12
G01 X40.067Y19.037
G01 X40.13Y18.954
G01 X40.179Y18.871
G01 X40.215Y18.788
G01 X40.241Y18.705
G01 X40.257Y18.622
G01 X40.264Y18.539
G01 X40.263Y18.456
G01 X40.253Y18.374
G01 X40.234Y18.291
G01 X40.206Y18.208
G01 X40.166Y18.125
G01 X40.114Y18.042
G01 X40.045Y17.959
G01 X39.953Y17.876
G01 X39.82Y17.793
G01 X39.465Y17.71
G01 X39.11Y17.793
G01 X38.977Y17.876
G01 X38.885Y17.959
G01 X38.816Y18.042
G01 X38.764Y18.125
G01 X38.724Y18.208
G01 X38.696Y18.291
G01 X38.677Y18.374
G01 X38.667Y18.456
G01 X38.666Y18.539
G01 X38.673Y18.622
G01 X38.689Y18.705
G01 X38.715Y18.788
G01 X38.751Y18.871
G01 X38.8Y18.954
G01 X38.863Y19.037
G01 X38.947Y19.12
G01 X39.065Y19.203
G01 X39.065Y23.755
G01 X39.065Y23.755
G01 X41.232Y25.922
G01 X41.229Y25.937
G01 X41.225Y25.952
G01 X41.222Y25.968
G01 X41.218Y25.985
G01 X41.215Y26.001
G01 X41.213Y26.019
G01 X41.21Y26.037
G01 X41.208Y26.057
G01 X41.207Y26.077
G01 X41.206Y26.098
G01 X41.205Y26.121
G01 X41.205Y26.145
G01 X41.206Y26.171
G01 X41.208Y26.2
G01 X41.212Y26.233
G01 X41.218Y26.271
G01 X41.228Y26.32
G01 X41.266Y26.436
G01 X41.321Y26.544
G01 X41.348Y26.587
G01 X41.371Y26.618
G01 X41.392Y26.643
G01 X41.411Y26.665
G01 X41.428Y26.685
G01 X41.445Y26.702
G01 X41.462Y26.717
G01 X41.478Y26.732
G01 X41.493Y26.745
G01 X41.508Y26.757
G01 X41.523Y26.768
G01 X41.537Y26.779
G01 X41.551Y26.789
G01 X41.565Y26.798
G01 X41.578Y26.807
G01 X41.592Y26.815
G01 X41.605Y26.823
G01 X41.605Y28.555
G01 X41.37Y28.555
G01 X41.37Y30.055
G01 X42.42Y30.055
G01 X42.42Y28.555
G01 X42.405Y28.555
G01 X42.405Y26.823
G01 X42.438Y26.802
G01 X42.471Y26.78
G01 X42.503Y26.756
G01 X42.534Y26.73
G01 X42.564Y26.702
G01 X42.594Y26.672
G01 X42.622Y26.639
G01 X42.649Y26.604
G01 X42.675Y26.567
G01 X42.7Y26.526
G01 X42.724Y26.481
G01 X42.745Y26.433
G01 X42.765Y26.379
G01 X42.782Y26.319
G01 X42.796Y26.251
G01 X42.804Y26.17
G01 X42.802Y26.065
G01 X42.744Y25.824
G01 X42.614Y25.612
G01 X42.541Y25.536
G01 X42.478Y25.485
G01 X42.42Y25.446
G01 X42.366Y25.416
G01 X42.314Y25.392
G01 X42.264Y25.373
G01 X42.216Y25.358
G01 X42.17Y25.347
G01 X42.125Y25.339
G01 X42.08Y25.334
G01 X42.037Y25.331
G01 X41.995Y25.33
G01 X41.954Y25.332
G01 X41.914Y25.335
G01 X41.874Y25.341
G01 X41.835Y25.348
G01 X41.797Y25.357
G01 X39.865Y23.425
G01 X39.865Y23.425
M5
G01 X16.66Y15.985
M3
G01 X16.743Y16.478
G01 X16.827Y16.672
G01 X16.91Y16.814
G01 X16.993Y16.928
G01 X17.077Y17.023
G01 X17.16Y17.103
G01 X17.243Y17.172
G01 X17.327Y17.232
G01 X17.41Y17.284
G01 X17.493Y17.329
G01 X17.577Y17.367
G01 X17.66Y17.399
G01 X17.743Y17.426
G01 X17.827Y17.448
G01 X17.91Y17.464
G01 X17.993Y17.476
G01 X18.077Y17.483
G01 X18.243Y17.483
G01 X18.327Y17.476
G01 X18.41Y17.464
G01 X18.493Y17.448
G01 X18.577Y17.426
G01 X18.66Y17.399
G01 X18.743Y17.367
G01 X18.827Y17.329
G01 X18.91Y17.284
G01 X18.993Y17.232
G01 X19.077Y17.172
G01 X19.16Y17.103
G01 X19.243Y17.023
G01 X19.327Y16.928
G01 X19.41Y16.814
G01 X19.493Y16.672
G01 X19.577Y16.478
G01 X19.66Y15.985
G01 X19.577Y15.492
G01 X19.493Y15.298
G01 X19.41Y15.156
G01 X19.327Y15.042
G01 X19.243Y14.947
G01 X19.16Y14.867
G01 X19.077Y14.798
G01 X18.993Y14.738
G01 X18.91Y14.686
G01 X18.827Y14.641
G01 X18.743Y14.603
G01 X18.66Y14.571
G01 X18.577Y14.544
G01 X18.493Y14.523
G01 X18.41Y14.506
G01 X18.327Y14.494
G01 X18.243Y14.487
G01 X18.077Y14.487
G01 X17.993Y14.494
G01 X17.91Y14.506
G01 X17.827Y14.523
G01 X17.743Y14.544
G01 X17.66Y14.571
G01 X17.577Y14.603
G01 X17.493Y14.641
G01 X17.41Y14.686
G01 X17.327Y14.738
G01 X17.243Y14.798
G01 X17.16Y14.867
G01 X17.077Y14.947
G01 X16.993Y15.042
G01 X16.91Y15.156
G01 X16.827Y15.298
G01 X16.743Y15.492
G01 X16.66Y15.985
G01 X16.66Y15.985
M5
G01 X34.44Y15.985
M3
G01 X34.523Y16.478
G01 X34.607Y16.672
G01 X34.69Y16.814
G01 X34.773Y16.928
G01 X34.857Y17.023
G01 X34.94Y17.103
G01 X35.023Y17.172
G01 X35.107Y17.232
G01 X35.19Y17.284
G01 X35.273Y17.329
G01 X35.357Y17.367
G01 X35.44Y17.399
G01 X35.523Y17.426
G01 X35.607Y17.448
G01 X35.69Y17.464
G01 X35.773Y17.476
G01 X35.857Y17.483
G01 X36.023Y17.483
G01 X36.107Y17.476
G01 X36.19Y17.464
G01 X36.273Y17.448
G01 X36.357Y17.426
G01 X36.44Y17.399
G01 X36.523Y17.367
G01 X36.607Y17.329
G01 X36.69Y17.284
G01 X36.773Y17.232
G01 X36.857Y17.172
G01 X36.94Y17.103
G01 X37.023Y17.023
G01 X37.107Y16.928
G01 X37.19Y16.814
G01 X37.273Y16.672
G01 X37.357Y16.478
G01 X37.44Y15.985
G01 X37.357Y15.492
G01 X37.273Y15.298
G01 X37.19Y15.156
G01 X37.107Y15.042
G01 X37.023Y14.947
G01 X36.94Y14.867
G01 X36.857Y14.798
G01 X36.773Y14.738
G01 X36.69Y14.686
G01 X36.607Y14.641
G01 X36.523Y14.603
G01 X36.44Y14.571
G01 X36.357Y14.544
G01 X36.273Y14.523
G01 X36.19Y14.506
G01 X36.107Y14.494
G01 X36.023Y14.487
G01 X35.857Y14.487
G01 X35.773Y14.494
G01 X35.69Y14.506
G01 X35.607Y14.523
G01 X35.523Y14.544
G01 X35.44Y14.571
G01 X35.357Y14.603
G01 X35.273Y14.641
G01 X35.19Y14.686
G01 X35.107Y14.738
G01 X35.023Y14.798
G01 X34.94Y14.867
G01 X34.857Y14.947
G01 X34.773Y15.042
G01 X34.69Y15.156
G01 X34.607Y15.298
G01 X34.523Y15.492
G01 X34.44Y15.985
G01 X34.44Y15.985
M5
G01 X2.0Y2.0
M3
G01 X49.625Y2.0
G01 X49.625Y34.385
G01 X2.0Y34.385
G01 X2.0Y2.0
M5

M5 ; Disable End-Effector Signal

; Returning the Deactivating Tool-1
C0 ; PWM Tool select demultiplexer to select tool zero which is the empty tool slot in multiplexers
#TODO X0Y0Z0 ;  ;Remove tool offset coordinate
G00X165Y0Z10.5 ; Go to Tool-1 Home Pos
G00X92 ; Enter Female Kinematic Mount Home Pos
A0 ; Latch OFF Kinematic Mount
G4 P5 ; Wait for Kinematic Mount to fully detach
G00X188 ; Exit Female Kinematic Mount Home Pos

; Machine deinitialization Sequence... 

G00X0Y0Z0
B0 ; Turn Machine OFF
