; This gcode is generated by my specialised python script for my PCB manufacturer project :))

; Machine Initialization Sequence...

G21 ; to set metric units
G90 ; to set absolute mode , G91 for incremental mode
G94 ; To set the active feed rate mode to units per minute mode

M5 ; disabling spindle PWM
C0 ; Choosing the empty tool slot in the multiplexer circuits

B1 ; Turn ON Machine

$H ; Homing :)
G10 P0 L20 X0Y0Z0 ; Force Reset current coordinates after homing


; The following gcode is the PCB trace laser marking gcode

M5 ; Being extra sure it won't light up before activation

; Getting and Activating Tool-1, The Tool.Laser
G00X165Y0Z10.5 ; Go to Tool-1 Home Pos
G00X188 ; Enter Female Kinematic Mount Home Pos
A1 ; Latch on Kinematic Mount
G4 P5 ; Wait for Kinematic Mount to fully attach
G00X92 ; Exit Female Kinematic Mount Home Pos
#TODO X0Y0Z0 ;  ;Add tool offset coordinate
C1 ; Choosing tool 1 in the choose demultiplexer circuits

F600 ; setting default feedrate

G00Z16 ; Moving to correct focal length Z position

S150 ; Setting Laser Power

Number of passes: 1

; Pass number: 0
G01 X4.225Y10.634
M3
G01 X4.225Y18.518
G01 X3.441Y19.302
G01 X3.314Y19.285
G01 X3.208Y19.287
G01 X3.113Y19.302
G01 X3.029Y19.326
G01 X2.952Y19.357
G01 X2.881Y19.396
G01 X2.817Y19.44
G01 X2.758Y19.49
G01 X2.705Y19.546
G01 X2.658Y19.608
G01 X2.617Y19.675
G01 X2.581Y19.749
G01 X2.553Y19.829
G01 X2.534Y19.919
G01 X2.525Y20.019
G01 X2.532Y20.134
G01 X2.565Y20.276
G01 X2.745Y20.564
G01 X3.033Y20.744
G01 X3.175Y20.777
G01 X3.29Y20.784
G01 X3.39Y20.775
G01 X3.48Y20.756
G01 X3.56Y20.728
G01 X3.634Y20.692
G01 X3.701Y20.651
G01 X3.763Y20.604
G01 X3.819Y20.551
G01 X3.869Y20.492
G01 X3.913Y20.428
G01 X3.952Y20.357
G01 X3.983Y20.28
G01 X4.007Y20.196
G01 X4.022Y20.101
G01 X4.024Y19.995
G01 X4.007Y19.868
G01 X5.025Y18.85
G01 X5.025Y18.85
G01 X5.025Y10.966
G01 X7.976Y8.015
G01 X8.003Y8.023
G01 X8.032Y8.03
G01 X8.061Y8.036
G01 X8.091Y8.042
G01 X8.122Y8.046
G01 X8.154Y8.049
G01 X8.187Y8.051
G01 X8.222Y8.052
G01 X8.258Y8.051
G01 X8.296Y8.049
G01 X8.335Y8.045
G01 X8.377Y8.038
G01 X8.422Y8.028
G01 X8.471Y8.015
G01 X8.524Y7.997
G01 X8.586Y7.971
G01 X8.662Y7.93
G01 X8.824Y7.803
G01 X8.951Y7.641
G01 X8.992Y7.565
G01 X9.018Y7.503
G01 X9.036Y7.45
G01 X9.049Y7.401
G01 X9.059Y7.356
G01 X9.066Y7.314
G01 X9.07Y7.274
G01 X9.072Y7.237
G01 X9.073Y7.201
G01 X9.072Y7.166
G01 X9.07Y7.133
G01 X9.067Y7.101
G01 X9.063Y7.07
G01 X9.057Y7.04
G01 X9.051Y7.011
G01 X9.044Y6.982
G01 X9.036Y6.955
G01 X11.133Y4.858
G01 X15.69Y4.858
G01 X18.11Y7.278
G01 X18.11Y8.128
G01 X19.188Y9.204
G01 X19.147Y9.379
G01 X19.14Y9.519
G01 X19.152Y9.642
G01 X19.178Y9.75
G01 X19.213Y9.849
G01 X19.258Y9.938
G01 X19.31Y10.02
G01 X19.37Y10.094
G01 X19.437Y10.161
G01 X19.511Y10.221
G01 X19.593Y10.274
G01 X19.682Y10.319
G01 X19.78Y10.355
G01 X19.889Y10.38
G01 X20.01Y10.393
G01 X20.151Y10.386
G01 X20.324Y10.347
G01 X20.676Y10.13
G01 X20.894Y9.779
G01 X20.933Y9.605
G01 X20.94Y9.465
G01 X20.927Y9.343
G01 X20.902Y9.234
G01 X20.866Y9.136
G01 X20.821Y9.047
G01 X20.769Y8.965
G01 X20.709Y8.891
G01 X20.642Y8.824
G01 X20.568Y8.764
G01 X20.486Y8.711
G01 X20.397Y8.667
G01 X20.298Y8.631
G01 X20.19Y8.606
G01 X20.068Y8.593
G01 X19.927Y8.6
G01 X19.753Y8.64
G01 X18.91Y7.798
G01 X18.91Y7.798
G01 X18.91Y6.948
G01 X16.02Y4.058
G01 X10.801Y4.058
G01 X8.47Y6.389
G01 X8.443Y6.381
G01 X8.414Y6.374
G01 X8.385Y6.368
G01 X8.355Y6.362
G01 X8.324Y6.358
G01 X8.292Y6.355
G01 X8.259Y6.353
G01 X8.224Y6.352
G01 X8.188Y6.353
G01 X8.15Y6.355
G01 X8.111Y6.359
G01 X8.069Y6.366
G01 X8.024Y6.376
G01 X7.975Y6.389
G01 X7.922Y6.407
G01 X7.86Y6.433
G01 X7.784Y6.474
G01 X7.622Y6.601
G01 X7.495Y6.763
G01 X7.454Y6.839
G01 X7.428Y6.901
G01 X7.41Y6.954
G01 X7.397Y7.003
G01 X7.387Y7.048
G01 X7.38Y7.09
G01 X7.376Y7.13
G01 X7.374Y7.167
G01 X7.373Y7.203
G01 X7.374Y7.238
G01 X7.376Y7.271
G01 X7.379Y7.303
G01 X7.383Y7.334
G01 X7.389Y7.364
G01 X7.395Y7.393
G01 X7.402Y7.422
G01 X7.41Y7.449
G01 X4.225Y10.634
M5
G01 X23.692Y25.866
M3
G01 X26.777Y25.866
G01 X26.777Y25.991
G01 X28.277Y25.991
G01 X28.277Y24.941
G01 X26.777Y24.941
G01 X26.777Y25.066
G01 X24.022Y25.066
G01 X24.022Y25.066
G01 X23.982Y25.026
G01 X23.99Y24.993
G01 X23.996Y24.96
G01 X24.002Y24.926
G01 X24.006Y24.892
G01 X24.008Y24.856
G01 X24.009Y24.819
G01 X24.008Y24.782
G01 X24.005Y24.743
G01 X24.001Y24.702
G01 X23.993Y24.661
G01 X23.983Y24.617
G01 X23.97Y24.572
G01 X23.953Y24.524
G01 X23.931Y24.473
G01 X23.902Y24.418
G01 X23.862Y24.356
G01 X23.803Y24.282
G01 X23.63Y24.138
G01 X23.425Y24.048
G01 X23.332Y24.028
G01 X23.259Y24.02
G01 X23.197Y24.018
G01 X23.141Y24.021
G01 X23.091Y24.027
G01 X23.044Y24.035
G01 X23.001Y24.046
G01 X22.96Y24.058
G01 X22.922Y24.071
G01 X22.886Y24.086
G01 X22.852Y24.102
G01 X22.82Y24.119
G01 X22.789Y24.137
G01 X22.759Y24.156
G01 X22.731Y24.176
G01 X22.705Y24.197
G01 X22.679Y24.218
G01 X15.511Y17.05
G01 X15.511Y17.05
G01 X15.511Y15.259
G01 X13.185Y12.933
G01 X13.32Y12.933
G01 X13.32Y11.133
G01 X11.52Y11.133
G01 X11.52Y12.933
G01 X12.055Y12.933
G01 X14.711Y15.589
G01 X14.711Y15.589
G01 X14.711Y17.38
G01 X22.481Y25.15
G01 X22.488Y25.165
G01 X22.496Y25.18
G01 X22.504Y25.196
G01 X22.512Y25.211
G01 X22.522Y25.227
G01 X22.532Y25.244
G01 X22.543Y25.261
G01 X22.554Y25.278
G01 X22.567Y25.295
G01 X22.581Y25.313
G01 X22.596Y25.332
G01 X22.613Y25.352
G01 X22.632Y25.373
G01 X22.654Y25.395
G01 X22.68Y25.418
G01 X22.712Y25.445
G01 X22.756Y25.477
G01 X22.868Y25.542
G01 X22.99Y25.587
G01 X23.042Y25.6
G01 X23.083Y25.608
G01 X23.118Y25.613
G01 X23.149Y25.616
G01 X23.177Y25.617
G01 X23.203Y25.618
G01 X23.227Y25.618
G01 X23.25Y25.617
G01 X23.272Y25.616
G01 X23.293Y25.614
G01 X23.312Y25.611
G01 X23.331Y25.609
G01 X23.35Y25.606
G01 X23.367Y25.602
G01 X23.384Y25.599
G01 X23.401Y25.595
G01 X23.417Y25.591
G01 X23.692Y25.866
G01 X23.692Y25.866
M5
G01 X22.538Y21.249
M3
G01 X17.94Y16.651
G01 X17.94Y14.281
G01 X16.63Y12.971
G01 X16.63Y12.933
G01 X17.13Y12.933
G01 X17.13Y11.133
G01 X15.33Y11.133
G01 X15.33Y12.933
G01 X15.83Y12.933
G01 X15.83Y13.301
G01 X15.83Y13.301
G01 X17.14Y14.611
G01 X17.14Y16.981
G01 X22.244Y22.085
G01 X22.516Y22.085
G01 X22.529Y22.107
G01 X22.544Y22.129
G01 X22.559Y22.152
G01 X22.576Y22.174
G01 X22.594Y22.196
G01 X22.613Y22.218
G01 X22.633Y22.241
G01 X22.656Y22.263
G01 X22.68Y22.285
G01 X22.706Y22.307
G01 X22.735Y22.329
G01 X22.767Y22.352
G01 X22.802Y22.374
G01 X22.842Y22.396
G01 X22.889Y22.418
G01 X22.946Y22.441
G01 X23.022Y22.463
G01 X23.209Y22.485
G01 X23.396Y22.463
G01 X23.472Y22.441
G01 X23.529Y22.418
G01 X23.576Y22.396
G01 X23.616Y22.374
G01 X23.651Y22.352
G01 X23.683Y22.329
G01 X23.712Y22.307
G01 X23.738Y22.285
G01 X23.762Y22.263
G01 X23.785Y22.241
G01 X23.805Y22.218
G01 X23.824Y22.196
G01 X23.842Y22.174
G01 X23.859Y22.152
G01 X23.874Y22.129
G01 X23.889Y22.107
G01 X23.902Y22.085
G01 X25.684Y22.085
G01 X25.684Y22.085
G01 X27.568Y20.201
G01 X28.277Y20.201
G01 X28.277Y19.151
G01 X26.777Y19.151
G01 X26.777Y19.86
G01 X25.352Y21.285
G01 X25.352Y21.285
G01 X23.902Y21.285
G01 X23.889Y21.263
G01 X23.875Y21.242
G01 X23.86Y21.22
G01 X23.844Y21.199
G01 X23.827Y21.177
G01 X23.808Y21.155
G01 X23.789Y21.133
G01 X23.767Y21.112
G01 X23.744Y21.09
G01 X23.718Y21.068
G01 X23.69Y21.046
G01 X23.66Y21.024
G01 X23.625Y21.002
G01 X23.586Y20.98
G01 X23.541Y20.957
G01 X23.486Y20.935
G01 X23.413Y20.911
G01 X23.23Y20.885
G01 X23.046Y20.902
G01 X22.972Y20.921
G01 X22.916Y20.941
G01 X22.869Y20.961
G01 X22.829Y20.981
G01 X22.794Y21.001
G01 X22.762Y21.022
G01 X22.733Y21.042
G01 X22.706Y21.063
G01 X22.682Y21.083
G01 X22.659Y21.104
G01 X22.638Y21.124
G01 X22.619Y21.145
G01 X22.6Y21.166
G01 X22.583Y21.187
G01 X22.567Y21.207
G01 X22.552Y21.228
G01 X22.538Y21.249
M5
G01 X19.64Y15.718
M3
G01 X22.409Y18.487
G01 X22.409Y18.533
G01 X22.412Y18.578
G01 X22.417Y18.624
G01 X22.425Y18.669
G01 X22.436Y18.715
G01 X22.449Y18.76
G01 X22.466Y18.806
G01 X22.486Y18.852
G01 X22.509Y18.897
G01 X22.536Y18.943
G01 X22.568Y18.988
G01 X22.605Y19.034
G01 X22.647Y19.08
G01 X22.698Y19.125
G01 X22.759Y19.171
G01 X22.835Y19.217
G01 X22.939Y19.263
G01 X23.205Y19.31
G01 X23.472Y19.266
G01 X23.576Y19.221
G01 X23.653Y19.176
G01 X23.714Y19.13
G01 X23.765Y19.085
G01 X23.808Y19.04
G01 X23.846Y18.995
G01 X23.878Y18.949
G01 X23.905Y18.904
G01 X23.929Y18.859
G01 X23.949Y18.813
G01 X23.966Y18.768
G01 X23.98Y18.722
G01 X23.991Y18.677
G01 X24.0Y18.632
G01 X24.005Y18.586
G01 X24.008Y18.541
G01 X24.009Y18.495
G01 X27.927Y14.577
G01 X27.927Y14.577
G01 X27.927Y14.411
G01 X28.277Y14.411
G01 X28.277Y13.361
G01 X26.777Y13.361
G01 X26.777Y14.411
G01 X26.961Y14.411
G01 X23.574Y17.798
G01 X23.564Y17.793
G01 X23.554Y17.788
G01 X23.544Y17.783
G01 X23.533Y17.778
G01 X23.521Y17.773
G01 X23.509Y17.769
G01 X23.497Y17.764
G01 X23.484Y17.759
G01 X23.47Y17.754
G01 X23.455Y17.749
G01 X23.439Y17.744
G01 X23.422Y17.739
G01 X23.404Y17.734
G01 X23.383Y17.729
G01 X23.359Y17.724
G01 X23.33Y17.719
G01 X23.29Y17.714
G01 X23.211Y17.709
G01 X23.132Y17.714
G01 X23.093Y17.718
G01 X23.064Y17.723
G01 X23.04Y17.728
G01 X23.019Y17.733
G01 X23.0Y17.738
G01 X22.983Y17.743
G01 X22.967Y17.747
G01 X22.952Y17.752
G01 X22.938Y17.757
G01 X22.925Y17.762
G01 X22.913Y17.767
G01 X22.901Y17.772
G01 X22.889Y17.777
G01 X22.878Y17.781
G01 X22.868Y17.786
G01 X22.858Y17.791
G01 X22.848Y17.796
G01 X20.44Y15.388
G01 X20.44Y15.388
G01 X20.44Y12.933
G01 X20.94Y12.933
G01 X20.94Y11.133
G01 X19.14Y11.133
G01 X19.14Y12.933
G01 X19.64Y12.933
G01 X19.64Y15.718
G01 X19.64Y15.718
M5
G01 X22.72Y6.948
M3
G01 X18.83Y3.058
G01 X9.261Y3.058
G01 X8.47Y3.849
G01 X8.443Y3.841
G01 X8.414Y3.834
G01 X8.385Y3.828
G01 X8.355Y3.822
G01 X8.324Y3.818
G01 X8.292Y3.815
G01 X8.259Y3.813
G01 X8.224Y3.812
G01 X8.188Y3.813
G01 X8.15Y3.815
G01 X8.111Y3.819
G01 X8.069Y3.826
G01 X8.024Y3.836
G01 X7.975Y3.849
G01 X7.922Y3.867
G01 X7.86Y3.893
G01 X7.784Y3.934
G01 X7.622Y4.061
G01 X7.495Y4.223
G01 X7.454Y4.299
G01 X7.428Y4.361
G01 X7.41Y4.414
G01 X7.397Y4.463
G01 X7.387Y4.508
G01 X7.38Y4.55
G01 X7.376Y4.59
G01 X7.374Y4.627
G01 X7.373Y4.663
G01 X7.374Y4.698
G01 X7.376Y4.731
G01 X7.379Y4.763
G01 X7.383Y4.794
G01 X7.389Y4.824
G01 X7.395Y4.853
G01 X7.402Y4.882
G01 X7.41Y4.909
G01 X2.875Y9.444
G01 X2.875Y17.241
G01 X2.773Y17.317
G01 X2.699Y17.394
G01 X2.643Y17.471
G01 X2.6Y17.548
G01 X2.568Y17.625
G01 X2.545Y17.702
G01 X2.531Y17.779
G01 X2.525Y17.856
G01 X2.527Y17.933
G01 X2.537Y18.01
G01 X2.555Y18.087
G01 X2.583Y18.163
G01 X2.62Y18.24
G01 X2.669Y18.317
G01 X2.734Y18.394
G01 X2.82Y18.471
G01 X2.944Y18.548
G01 X3.275Y18.625
G01 X3.606Y18.548
G01 X3.73Y18.471
G01 X3.816Y18.394
G01 X3.881Y18.317
G01 X3.93Y18.24
G01 X3.967Y18.163
G01 X3.995Y18.087
G01 X4.013Y18.01
G01 X4.023Y17.933
G01 X4.025Y17.856
G01 X4.019Y17.779
G01 X4.005Y17.702
G01 X3.982Y17.625
G01 X3.95Y17.548
G01 X3.907Y17.471
G01 X3.851Y17.394
G01 X3.777Y17.317
G01 X3.675Y17.241
G01 X3.675Y9.776
G01 X3.675Y9.776
G01 X7.976Y5.475
G01 X8.003Y5.483
G01 X8.032Y5.49
G01 X8.061Y5.496
G01 X8.091Y5.502
G01 X8.122Y5.506
G01 X8.154Y5.509
G01 X8.187Y5.511
G01 X8.222Y5.512
G01 X8.258Y5.511
G01 X8.296Y5.509
G01 X8.335Y5.505
G01 X8.377Y5.498
G01 X8.422Y5.488
G01 X8.471Y5.475
G01 X8.524Y5.457
G01 X8.586Y5.431
G01 X8.662Y5.39
G01 X8.824Y5.263
G01 X8.951Y5.101
G01 X8.992Y5.025
G01 X9.018Y4.963
G01 X9.036Y4.91
G01 X9.049Y4.861
G01 X9.059Y4.816
G01 X9.066Y4.774
G01 X9.07Y4.734
G01 X9.072Y4.697
G01 X9.073Y4.661
G01 X9.072Y4.626
G01 X9.07Y4.593
G01 X9.067Y4.561
G01 X9.063Y4.53
G01 X9.057Y4.5
G01 X9.051Y4.471
G01 X9.044Y4.442
G01 X9.036Y4.415
G01 X9.593Y3.858
G01 X18.5Y3.858
G01 X21.92Y7.278
G01 X21.92Y8.134
G01 X22.992Y9.204
G01 X22.951Y9.379
G01 X22.944Y9.519
G01 X22.956Y9.642
G01 X22.982Y9.75
G01 X23.017Y9.849
G01 X23.062Y9.938
G01 X23.114Y10.02
G01 X23.174Y10.094
G01 X23.241Y10.161
G01 X23.315Y10.221
G01 X23.397Y10.274
G01 X23.486Y10.319
G01 X23.584Y10.355
G01 X23.693Y10.38
G01 X23.814Y10.393
G01 X23.955Y10.386
G01 X24.128Y10.347
G01 X24.48Y10.13
G01 X24.698Y9.778
G01 X24.737Y9.605
G01 X24.744Y9.465
G01 X24.731Y9.343
G01 X24.706Y9.234
G01 X24.67Y9.136
G01 X24.625Y9.047
G01 X24.573Y8.965
G01 X24.513Y8.891
G01 X24.446Y8.824
G01 X24.372Y8.764
G01 X24.29Y8.711
G01 X24.201Y8.667
G01 X24.102Y8.631
G01 X23.994Y8.606
G01 X23.872Y8.593
G01 X23.731Y8.6
G01 X23.557Y8.64
G01 X22.72Y7.804
G01 X22.72Y7.804
G01 X22.72Y6.948
M5
G01 X24.244Y14.866
M3
G01 X24.244Y12.933
G01 X24.744Y12.933
G01 X24.744Y11.699
G01 X27.822Y8.621
G01 X28.277Y8.621
G01 X28.277Y7.571
G01 X26.777Y7.571
G01 X26.777Y8.534
G01 X24.178Y11.133
G01 X22.944Y11.133
G01 X22.944Y12.933
G01 X23.444Y12.933
G01 X23.444Y14.534
G01 X23.444Y14.534
G01 X23.416Y14.562
G01 X23.274Y14.538
G01 X23.156Y14.537
G01 X23.052Y14.55
G01 X22.959Y14.575
G01 X22.875Y14.608
G01 X22.798Y14.648
G01 X22.728Y14.696
G01 X22.664Y14.749
G01 X22.607Y14.809
G01 X22.555Y14.874
G01 X22.51Y14.946
G01 X22.471Y15.025
G01 X22.441Y15.112
G01 X22.419Y15.208
G01 X22.409Y15.315
G01 X22.416Y15.439
G01 X22.451Y15.591
G01 X22.643Y15.901
G01 X22.953Y16.093
G01 X23.105Y16.128
G01 X23.229Y16.135
G01 X23.336Y16.125
G01 X23.432Y16.103
G01 X23.519Y16.073
G01 X23.598Y16.034
G01 X23.67Y15.989
G01 X23.735Y15.937
G01 X23.795Y15.88
G01 X23.848Y15.816
G01 X23.896Y15.746
G01 X23.936Y15.669
G01 X23.969Y15.585
G01 X23.994Y15.492
G01 X24.007Y15.388
G01 X24.006Y15.27
G01 X23.982Y15.128
G01 X24.244Y14.866
G01 X24.244Y14.866
M5
G01 X6.025Y20.009
M3
G01 X6.025Y12.506
G01 X7.976Y10.555
G01 X8.003Y10.563
G01 X8.032Y10.57
G01 X8.061Y10.576
G01 X8.091Y10.582
G01 X8.122Y10.586
G01 X8.154Y10.589
G01 X8.187Y10.591
G01 X8.222Y10.592
G01 X8.258Y10.591
G01 X8.296Y10.589
G01 X8.335Y10.585
G01 X8.377Y10.578
G01 X8.422Y10.568
G01 X8.471Y10.555
G01 X8.524Y10.537
G01 X8.586Y10.511
G01 X8.662Y10.47
G01 X8.824Y10.343
G01 X8.951Y10.181
G01 X8.992Y10.105
G01 X9.018Y10.043
G01 X9.036Y9.99
G01 X9.049Y9.941
G01 X9.059Y9.896
G01 X9.066Y9.854
G01 X9.07Y9.815
G01 X9.072Y9.777
G01 X9.073Y9.741
G01 X9.072Y9.706
G01 X9.07Y9.673
G01 X9.067Y9.641
G01 X9.063Y9.61
G01 X9.057Y9.58
G01 X9.051Y9.551
G01 X9.044Y9.522
G01 X9.036Y9.495
G01 X10.073Y8.458
G01 X10.073Y7.701
G01 X11.916Y5.858
G01 X12.913Y5.858
G01 X14.33Y7.275
G01 X14.33Y8.158
G01 X15.377Y9.206
G01 X15.337Y9.38
G01 X15.33Y9.521
G01 X15.343Y9.643
G01 X15.368Y9.752
G01 X15.404Y9.85
G01 X15.448Y9.939
G01 X15.501Y10.021
G01 X15.561Y10.095
G01 X15.628Y10.162
G01 X15.702Y10.222
G01 X15.784Y10.275
G01 X15.873Y10.319
G01 X15.971Y10.355
G01 X16.08Y10.38
G01 X16.202Y10.393
G01 X16.342Y10.386
G01 X16.516Y10.346
G01 X16.867Y10.129
G01 X17.084Y9.777
G01 X17.123Y9.604
G01 X17.13Y9.463
G01 X17.117Y9.342
G01 X17.092Y9.233
G01 X17.056Y9.135
G01 X17.011Y9.046
G01 X16.958Y8.964
G01 X16.898Y8.89
G01 X16.831Y8.823
G01 X16.757Y8.763
G01 X16.675Y8.711
G01 X16.586Y8.666
G01 X16.488Y8.631
G01 X16.379Y8.605
G01 X16.257Y8.593
G01 X16.116Y8.6
G01 X15.942Y8.64
G01 X15.13Y7.828
G01 X15.13Y7.828
G01 X15.13Y6.945
G01 X13.243Y5.058
G01 X11.584Y5.058
G01 X9.273Y7.369
G01 X9.273Y8.126
G01 X8.47Y8.929
G01 X8.443Y8.921
G01 X8.414Y8.914
G01 X8.385Y8.908
G01 X8.355Y8.902
G01 X8.324Y8.898
G01 X8.292Y8.895
G01 X8.259Y8.893
G01 X8.224Y8.892
G01 X8.188Y8.893
G01 X8.15Y8.895
G01 X8.111Y8.899
G01 X8.069Y8.906
G01 X8.024Y8.916
G01 X7.975Y8.929
G01 X7.922Y8.947
G01 X7.86Y8.973
G01 X7.784Y9.014
G01 X7.622Y9.141
G01 X7.495Y9.303
G01 X7.454Y9.379
G01 X7.428Y9.441
G01 X7.41Y9.494
G01 X7.397Y9.543
G01 X7.387Y9.588
G01 X7.38Y9.63
G01 X7.376Y9.669
G01 X7.374Y9.707
G01 X7.373Y9.743
G01 X7.374Y9.778
G01 X7.376Y9.811
G01 X7.379Y9.843
G01 X7.383Y9.874
G01 X7.389Y9.904
G01 X7.395Y9.933
G01 X7.402Y9.962
G01 X7.41Y9.989
G01 X5.225Y12.174
G01 X5.225Y19.677
G01 X3.441Y21.461
G01 X3.314Y21.444
G01 X3.208Y21.446
G01 X3.113Y21.461
G01 X3.029Y21.485
G01 X2.952Y21.516
G01 X2.881Y21.555
G01 X2.817Y21.599
G01 X2.758Y21.649
G01 X2.705Y21.705
G01 X2.658Y21.767
G01 X2.617Y21.834
G01 X2.581Y21.908
G01 X2.553Y21.988
G01 X2.534Y22.078
G01 X2.525Y22.178
G01 X2.532Y22.293
G01 X2.565Y22.435
G01 X2.745Y22.723
G01 X3.033Y22.903
G01 X3.175Y22.936
G01 X3.29Y22.943
G01 X3.39Y22.934
G01 X3.48Y22.915
G01 X3.56Y22.887
G01 X3.634Y22.851
G01 X3.701Y22.81
G01 X3.763Y22.763
G01 X3.819Y22.71
G01 X3.869Y22.651
G01 X3.913Y22.587
G01 X3.952Y22.516
G01 X3.983Y22.439
G01 X4.007Y22.355
G01 X4.022Y22.26
G01 X4.024Y22.154
G01 X4.007Y22.027
G01 X6.025Y20.009
G01 X6.025Y20.009
M5
G01 X61.605Y4.048
M3
G01 X69.269Y4.048
G01 X69.767Y4.546
G01 X69.735Y4.704
G01 X69.731Y4.834
G01 X69.744Y4.947
G01 X69.769Y5.048
G01 X69.803Y5.139
G01 X69.846Y5.222
G01 X69.896Y5.298
G01 X69.952Y5.367
G01 X70.016Y5.43
G01 X70.085Y5.485
G01 X70.162Y5.534
G01 X70.246Y5.576
G01 X70.339Y5.609
G01 X70.441Y5.633
G01 X70.556Y5.644
G01 X70.688Y5.637
G01 X70.851Y5.6
G01 X71.181Y5.395
G01 X71.386Y5.064
G01 X71.423Y4.901
G01 X71.43Y4.769
G01 X71.418Y4.654
G01 X71.395Y4.552
G01 X71.361Y4.46
G01 X71.32Y4.376
G01 X71.271Y4.299
G01 X71.215Y4.229
G01 X71.153Y4.166
G01 X71.083Y4.109
G01 X71.007Y4.059
G01 X70.924Y4.017
G01 X70.833Y3.982
G01 X70.732Y3.958
G01 X70.619Y3.945
G01 X70.49Y3.949
G01 X70.332Y3.981
G01 X69.599Y3.248
G01 X69.599Y3.248
G01 X61.273Y3.248
G01 X60.246Y4.275
G01 X60.104Y4.251
G01 X59.986Y4.25
G01 X59.882Y4.263
G01 X59.789Y4.288
G01 X59.705Y4.321
G01 X59.628Y4.361
G01 X59.558Y4.409
G01 X59.494Y4.462
G01 X59.437Y4.522
G01 X59.385Y4.587
G01 X59.34Y4.659
G01 X59.301Y4.738
G01 X59.271Y4.825
G01 X59.249Y4.921
G01 X59.239Y5.028
G01 X59.246Y5.152
G01 X59.281Y5.304
G01 X59.473Y5.614
G01 X59.783Y5.806
G01 X59.935Y5.841
G01 X60.059Y5.848
G01 X60.166Y5.838
G01 X60.262Y5.816
G01 X60.349Y5.786
G01 X60.428Y5.747
G01 X60.5Y5.702
G01 X60.565Y5.65
G01 X60.625Y5.593
G01 X60.678Y5.529
G01 X60.726Y5.459
G01 X60.766Y5.382
G01 X60.799Y5.298
G01 X60.824Y5.205
G01 X60.837Y5.101
G01 X60.836Y4.983
G01 X60.812Y4.841
G01 X61.605Y4.048
G01 X61.605Y4.048
M5
G01 X51.946Y11.387
M3
G01 X55.345Y7.988
G01 X59.346Y7.988
G01 X59.354Y8.001
G01 X59.362Y8.015
G01 X59.371Y8.028
G01 X59.38Y8.042
G01 X59.39Y8.056
G01 X59.401Y8.07
G01 X59.412Y8.085
G01 X59.424Y8.1
G01 X59.437Y8.115
G01 X59.452Y8.131
G01 X59.467Y8.148
G01 X59.484Y8.165
G01 X59.504Y8.183
G01 X59.526Y8.202
G01 X59.551Y8.222
G01 X59.583Y8.245
G01 X59.625Y8.272
G01 X59.733Y8.327
G01 X59.848Y8.365
G01 X59.898Y8.375
G01 X59.936Y8.381
G01 X59.969Y8.385
G01 X59.998Y8.387
G01 X60.024Y8.388
G01 X60.048Y8.388
G01 X60.071Y8.387
G01 X60.092Y8.386
G01 X60.112Y8.385
G01 X60.132Y8.383
G01 X60.15Y8.38
G01 X60.167Y8.378
G01 X60.184Y8.375
G01 X60.201Y8.371
G01 X60.217Y8.368
G01 X60.232Y8.364
G01 X60.247Y8.361
G01 X66.259Y14.373
G01 X66.259Y14.373
G01 X66.259Y17.145
G01 X68.73Y19.616
G01 X68.73Y24.972
G01 X69.767Y26.01
G01 X69.735Y26.168
G01 X69.731Y26.297
G01 X69.744Y26.41
G01 X69.769Y26.511
G01 X69.803Y26.602
G01 X69.846Y26.685
G01 X69.896Y26.761
G01 X69.952Y26.83
G01 X70.016Y26.893
G01 X70.086Y26.948
G01 X70.162Y26.997
G01 X70.247Y27.039
G01 X70.339Y27.072
G01 X70.441Y27.096
G01 X70.556Y27.107
G01 X70.688Y27.1
G01 X70.851Y27.063
G01 X71.181Y26.858
G01 X71.386Y26.527
G01 X71.423Y26.364
G01 X71.43Y26.232
G01 X71.418Y26.117
G01 X71.395Y26.015
G01 X71.361Y25.923
G01 X71.32Y25.838
G01 X71.271Y25.762
G01 X71.215Y25.692
G01 X71.152Y25.629
G01 X71.083Y25.572
G01 X71.007Y25.522
G01 X70.924Y25.48
G01 X70.833Y25.445
G01 X70.732Y25.421
G01 X70.619Y25.408
G01 X70.489Y25.412
G01 X70.332Y25.444
G01 X69.53Y24.642
G01 X69.53Y24.642
G01 X69.53Y19.286
G01 X67.059Y16.815
G01 X67.059Y14.043
G01 X60.812Y7.796
G01 X60.821Y7.758
G01 X60.828Y7.719
G01 X60.834Y7.679
G01 X60.837Y7.639
G01 X60.839Y7.598
G01 X60.838Y7.556
G01 X60.835Y7.513
G01 X60.83Y7.468
G01 X60.822Y7.423
G01 X60.811Y7.377
G01 X60.796Y7.329
G01 X60.777Y7.279
G01 X60.753Y7.227
G01 X60.723Y7.173
G01 X60.684Y7.115
G01 X60.633Y7.052
G01 X60.558Y6.979
G01 X60.345Y6.849
G01 X60.104Y6.791
G01 X59.999Y6.789
G01 X59.918Y6.797
G01 X59.849Y6.811
G01 X59.79Y6.828
G01 X59.736Y6.848
G01 X59.688Y6.869
G01 X59.643Y6.893
G01 X59.602Y6.918
G01 X59.565Y6.944
G01 X59.53Y6.971
G01 X59.497Y6.999
G01 X59.467Y7.029
G01 X59.439Y7.059
G01 X59.413Y7.09
G01 X59.389Y7.122
G01 X59.367Y7.155
G01 X59.346Y7.188
G01 X55.013Y7.188
G01 X55.013Y7.188
G01 X51.146Y11.055
G01 X51.146Y17.058
G01 X49.605Y18.599
G01 X48.171Y18.599
G01 X48.171Y20.199
G01 X50.571Y20.199
G01 X50.571Y18.765
G01 X51.946Y17.39
G01 X51.946Y17.39
G01 X51.946Y11.387
M5
G01 X72.43Y27.022
M3
G01 X72.43Y25.002
G01 X71.393Y23.966
G01 X71.425Y23.808
G01 X71.429Y23.678
G01 X71.416Y23.565
G01 X71.392Y23.464
G01 X71.357Y23.373
G01 X71.315Y23.29
G01 X71.265Y23.214
G01 X71.208Y23.145
G01 X71.145Y23.082
G01 X71.075Y23.026
G01 X70.999Y22.977
G01 X70.915Y22.936
G01 X70.822Y22.902
G01 X70.72Y22.879
G01 X70.605Y22.867
G01 X70.473Y22.874
G01 X70.31Y22.911
G01 X69.979Y23.116
G01 X69.774Y23.446
G01 X69.737Y23.609
G01 X69.73Y23.741
G01 X69.741Y23.856
G01 X69.765Y23.958
G01 X69.798Y24.05
G01 X69.84Y24.135
G01 X69.889Y24.211
G01 X69.944Y24.281
G01 X70.007Y24.345
G01 X70.076Y24.401
G01 X70.152Y24.451
G01 X70.235Y24.494
G01 X70.326Y24.528
G01 X70.427Y24.553
G01 X70.54Y24.566
G01 X70.67Y24.562
G01 X70.828Y24.53
G01 X71.63Y25.332
G01 X71.63Y25.332
G01 X71.63Y26.69
G01 X71.018Y27.302
G01 X70.141Y27.302
G01 X68.53Y25.691
G01 X68.53Y19.7
G01 X66.027Y17.197
G01 X66.027Y14.662
G01 X61.093Y9.728
G01 X60.732Y9.728
G01 X60.719Y9.706
G01 X60.704Y9.684
G01 X60.689Y9.661
G01 X60.672Y9.639
G01 X60.654Y9.617
G01 X60.635Y9.595
G01 X60.615Y9.572
G01 X60.592Y9.55
G01 X60.568Y9.528
G01 X60.542Y9.506
G01 X60.513Y9.484
G01 X60.481Y9.461
G01 X60.446Y9.439
G01 X60.406Y9.417
G01 X60.359Y9.395
G01 X60.302Y9.372
G01 X60.226Y9.35
G01 X60.039Y9.328
G01 X59.852Y9.35
G01 X59.776Y9.372
G01 X59.719Y9.395
G01 X59.672Y9.417
G01 X59.632Y9.439
G01 X59.597Y9.461
G01 X59.565Y9.484
G01 X59.536Y9.506
G01 X59.51Y9.528
G01 X59.486Y9.55
G01 X59.463Y9.572
G01 X59.443Y9.595
G01 X59.424Y9.617
G01 X59.406Y9.639
G01 X59.389Y9.661
G01 X59.374Y9.684
G01 X59.359Y9.706
G01 X59.346Y9.728
G01 X53.887Y9.728
G01 X53.887Y9.728
G01 X52.146Y11.469
G01 X52.146Y18.598
G01 X49.605Y21.139
G01 X48.171Y21.139
G01 X48.171Y22.739
G01 X50.571Y22.739
G01 X50.571Y21.305
G01 X52.946Y18.93
G01 X52.946Y18.93
G01 X52.946Y11.801
G01 X54.219Y10.528
G01 X59.346Y10.528
G01 X59.359Y10.55
G01 X59.374Y10.572
G01 X59.389Y10.595
G01 X59.406Y10.617
G01 X59.424Y10.639
G01 X59.443Y10.661
G01 X59.463Y10.684
G01 X59.486Y10.706
G01 X59.51Y10.728
G01 X59.536Y10.75
G01 X59.565Y10.772
G01 X59.597Y10.795
G01 X59.632Y10.817
G01 X59.672Y10.839
G01 X59.719Y10.861
G01 X59.776Y10.884
G01 X59.852Y10.906
G01 X60.039Y10.928
G01 X60.226Y10.906
G01 X60.302Y10.884
G01 X60.359Y10.861
G01 X60.406Y10.839
G01 X60.446Y10.817
G01 X60.481Y10.795
G01 X60.513Y10.772
G01 X60.542Y10.75
G01 X60.568Y10.728
G01 X60.592Y10.706
G01 X60.615Y10.684
G01 X60.635Y10.661
G01 X60.654Y10.639
G01 X60.672Y10.617
G01 X60.689Y10.595
G01 X60.704Y10.572
G01 X60.719Y10.55
G01 X60.732Y10.528
G01 X60.763Y10.528
G01 X60.763Y10.528
G01 X65.227Y14.992
G01 X65.227Y17.527
G01 X67.73Y20.03
G01 X67.73Y26.021
G01 X69.811Y28.102
G01 X71.35Y28.102
G01 X72.43Y27.022
M5
G01 X69.78Y7.734
M3
G01 X69.83Y7.734
G01 X69.838Y7.749
G01 X69.847Y7.764
G01 X69.856Y7.78
G01 X69.866Y7.796
G01 X69.877Y7.812
G01 X69.888Y7.828
G01 X69.9Y7.845
G01 X69.914Y7.862
G01 X69.928Y7.879
G01 X69.944Y7.897
G01 X69.961Y7.916
G01 X69.979Y7.936
G01 X70.001Y7.956
G01 X70.025Y7.978
G01 X70.053Y8.001
G01 X70.088Y8.027
G01 X70.134Y8.058
G01 X70.255Y8.119
G01 X70.384Y8.161
G01 X70.439Y8.172
G01 X70.482Y8.178
G01 X70.518Y8.182
G01 X70.55Y8.183
G01 X70.58Y8.184
G01 X70.607Y8.184
G01 X70.632Y8.182
G01 X70.656Y8.181
G01 X70.679Y8.178
G01 X70.7Y8.175
G01 X70.72Y8.172
G01 X70.74Y8.169
G01 X70.759Y8.165
G01 X70.777Y8.161
G01 X70.795Y8.156
G01 X70.812Y8.152
G01 X70.828Y8.147
G01 X71.63Y8.949
G01 X71.63Y8.949
G01 X71.63Y14.481
G01 X70.864Y15.247
G01 X69.73Y15.247
G01 X69.73Y16.947
G01 X71.43Y16.947
G01 X71.43Y15.813
G01 X72.43Y14.813
G01 X72.43Y14.813
G01 X72.43Y8.619
G01 X71.393Y7.582
G01 X71.403Y7.545
G01 X71.412Y7.508
G01 X71.419Y7.469
G01 X71.425Y7.429
G01 X71.428Y7.389
G01 X71.43Y7.347
G01 X71.429Y7.304
G01 X71.427Y7.26
G01 X71.422Y7.215
G01 X71.414Y7.168
G01 X71.402Y7.119
G01 X71.387Y7.068
G01 X71.368Y7.014
G01 X71.342Y6.957
G01 X71.308Y6.896
G01 X71.263Y6.828
G01 X71.195Y6.747
G01 X70.996Y6.593
G01 X70.761Y6.504
G01 X70.657Y6.487
G01 X70.575Y6.484
G01 X70.505Y6.487
G01 X70.443Y6.495
G01 X70.387Y6.506
G01 X70.335Y6.52
G01 X70.288Y6.536
G01 X70.243Y6.553
G01 X70.202Y6.573
G01 X70.163Y6.593
G01 X70.126Y6.615
G01 X70.091Y6.638
G01 X70.059Y6.663
G01 X70.028Y6.688
G01 X69.999Y6.714
G01 X69.971Y6.741
G01 X69.945Y6.769
G01 X68.432Y5.256
G01 X68.456Y5.114
G01 X68.457Y4.995
G01 X68.444Y4.892
G01 X68.419Y4.799
G01 X68.386Y4.715
G01 X68.346Y4.638
G01 X68.299Y4.568
G01 X68.245Y4.504
G01 X68.186Y4.446
G01 X68.12Y4.394
G01 X68.048Y4.349
G01 X67.969Y4.311
G01 X67.883Y4.28
G01 X67.787Y4.258
G01 X67.68Y4.248
G01 X67.556Y4.255
G01 X67.403Y4.29
G01 X67.094Y4.482
G01 X66.901Y4.791
G01 X66.866Y4.944
G01 X66.859Y5.068
G01 X66.869Y5.175
G01 X66.891Y5.271
G01 X66.921Y5.358
G01 X66.96Y5.436
G01 X67.005Y5.509
G01 X67.056Y5.574
G01 X67.114Y5.634
G01 X67.178Y5.687
G01 X67.248Y5.734
G01 X67.325Y5.775
G01 X67.409Y5.808
G01 X67.502Y5.832
G01 X67.606Y5.846
G01 X67.724Y5.845
G01 X67.866Y5.821
G01 X69.78Y7.734
G01 X69.78Y7.734
M5
G01 X60.566Y22.028
M3
G01 X60.566Y18.875
G01 X61.118Y18.875
G01 X61.118Y16.875
G01 X59.731Y16.875
G01 X55.77Y12.914
G01 X55.779Y12.771
G01 X55.766Y12.654
G01 X55.741Y12.552
G01 X55.707Y12.463
G01 X55.665Y12.383
G01 X55.616Y12.311
G01 X55.562Y12.247
G01 X55.502Y12.189
G01 X55.436Y12.138
G01 X55.365Y12.094
G01 X55.289Y12.057
G01 X55.206Y12.028
G01 X55.117Y12.007
G01 X55.019Y11.996
G01 X54.911Y11.998
G01 X54.789Y12.018
G01 X54.641Y12.07
G01 X54.355Y12.295
G01 X54.198Y12.623
G01 X54.179Y12.779
G01 X54.186Y12.902
G01 X54.208Y13.008
G01 X54.24Y13.101
G01 X54.28Y13.183
G01 X54.326Y13.258
G01 X54.379Y13.324
G01 X54.438Y13.384
G01 X54.501Y13.437
G01 X54.571Y13.483
G01 X54.645Y13.522
G01 X54.726Y13.554
G01 X54.813Y13.578
G01 X54.908Y13.592
G01 X55.012Y13.594
G01 X55.129Y13.581
G01 X55.267Y13.541
G01 X59.214Y17.488
G01 X59.214Y18.875
G01 X59.766Y18.875
G01 X59.766Y22.358
G01 X59.766Y22.358
G01 X62.925Y25.517
G01 X62.895Y25.573
G01 X62.867Y25.632
G01 X62.841Y25.692
G01 X62.817Y25.755
G01 X62.795Y25.82
G01 X62.776Y25.887
G01 X62.76Y25.957
G01 X62.747Y26.031
G01 X62.737Y26.108
G01 X62.732Y26.188
G01 X62.73Y26.273
G01 X62.734Y26.363
G01 X62.744Y26.46
G01 X62.762Y26.564
G01 X62.791Y26.68
G01 X62.836Y26.812
G01 X62.913Y26.975
G01 X63.169Y27.318
G01 X63.512Y27.574
G01 X63.675Y27.651
G01 X63.807Y27.696
G01 X63.923Y27.725
G01 X64.027Y27.743
G01 X64.124Y27.753
G01 X64.214Y27.757
G01 X64.299Y27.755
G01 X64.379Y27.75
G01 X64.456Y27.74
G01 X64.53Y27.727
G01 X64.6Y27.711
G01 X64.667Y27.692
G01 X64.732Y27.67
G01 X64.795Y27.646
G01 X64.855Y27.62
G01 X64.914Y27.592
G01 X64.97Y27.562
G01 X64.973Y27.565
G01 X64.973Y29.302
G01 X47.901Y29.302
G01 X42.151Y23.552
G01 X42.151Y22.739
G01 X42.951Y22.739
G01 X42.951Y21.139
G01 X40.551Y21.139
G01 X40.551Y22.739
G01 X41.351Y22.739
G01 X41.351Y23.551
G01 X41.351Y23.551
G01 X38.711Y26.191
G01 X14.987Y26.191
G01 X13.822Y25.026
G01 X13.825Y25.011
G01 X13.829Y24.996
G01 X13.832Y24.98
G01 X13.836Y24.963
G01 X13.839Y24.947
G01 X13.841Y24.929
G01 X13.844Y24.911
G01 X13.846Y24.891
G01 X13.847Y24.871
G01 X13.848Y24.85
G01 X13.849Y24.827
G01 X13.849Y24.803
G01 X13.848Y24.777
G01 X13.846Y24.748
G01 X13.842Y24.715
G01 X13.836Y24.677
G01 X13.826Y24.628
G01 X13.788Y24.512
G01 X13.733Y24.404
G01 X13.706Y24.361
G01 X13.683Y24.33
G01 X13.662Y24.305
G01 X13.643Y24.283
G01 X13.626Y24.263
G01 X13.609Y24.246
G01 X13.592Y24.231
G01 X13.576Y24.216
G01 X13.561Y24.203
G01 X13.546Y24.191
G01 X13.531Y24.18
G01 X13.517Y24.169
G01 X13.503Y24.159
G01 X13.489Y24.15
G01 X13.476Y24.141
G01 X13.462Y24.133
G01 X13.449Y24.125
G01 X13.449Y22.378
G01 X13.471Y22.365
G01 X13.493Y22.35
G01 X13.516Y22.335
G01 X13.538Y22.318
G01 X13.56Y22.3
G01 X13.582Y22.281
G01 X13.605Y22.261
G01 X13.627Y22.238
G01 X13.649Y22.214
G01 X13.671Y22.188
G01 X13.693Y22.159
G01 X13.716Y22.127
G01 X13.738Y22.092
G01 X13.76Y22.052
G01 X13.782Y22.005
G01 X13.805Y21.948
G01 X13.827Y21.872
G01 X13.849Y21.685
G01 X13.827Y21.498
G01 X13.805Y21.422
G01 X13.782Y21.365
G01 X13.76Y21.318
G01 X13.738Y21.278
G01 X13.716Y21.243
G01 X13.693Y21.211
G01 X13.671Y21.182
G01 X13.649Y21.156
G01 X13.627Y21.132
G01 X13.605Y21.109
G01 X13.582Y21.089
G01 X13.56Y21.07
G01 X13.538Y21.052
G01 X13.516Y21.035
G01 X13.493Y21.02
G01 X13.471Y21.005
G01 X13.449Y20.992
G01 X13.449Y19.203
G01 X13.471Y19.19
G01 X13.493Y19.175
G01 X13.516Y19.16
G01 X13.538Y19.143
G01 X13.56Y19.125
G01 X13.582Y19.106
G01 X13.605Y19.086
G01 X13.627Y19.063
G01 X13.649Y19.039
G01 X13.671Y19.013
G01 X13.693Y18.984
G01 X13.716Y18.952
G01 X13.738Y18.917
G01 X13.76Y18.877
G01 X13.782Y18.83
G01 X13.805Y18.773
G01 X13.827Y18.697
G01 X13.849Y18.51
G01 X13.827Y18.323
G01 X13.805Y18.247
G01 X13.782Y18.19
G01 X13.76Y18.143
G01 X13.738Y18.103
G01 X13.716Y18.068
G01 X13.693Y18.036
G01 X13.671Y18.007
G01 X13.649Y17.981
G01 X13.627Y17.957
G01 X13.605Y17.934
G01 X13.582Y17.914
G01 X13.56Y17.895
G01 X13.538Y17.877
G01 X13.516Y17.86
G01 X13.493Y17.845
G01 X13.471Y17.83
G01 X13.449Y17.817
G01 X13.449Y16.028
G01 X13.567Y15.945
G01 X13.651Y15.862
G01 X13.714Y15.779
G01 X13.763Y15.696
G01 X13.799Y15.613
G01 X13.825Y15.53
G01 X13.841Y15.447
G01 X13.848Y15.364
G01 X13.847Y15.281
G01 X13.837Y15.199
G01 X13.818Y15.116
G01 X13.79Y15.033
G01 X13.75Y14.95
G01 X13.698Y14.867
G01 X13.629Y14.784
G01 X13.537Y14.701
G01 X13.404Y14.618
G01 X13.049Y14.535
G01 X12.694Y14.618
G01 X12.561Y14.701
G01 X12.469Y14.784
G01 X12.4Y14.867
G01 X12.348Y14.95
G01 X12.308Y15.033
G01 X12.28Y15.116
G01 X12.261Y15.199
G01 X12.251Y15.281
G01 X12.25Y15.364
G01 X12.257Y15.447
G01 X12.273Y15.53
G01 X12.299Y15.613
G01 X12.335Y15.696
G01 X12.384Y15.779
G01 X12.447Y15.862
G01 X12.531Y15.945
G01 X12.649Y16.028
G01 X12.649Y17.817
G01 X12.627Y17.83
G01 X12.605Y17.845
G01 X12.582Y17.86
G01 X12.56Y17.877
G01 X12.538Y17.895
G01 X12.516Y17.914
G01 X12.493Y17.934
G01 X12.471Y17.957
G01 X12.449Y17.981
G01 X12.427Y18.007
G01 X12.405Y18.036
G01 X12.382Y18.068
G01 X12.36Y18.103
G01 X12.338Y18.143
G01 X12.316Y18.19
G01 X12.293Y18.247
G01 X12.271Y18.323
G01 X12.249Y18.51
G01 X12.271Y18.697
G01 X12.293Y18.773
G01 X12.316Y18.83
G01 X12.338Y18.877
G01 X12.36Y18.917
G01 X12.382Y18.952
G01 X12.405Y18.984
G01 X12.427Y19.013
G01 X12.449Y19.039
G01 X12.471Y19.063
G01 X12.493Y19.086
G01 X12.516Y19.106
G01 X12.538Y19.125
G01 X12.56Y19.143
G01 X12.582Y19.16
G01 X12.605Y19.175
G01 X12.627Y19.19
G01 X12.649Y19.203
G01 X12.649Y20.992
G01 X12.627Y21.005
G01 X12.605Y21.02
G01 X12.582Y21.035
G01 X12.56Y21.052
G01 X12.538Y21.07
G01 X12.516Y21.089
G01 X12.493Y21.109
G01 X12.471Y21.132
G01 X12.449Y21.156
G01 X12.427Y21.182
G01 X12.405Y21.211
G01 X12.382Y21.243
G01 X12.36Y21.278
G01 X12.338Y21.318
G01 X12.316Y21.365
G01 X12.293Y21.422
G01 X12.271Y21.498
G01 X12.249Y21.685
G01 X12.271Y21.872
G01 X12.293Y21.948
G01 X12.316Y22.005
G01 X12.338Y22.052
G01 X12.36Y22.092
G01 X12.382Y22.127
G01 X12.405Y22.159
G01 X12.427Y22.188
G01 X12.449Y22.214
G01 X12.471Y22.238
G01 X12.493Y22.261
G01 X12.516Y22.281
G01 X12.538Y22.3
G01 X12.56Y22.318
G01 X12.582Y22.335
G01 X12.605Y22.35
G01 X12.627Y22.365
G01 X12.649Y22.378
G01 X12.649Y24.125
G01 X12.644Y24.128
G01 X12.639Y24.131
G01 X12.633Y24.135
G01 X12.628Y24.138
G01 X12.622Y24.142
G01 X12.616Y24.145
G01 X12.61Y24.149
G01 X12.604Y24.153
G01 X12.597Y24.158
G01 X12.59Y24.163
G01 X12.583Y24.168
G01 X12.575Y24.174
G01 X12.566Y24.18
G01 X12.557Y24.187
G01 X12.547Y24.195
G01 X12.535Y24.205
G01 X12.519Y24.218
G01 X12.483Y24.252
G01 X12.449Y24.288
G01 X12.436Y24.304
G01 X12.426Y24.316
G01 X12.418Y24.326
G01 X12.411Y24.335
G01 X12.405Y24.344
G01 X12.399Y24.352
G01 X12.394Y24.359
G01 X12.389Y24.366
G01 X12.384Y24.373
G01 X12.38Y24.379
G01 X12.376Y24.385
G01 X12.373Y24.391
G01 X12.369Y24.397
G01 X12.366Y24.402
G01 X12.362Y24.408
G01 X12.359Y24.413
G01 X12.356Y24.418
G01 X11.645Y24.418
G01 X11.645Y23.602
G01 X11.295Y23.602
G01 X11.295Y22.943
G01 X11.645Y22.943
G01 X11.645Y21.443
G01 X11.295Y21.443
G01 X11.295Y20.784
G01 X11.645Y20.784
G01 X11.645Y19.284
G01 X11.295Y19.284
G01 X11.295Y18.625
G01 X11.645Y18.625
G01 X11.645Y17.125
G01 X10.71Y17.125
G01 X9.073Y15.488
G01 X9.073Y13.972
G01 X7.373Y13.972
G01 X7.373Y15.672
G01 X8.127Y15.672
G01 X10.145Y17.69
G01 X10.145Y18.625
G01 X10.495Y18.625
G01 X10.495Y19.284
G01 X10.145Y19.284
G01 X10.145Y20.784
G01 X10.495Y20.784
G01 X10.495Y21.443
G01 X10.145Y21.443
G01 X10.145Y22.943
G01 X10.495Y22.943
G01 X10.495Y23.602
G01 X10.145Y23.602
G01 X10.145Y25.102
G01 X11.08Y25.102
G01 X11.196Y25.218
G01 X11.196Y25.218
G01 X12.356Y25.218
G01 X12.364Y25.231
G01 X12.372Y25.245
G01 X12.381Y25.258
G01 X12.39Y25.272
G01 X12.4Y25.286
G01 X12.411Y25.3
G01 X12.422Y25.315
G01 X12.434Y25.33
G01 X12.447Y25.345
G01 X12.462Y25.361
G01 X12.477Y25.378
G01 X12.494Y25.395
G01 X12.514Y25.413
G01 X12.536Y25.432
G01 X12.561Y25.452
G01 X12.593Y25.475
G01 X12.635Y25.502
G01 X12.743Y25.557
G01 X12.858Y25.595
G01 X12.908Y25.605
G01 X12.946Y25.611
G01 X12.979Y25.615
G01 X13.008Y25.617
G01 X13.034Y25.618
G01 X13.058Y25.618
G01 X13.081Y25.617
G01 X13.102Y25.616
G01 X13.122Y25.615
G01 X13.142Y25.613
G01 X13.16Y25.61
G01 X13.177Y25.608
G01 X13.194Y25.605
G01 X13.211Y25.601
G01 X13.227Y25.598
G01 X13.242Y25.594
G01 X13.257Y25.591
G01 X14.657Y26.991
G01 X14.657Y26.991
G01 X39.043Y26.991
G01 X41.752Y24.282
G01 X47.571Y30.102
G01 X65.373Y30.102
G01 X72.178Y30.102
G01 X74.43Y27.85
G01 X74.43Y21.922
G01 X71.393Y18.885
G01 X71.404Y18.845
G01 X71.414Y18.804
G01 X71.421Y18.762
G01 X71.426Y18.719
G01 X71.429Y18.675
G01 X71.43Y18.63
G01 X71.428Y18.584
G01 X71.424Y18.537
G01 X71.417Y18.488
G01 X71.406Y18.438
G01 X71.392Y18.386
G01 X71.374Y18.333
G01 X71.35Y18.277
G01 X71.32Y18.218
G01 X71.28Y18.155
G01 X71.227Y18.086
G01 X71.15Y18.006
G01 X70.927Y17.861
G01 X70.671Y17.792
G01 X70.56Y17.787
G01 X70.473Y17.794
G01 X70.4Y17.806
G01 X70.336Y17.823
G01 X70.278Y17.842
G01 X70.226Y17.864
G01 X70.178Y17.888
G01 X70.134Y17.913
G01 X70.093Y17.94
G01 X70.055Y17.969
G01 X70.019Y17.998
G01 X69.986Y18.029
G01 X69.956Y18.06
G01 X69.927Y18.093
G01 X69.901Y18.126
G01 X69.876Y18.16
G01 X69.854Y18.196
G01 X68.059Y16.401
G01 X68.059Y16.401
G01 X68.059Y13.468
G01 X68.459Y13.468
G01 X68.459Y11.868
G01 X66.859Y11.868
G01 X66.859Y13.468
G01 X67.259Y13.468
G01 X67.259Y16.731
G01 X67.259Y16.731
G01 X69.565Y19.037
G01 X69.83Y19.037
G01 X69.838Y19.052
G01 X69.847Y19.067
G01 X69.856Y19.083
G01 X69.866Y19.099
G01 X69.877Y19.115
G01 X69.888Y19.131
G01 X69.9Y19.148
G01 X69.914Y19.165
G01 X69.928Y19.182
G01 X69.944Y19.2
G01 X69.961Y19.219
G01 X69.979Y19.239
G01 X70.001Y19.259
G01 X70.025Y19.281
G01 X70.053Y19.304
G01 X70.088Y19.33
G01 X70.134Y19.361
G01 X70.255Y19.422
G01 X70.384Y19.464
G01 X70.439Y19.475
G01 X70.482Y19.481
G01 X70.518Y19.485
G01 X70.55Y19.486
G01 X70.58Y19.487
G01 X70.607Y19.487
G01 X70.632Y19.485
G01 X70.656Y19.484
G01 X70.679Y19.481
G01 X70.7Y19.478
G01 X70.72Y19.475
G01 X70.74Y19.472
G01 X70.759Y19.468
G01 X70.777Y19.464
G01 X70.795Y19.459
G01 X70.812Y19.455
G01 X70.828Y19.45
G01 X73.63Y22.252
G01 X73.63Y22.252
G01 X73.63Y27.518
G01 X71.846Y29.302
G01 X65.773Y29.302
G01 X65.773Y27.235
G01 X65.535Y26.997
G01 X65.565Y26.941
G01 X65.593Y26.882
G01 X65.619Y26.822
G01 X65.643Y26.759
G01 X65.665Y26.694
G01 X65.684Y26.627
G01 X65.7Y26.557
G01 X65.713Y26.483
G01 X65.723Y26.406
G01 X65.728Y26.326
G01 X65.73Y26.241
G01 X65.726Y26.151
G01 X65.716Y26.054
G01 X65.698Y25.95
G01 X65.669Y25.834
G01 X65.624Y25.702
G01 X65.547Y25.539
G01 X65.291Y25.196
G01 X64.948Y24.94
G01 X64.785Y24.863
G01 X64.653Y24.818
G01 X64.537Y24.789
G01 X64.433Y24.771
G01 X64.336Y24.761
G01 X64.246Y24.757
G01 X64.161Y24.759
G01 X64.081Y24.764
G01 X64.004Y24.774
G01 X63.93Y24.787
G01 X63.86Y24.803
G01 X63.793Y24.822
G01 X63.728Y24.844
G01 X63.665Y24.868
G01 X63.605Y24.894
G01 X63.546Y24.922
G01 X63.49Y24.952
G01 X60.566Y22.028
M5
G01 X55.914Y11.795
M3
G01 X56.706Y12.587
G01 X56.697Y12.625
G01 X56.69Y12.664
G01 X56.684Y12.704
G01 X56.681Y12.744
G01 X56.679Y12.785
G01 X56.68Y12.827
G01 X56.683Y12.87
G01 X56.688Y12.915
G01 X56.696Y12.96
G01 X56.707Y13.006
G01 X56.722Y13.054
G01 X56.741Y13.104
G01 X56.765Y13.156
G01 X56.795Y13.21
G01 X56.834Y13.268
G01 X56.885Y13.331
G01 X56.96Y13.404
G01 X57.173Y13.534
G01 X57.414Y13.592
G01 X57.519Y13.594
G01 X57.6Y13.586
G01 X57.669Y13.572
G01 X57.728Y13.555
G01 X57.782Y13.535
G01 X57.83Y13.514
G01 X57.875Y13.49
G01 X57.916Y13.465
G01 X57.953Y13.439
G01 X57.988Y13.412
G01 X58.021Y13.384
G01 X58.051Y13.354
G01 X58.079Y13.324
G01 X58.105Y13.293
G01 X58.129Y13.261
G01 X58.151Y13.228
G01 X58.172Y13.195
G01 X59.437Y13.195
G01 X59.453Y13.212
G01 X59.469Y13.229
G01 X59.486Y13.246
G01 X59.504Y13.263
G01 X59.524Y13.28
G01 X59.544Y13.296
G01 X59.566Y13.313
G01 X59.589Y13.329
G01 X59.614Y13.346
G01 X59.64Y13.362
G01 X59.669Y13.377
G01 X59.701Y13.393
G01 X59.736Y13.408
G01 X59.775Y13.423
G01 X59.82Y13.437
G01 X59.874Y13.451
G01 X59.945Y13.462
G01 X60.117Y13.464
G01 X60.286Y13.429
G01 X60.353Y13.404
G01 X60.404Y13.38
G01 X60.445Y13.357
G01 X60.48Y13.335
G01 X60.512Y13.314
G01 X60.539Y13.292
G01 X60.565Y13.271
G01 X60.588Y13.25
G01 X60.609Y13.229
G01 X60.629Y13.209
G01 X60.647Y13.188
G01 X60.663Y13.168
G01 X60.679Y13.148
G01 X60.694Y13.128
G01 X60.707Y13.108
G01 X60.72Y13.088
G01 X60.732Y13.068
G01 X61.414Y13.068
G01 X61.414Y13.068
G01 X64.227Y15.881
G01 X64.227Y17.942
G01 X66.73Y20.445
G01 X66.73Y26.435
G01 X69.397Y29.102
G01 X71.764Y29.102
G01 X73.43Y27.436
G01 X73.43Y23.462
G01 X71.393Y21.425
G01 X71.425Y21.267
G01 X71.429Y21.138
G01 X71.416Y21.025
G01 X71.391Y20.924
G01 X71.357Y20.833
G01 X71.315Y20.749
G01 X71.265Y20.673
G01 X71.208Y20.604
G01 X71.145Y20.542
G01 X71.075Y20.486
G01 X70.998Y20.437
G01 X70.914Y20.395
G01 X70.822Y20.362
G01 X70.72Y20.339
G01 X70.605Y20.327
G01 X70.473Y20.334
G01 X70.31Y20.371
G01 X69.979Y20.576
G01 X69.774Y20.906
G01 X69.737Y21.069
G01 X69.73Y21.201
G01 X69.741Y21.316
G01 X69.765Y21.418
G01 X69.798Y21.51
G01 X69.84Y21.595
G01 X69.889Y21.671
G01 X69.944Y21.741
G01 X70.007Y21.805
G01 X70.076Y21.861
G01 X70.152Y21.911
G01 X70.235Y21.954
G01 X70.326Y21.988
G01 X70.427Y22.013
G01 X70.54Y22.026
G01 X70.669Y22.022
G01 X70.827Y21.99
G01 X72.63Y23.792
G01 X72.63Y23.792
G01 X72.63Y27.104
G01 X71.432Y28.302
G01 X69.727Y28.302
G01 X67.53Y26.105
G01 X67.53Y20.115
G01 X65.027Y17.612
G01 X65.027Y15.551
G01 X61.744Y12.268
G01 X60.732Y12.268
G01 X60.717Y12.244
G01 X60.701Y12.219
G01 X60.684Y12.195
G01 X60.666Y12.171
G01 X60.646Y12.147
G01 X60.624Y12.123
G01 X60.601Y12.099
G01 X60.576Y12.075
G01 X60.549Y12.052
G01 X60.52Y12.029
G01 X60.488Y12.006
G01 X60.453Y11.983
G01 X60.413Y11.961
G01 X60.369Y11.939
G01 X60.317Y11.918
G01 X60.254Y11.898
G01 X60.171Y11.879
G01 X59.969Y11.871
G01 X59.771Y11.914
G01 X59.693Y11.947
G01 X59.635Y11.978
G01 X59.587Y12.008
G01 X59.547Y12.037
G01 X59.512Y12.066
G01 X59.481Y12.094
G01 X59.454Y12.123
G01 X59.429Y12.151
G01 X59.406Y12.178
G01 X59.386Y12.206
G01 X59.367Y12.233
G01 X59.351Y12.261
G01 X59.335Y12.288
G01 X59.321Y12.315
G01 X59.309Y12.342
G01 X59.297Y12.368
G01 X59.287Y12.395
G01 X58.172Y12.395
G01 X58.164Y12.382
G01 X58.156Y12.368
G01 X58.147Y12.355
G01 X58.138Y12.341
G01 X58.128Y12.327
G01 X58.117Y12.313
G01 X58.106Y12.298
G01 X58.094Y12.283
G01 X58.081Y12.268
G01 X58.066Y12.252
G01 X58.051Y12.235
G01 X58.034Y12.218
G01 X58.014Y12.2
G01 X57.992Y12.181
G01 X57.967Y12.161
G01 X57.935Y12.138
G01 X57.893Y12.111
G01 X57.785Y12.056
G01 X57.67Y12.018
G01 X57.62Y12.008
G01 X57.582Y12.002
G01 X57.549Y11.998
G01 X57.52Y11.996
G01 X57.494Y11.995
G01 X57.47Y11.995
G01 X57.447Y11.996
G01 X57.426Y11.997
G01 X57.406Y11.998
G01 X57.386Y12.0
G01 X57.368Y12.003
G01 X57.351Y12.005
G01 X57.334Y12.008
G01 X57.317Y12.012
G01 X57.301Y12.015
G01 X57.286Y12.019
G01 X57.271Y12.022
G01 X56.244Y10.995
G01 X56.244Y10.995
G01 X54.034Y10.995
G01 X53.179Y11.85
G01 X53.179Y13.612
G01 X56.673Y17.107
G01 X56.673Y18.875
G01 X57.226Y18.875
G01 X57.226Y24.898
G01 X57.226Y24.898
G01 X57.845Y25.517
G01 X57.834Y25.534
G01 X57.823Y25.551
G01 X57.813Y25.568
G01 X57.802Y25.606
G01 X57.791Y25.623
G01 X57.78Y25.64
G01 X57.769Y25.678
G01 X57.758Y25.695
G01 X57.748Y25.733
G01 X57.737Y25.75
G01 X57.726Y25.788
G01 X57.715Y25.825
G01 X57.704Y25.863
G01 X57.693Y25.9
G01 X57.683Y25.938
G01 X57.672Y25.996
G01 X57.661Y26.075
G01 X57.65Y26.256
G01 X57.661Y26.445
G01 X57.672Y26.51
G01 X57.682Y26.575
G01 X57.693Y26.619
G01 X57.704Y26.664
G01 X57.715Y26.688
G01 X57.726Y26.732
G01 X57.736Y26.756
G01 X57.747Y26.78
G01 X57.758Y26.824
G01 X57.769Y26.848
G01 X57.78Y26.872
G01 X57.79Y26.896
G01 X57.801Y26.92
G01 X57.812Y26.944
G01 X57.823Y26.948
G01 X57.834Y26.972
G01 X57.844Y26.996
G01 X56.58Y28.261
G01 X56.58Y28.261
G01 X48.892Y28.261
G01 X47.35Y26.719
G01 X47.353Y26.704
G01 X47.357Y26.689
G01 X47.36Y26.673
G01 X47.364Y26.656
G01 X47.367Y26.64
G01 X47.369Y26.622
G01 X47.372Y26.604
G01 X47.374Y26.584
G01 X47.375Y26.564
G01 X47.376Y26.543
G01 X47.377Y26.52
G01 X47.377Y26.496
G01 X47.376Y26.47
G01 X47.374Y26.441
G01 X47.37Y26.408
G01 X47.364Y26.37
G01 X47.354Y26.321
G01 X47.316Y26.205
G01 X47.261Y26.097
G01 X47.234Y26.054
G01 X47.211Y26.023
G01 X47.191Y25.998
G01 X47.171Y25.976
G01 X47.154Y25.956
G01 X47.137Y25.939
G01 X47.12Y25.924
G01 X47.104Y25.909
G01 X47.089Y25.896
G01 X47.074Y25.884
G01 X47.059Y25.873
G01 X47.045Y25.862
G01 X47.031Y25.852
G01 X47.017Y25.843
G01 X47.004Y25.834
G01 X46.99Y25.826
G01 X46.977Y25.818
G01 X46.977Y15.03
G01 X46.977Y15.03
G01 X48.171Y16.224
G01 X48.171Y17.659
G01 X50.571Y17.659
G01 X50.571Y16.059
G01 X49.137Y16.059
G01 X48.197Y15.119
G01 X50.571Y15.119
G01 X50.571Y13.519
G01 X48.171Y13.519
G01 X48.171Y15.093
G01 X46.977Y13.9
G01 X46.977Y5.341
G01 X47.759Y4.559
G01 X48.171Y4.559
G01 X48.171Y4.959
G01 X50.571Y4.959
G01 X50.571Y3.359
G01 X49.771Y3.359
G01 X49.771Y2.363
G01 X49.771Y2.363
G01 X48.0Y2.359
G01 X38.96Y2.359
G01 X30.158Y2.359
G01 X27.486Y5.031
G01 X26.777Y5.031
G01 X26.777Y5.156
G01 X25.075Y5.156
G01 X25.075Y5.156
G01 X24.131Y6.1
G01 X23.957Y6.06
G01 X23.816Y6.053
G01 X23.694Y6.066
G01 X23.586Y6.091
G01 X23.487Y6.127
G01 X23.398Y6.171
G01 X23.316Y6.224
G01 X23.242Y6.284
G01 X23.175Y6.351
G01 X23.115Y6.425
G01 X23.063Y6.506
G01 X23.018Y6.596
G01 X22.982Y6.694
G01 X22.957Y6.802
G01 X22.944Y6.924
G01 X22.951Y7.065
G01 X22.99Y7.238
G01 X23.208Y7.589
G01 X23.559Y7.807
G01 X23.732Y7.846
G01 X23.873Y7.853
G01 X23.995Y7.84
G01 X24.103Y7.815
G01 X24.201Y7.779
G01 X24.291Y7.734
G01 X24.372Y7.682
G01 X24.446Y7.622
G01 X24.513Y7.555
G01 X24.573Y7.481
G01 X24.626Y7.399
G01 X24.67Y7.31
G01 X24.706Y7.211
G01 X24.731Y7.103
G01 X24.744Y6.981
G01 X24.737Y6.84
G01 X24.697Y6.666
G01 X25.407Y5.956
G01 X25.407Y5.956
G01 X26.777Y5.956
G01 X26.777Y6.081
G01 X28.277Y6.081
G01 X28.277Y5.372
G01 X30.49Y3.159
G01 X30.49Y3.159
G01 X37.994Y3.159
G01 X34.62Y6.533
G01 X34.62Y9.584
G01 X32.864Y11.34
G01 X32.469Y10.946
G01 X28.277Y10.946
G01 X28.277Y10.821
G01 X26.777Y10.821
G01 X26.777Y10.946
G01 X26.611Y10.946
G01 X26.611Y10.946
G01 X25.222Y12.335
G01 X25.222Y14.729
G01 X23.616Y16.335
G01 X22.801Y16.335
G01 X22.209Y15.743
G01 X22.209Y8.977
G01 X20.745Y7.513
G01 X20.837Y7.372
G01 X20.891Y7.247
G01 X20.922Y7.132
G01 X20.937Y7.024
G01 X20.939Y6.921
G01 X20.93Y6.823
G01 X20.912Y6.729
G01 X20.883Y6.639
G01 X20.846Y6.552
G01 X20.8Y6.47
G01 X20.744Y6.392
G01 X20.678Y6.318
G01 X20.6Y6.249
G01 X20.509Y6.185
G01 X20.401Y6.129
G01 X20.269Y6.083
G01 X20.095Y6.055
G01 X19.69Y6.124
G01 X19.358Y6.366
G01 X19.256Y6.511
G01 X19.197Y6.638
G01 X19.162Y6.755
G01 X19.144Y6.864
G01 X19.14Y6.968
G01 X19.147Y7.067
G01 X19.164Y7.161
G01 X19.191Y7.252
G01 X19.227Y7.339
G01 X19.272Y7.422
G01 X19.326Y7.501
G01 X19.39Y7.576
G01 X19.466Y7.646
G01 X19.554Y7.71
G01 X19.658Y7.768
G01 X19.786Y7.816
G01 X19.951Y7.849
G01 X21.409Y9.307
G01 X21.409Y9.307
G01 X21.409Y16.073
G01 X22.471Y17.135
G01 X23.948Y17.135
G01 X26.022Y15.061
G01 X26.022Y12.667
G01 X26.818Y11.871
G01 X28.277Y11.871
G01 X28.277Y11.746
G01 X32.139Y11.746
G01 X32.139Y11.746
G01 X32.464Y12.071
G01 X32.464Y15.062
G01 X29.035Y15.062
G01 X27.486Y16.611
G01 X26.777Y16.611
G01 X26.777Y16.736
G01 X26.611Y16.736
G01 X26.611Y16.736
G01 X23.837Y19.51
G01 X22.801Y19.51
G01 X18.94Y15.649
G01 X18.94Y9.518
G01 X16.935Y7.513
G01 X17.027Y7.372
G01 X17.081Y7.247
G01 X17.112Y7.132
G01 X17.127Y7.024
G01 X17.129Y6.921
G01 X17.12Y6.823
G01 X17.102Y6.729
G01 X17.073Y6.639
G01 X17.036Y6.552
G01 X16.99Y6.47
G01 X16.934Y6.392
G01 X16.868Y6.318
G01 X16.79Y6.249
G01 X16.699Y6.185
G01 X16.591Y6.129
G01 X16.459Y6.083
G01 X16.285Y6.055
G01 X15.88Y6.124
G01 X15.548Y6.366
G01 X15.446Y6.511
G01 X15.387Y6.638
G01 X15.352Y6.755
G01 X15.334Y6.864
G01 X15.33Y6.968
G01 X15.337Y7.067
G01 X15.354Y7.161
G01 X15.381Y7.252
G01 X15.417Y7.339
G01 X15.462Y7.422
G01 X15.516Y7.501
G01 X15.58Y7.576
G01 X15.656Y7.646
G01 X15.744Y7.71
G01 X15.848Y7.768
G01 X15.976Y7.816
G01 X16.141Y7.849
G01 X18.14Y9.848
G01 X18.14Y9.848
G01 X18.14Y15.979
G01 X22.471Y20.31
G01 X24.169Y20.31
G01 X26.818Y17.661
G01 X28.277Y17.661
G01 X28.277Y16.952
G01 X29.367Y15.862
G01 X29.367Y15.862
G01 X32.464Y15.862
G01 X32.464Y17.748
G01 X32.464Y18.173
G01 X28.236Y22.401
G01 X26.777Y22.401
G01 X26.777Y22.526
G01 X23.775Y22.526
G01 X23.775Y22.526
G01 X23.616Y22.685
G01 X22.56Y22.685
G01 X16.511Y16.636
G01 X16.511Y14.398
G01 X15.13Y13.017
G01 X15.13Y9.242
G01 X13.231Y7.343
G01 X13.292Y7.176
G01 X13.316Y7.038
G01 X13.319Y6.916
G01 X13.308Y6.805
G01 X13.285Y6.703
G01 X13.252Y6.609
G01 X13.21Y6.521
G01 X13.16Y6.44
G01 X13.102Y6.365
G01 X13.036Y6.297
G01 X12.962Y6.234
G01 X12.879Y6.179
G01 X12.786Y6.131
G01 X12.681Y6.092
G01 X12.562Y6.064
G01 X12.422Y6.053
G01 X12.245Y6.07
G01 X11.869Y6.241
G01 X11.609Y6.562
G01 X11.548Y6.729
G01 X11.524Y6.868
G01 X11.521Y6.99
G01 X11.532Y7.101
G01 X11.555Y7.203
G01 X11.588Y7.297
G01 X11.63Y7.384
G01 X11.68Y7.465
G01 X11.738Y7.54
G01 X11.804Y7.609
G01 X11.878Y7.672
G01 X11.961Y7.727
G01 X12.054Y7.775
G01 X12.158Y7.814
G01 X12.277Y7.842
G01 X12.417Y7.853
G01 X12.594Y7.836
G01 X14.33Y9.572
G01 X14.33Y9.572
G01 X14.33Y13.347
G01 X15.711Y14.728
G01 X15.711Y16.966
G01 X22.23Y23.485
G01 X23.948Y23.485
G01 X24.107Y23.326
G01 X26.777Y23.326
G01 X26.777Y23.451
G01 X28.277Y23.451
G01 X28.277Y23.326
G01 X28.443Y23.326
G01 X28.443Y23.326
G01 X33.264Y18.505
G01 X33.264Y17.748
G01 X33.264Y15.462
G01 X33.264Y12.072
G01 X35.42Y9.916
G01 X35.42Y6.865
G01 X39.126Y3.159
G01 X48.0Y3.159
G01 X48.971Y3.161
G01 X48.971Y3.359
G01 X48.171Y3.359
G01 X48.171Y3.759
G01 X47.427Y3.759
G01 X47.427Y3.759
G01 X46.177Y5.009
G01 X46.177Y14.065
G01 X46.177Y25.818
G01 X46.144Y25.839
G01 X46.111Y25.861
G01 X46.079Y25.885
G01 X46.048Y25.911
G01 X46.018Y25.939
G01 X45.988Y25.969
G01 X45.96Y26.002
G01 X45.933Y26.037
G01 X45.907Y26.074
G01 X45.882Y26.115
G01 X45.858Y26.16
G01 X45.837Y26.208
G01 X45.817Y26.262
G01 X45.8Y26.322
G01 X45.786Y26.39
G01 X45.778Y26.471
G01 X45.78Y26.576
G01 X45.838Y26.817
G01 X45.968Y27.029
G01 X46.041Y27.105
G01 X46.104Y27.156
G01 X46.162Y27.195
G01 X46.216Y27.225
G01 X46.268Y27.249
G01 X46.318Y27.268
G01 X46.366Y27.283
G01 X46.412Y27.294
G01 X46.457Y27.302
G01 X46.502Y27.307
G01 X46.545Y27.31
G01 X46.587Y27.311
G01 X46.628Y27.309
G01 X46.668Y27.306
G01 X46.708Y27.3
G01 X46.747Y27.293
G01 X46.785Y27.284
G01 X48.562Y29.061
G01 X48.562Y29.061
G01 X56.912Y29.061
G01 X58.411Y27.562
G01 X58.535Y27.605
G01 X58.66Y27.648
G01 X58.784Y27.691
G01 X58.908Y27.733
G01 X59.033Y27.776
G01 X59.157Y27.76
G01 X59.282Y27.743
G01 X59.406Y27.727
G01 X59.531Y27.71
G01 X59.655Y27.694
G01 X59.779Y27.618
G01 X59.904Y27.542
G01 X60.028Y27.466
G01 X60.153Y27.391
G01 X60.277Y27.255
G01 X60.401Y27.061
G01 X60.526Y26.866
G01 X60.65Y26.257
G01 X60.525Y25.68
G01 X60.401Y25.4
G01 X60.277Y25.238
G01 X60.152Y25.136
G01 X60.028Y25.034
G01 X59.903Y24.932
G01 X59.779Y24.889
G01 X59.654Y24.846
G01 X59.53Y24.804
G01 X59.406Y24.761
G01 X59.281Y24.777
G01 X59.157Y24.734
G01 X59.032Y24.751
G01 X58.908Y24.767
G01 X58.784Y24.784
G01 X58.659Y24.86
G01 X58.535Y24.876
G01 X58.41Y24.952
G01 X58.026Y24.568
G01 X58.026Y24.568
G01 X58.026Y18.875
G01 X58.578Y18.875
G01 X58.578Y16.875
G01 X57.572Y16.875
G01 X53.979Y13.282
G01 X53.979Y13.282
G01 X53.979Y12.182
G01 X54.366Y11.795
G01 X55.914Y11.795
M5
G01 X54.47Y24.757
M3
G01 X54.47Y22.74
G01 X55.486Y21.724
G01 X55.486Y18.875
G01 X56.038Y18.875
G01 X56.038Y16.875
G01 X54.133Y16.875
G01 X54.133Y18.875
G01 X54.686Y18.875
G01 X54.686Y21.392
G01 X54.686Y21.392
G01 X53.67Y22.408
G01 X53.67Y24.757
G01 X52.57Y24.757
G01 X52.57Y25.857
G01 X49.877Y25.857
G01 X49.877Y25.711
G01 X48.277Y25.711
G01 X48.277Y27.311
G01 X49.877Y27.311
G01 X49.877Y26.657
G01 X52.57Y26.657
G01 X52.57Y26.657
G01 X52.57Y27.757
G01 X55.57Y27.757
G01 X55.57Y24.757
G01 X54.47Y24.757
M5
G01 X11.614Y9.093
M3
G01 X10.846Y9.093
G01 X8.47Y11.469
G01 X8.454Y11.464
G01 X8.437Y11.459
G01 X8.419Y11.455
G01 X8.401Y11.451
G01 X8.382Y11.447
G01 X8.363Y11.444
G01 X8.342Y11.44
G01 X8.321Y11.438
G01 X8.298Y11.435
G01 X8.275Y11.434
G01 X8.249Y11.432
G01 X8.222Y11.432
G01 X8.193Y11.433
G01 X8.16Y11.434
G01 X8.124Y11.438
G01 X8.081Y11.444
G01 X8.026Y11.455
G01 X7.898Y11.497
G01 X7.777Y11.558
G01 X7.731Y11.589
G01 X7.696Y11.615
G01 X7.668Y11.639
G01 X7.644Y11.66
G01 X7.622Y11.681
G01 X7.604Y11.7
G01 X7.586Y11.719
G01 X7.571Y11.737
G01 X7.557Y11.754
G01 X7.543Y11.771
G01 X7.531Y11.788
G01 X7.52Y11.804
G01 X7.509Y11.82
G01 X7.499Y11.836
G01 X7.49Y11.852
G01 X7.481Y11.867
G01 X7.473Y11.882
G01 X7.207Y11.882
G01 X7.207Y11.882
G01 X6.225Y12.864
G01 X6.225Y21.593
G01 X3.892Y23.926
G01 X3.814Y23.83
G01 X3.736Y23.76
G01 X3.658Y23.707
G01 X3.581Y23.667
G01 X3.504Y23.638
G01 X3.427Y23.618
G01 X3.35Y23.606
G01 X3.274Y23.602
G01 X3.197Y23.606
G01 X3.121Y23.618
G01 X3.045Y23.638
G01 X2.969Y23.667
G01 X2.894Y23.706
G01 X2.818Y23.757
G01 X2.743Y23.823
G01 X2.669Y23.911
G01 X2.595Y24.036
G01 X2.525Y24.368
G01 X2.608Y24.696
G01 X2.687Y24.818
G01 X2.766Y24.902
G01 X2.843Y24.965
G01 X2.921Y25.013
G01 X2.998Y25.049
G01 X3.075Y25.075
G01 X3.152Y25.092
G01 X3.229Y25.101
G01 X3.305Y25.101
G01 X3.381Y25.094
G01 X3.458Y25.079
G01 X3.534Y25.056
G01 X3.609Y25.023
G01 X3.685Y24.98
G01 X3.76Y24.924
G01 X3.835Y24.851
G01 X3.909Y24.752
G01 X4.198Y24.752
G01 X4.198Y24.752
G01 X7.025Y21.925
G01 X7.025Y13.196
G01 X7.497Y12.724
G01 X7.52Y12.759
G01 X7.544Y12.793
G01 X7.571Y12.827
G01 X7.599Y12.859
G01 X7.63Y12.891
G01 X7.663Y12.921
G01 X7.698Y12.951
G01 X7.736Y12.979
G01 X7.777Y13.006
G01 X7.822Y13.031
G01 X7.869Y13.055
G01 X7.922Y13.077
G01 X7.979Y13.096
G01 X8.043Y13.113
G01 X8.117Y13.125
G01 X8.203Y13.132
G01 X8.315Y13.127
G01 X8.57Y13.058
G01 X8.792Y12.913
G01 X8.87Y12.833
G01 X8.923Y12.764
G01 X8.962Y12.701
G01 X8.993Y12.642
G01 X9.017Y12.587
G01 X9.035Y12.533
G01 X9.049Y12.481
G01 X9.06Y12.431
G01 X9.067Y12.383
G01 X9.071Y12.336
G01 X9.073Y12.29
G01 X9.072Y12.245
G01 X9.069Y12.201
G01 X9.064Y12.158
G01 X9.057Y12.116
G01 X9.047Y12.075
G01 X9.036Y12.035
G01 X11.178Y9.893
G01 X11.178Y9.893
G01 X11.614Y9.893
G01 X11.709Y10.044
G01 X11.803Y10.149
G01 X11.898Y10.226
G01 X11.993Y10.285
G01 X12.088Y10.329
G01 X12.183Y10.361
G01 X12.277Y10.382
G01 X12.372Y10.392
G01 X12.467Y10.392
G01 X12.562Y10.382
G01 X12.656Y10.361
G01 X12.751Y10.33
G01 X12.846Y10.286
G01 X12.941Y10.227
G01 X13.036Y10.15
G01 X13.13Y10.046
G01 X13.225Y9.895
G01 X13.32Y9.493
G01 X13.225Y9.091
G01 X13.13Y8.94
G01 X13.036Y8.836
G01 X12.941Y8.759
G01 X12.846Y8.7
G01 X12.751Y8.656
G01 X12.656Y8.625
G01 X12.562Y8.604
G01 X12.467Y8.594
G01 X12.372Y8.594
G01 X12.277Y8.604
G01 X12.183Y8.625
G01 X12.088Y8.657
G01 X11.993Y8.701
G01 X11.898Y8.76
G01 X11.803Y8.837
G01 X11.709Y8.942
G01 X11.614Y9.093
M5
G01 X70.332Y9.061
M3
G01 X69.729Y8.458
G01 X69.094Y8.458
G01 X68.432Y7.795
G01 X68.456Y7.653
G01 X68.457Y7.535
G01 X68.444Y7.431
G01 X68.419Y7.339
G01 X68.386Y7.254
G01 X68.346Y7.177
G01 X68.298Y7.107
G01 X68.245Y7.043
G01 X68.185Y6.986
G01 X68.12Y6.934
G01 X68.048Y6.889
G01 X67.969Y6.85
G01 X67.882Y6.82
G01 X67.786Y6.798
G01 X67.679Y6.788
G01 X67.555Y6.795
G01 X67.403Y6.83
G01 X67.093Y7.022
G01 X66.901Y7.332
G01 X66.866Y7.484
G01 X66.859Y7.608
G01 X66.869Y7.716
G01 X66.891Y7.811
G01 X66.921Y7.898
G01 X66.96Y7.977
G01 X67.005Y8.049
G01 X67.057Y8.115
G01 X67.114Y8.174
G01 X67.178Y8.228
G01 X67.249Y8.275
G01 X67.325Y8.315
G01 X67.41Y8.348
G01 X67.502Y8.373
G01 X67.606Y8.386
G01 X67.724Y8.385
G01 X67.866Y8.361
G01 X68.764Y9.258
G01 X68.764Y9.258
G01 X69.399Y9.258
G01 X69.767Y9.626
G01 X69.735Y9.784
G01 X69.731Y9.914
G01 X69.744Y10.027
G01 X69.769Y10.128
G01 X69.803Y10.219
G01 X69.846Y10.302
G01 X69.896Y10.378
G01 X69.952Y10.447
G01 X70.016Y10.509
G01 X70.085Y10.565
G01 X70.162Y10.614
G01 X70.246Y10.656
G01 X70.339Y10.689
G01 X70.441Y10.713
G01 X70.556Y10.724
G01 X70.688Y10.717
G01 X70.851Y10.68
G01 X71.181Y10.475
G01 X71.386Y10.144
G01 X71.423Y9.981
G01 X71.43Y9.849
G01 X71.418Y9.734
G01 X71.395Y9.632
G01 X71.362Y9.54
G01 X71.32Y9.456
G01 X71.271Y9.379
G01 X71.215Y9.309
G01 X71.153Y9.246
G01 X71.083Y9.189
G01 X71.008Y9.139
G01 X70.924Y9.097
G01 X70.833Y9.063
G01 X70.732Y9.038
G01 X70.619Y9.025
G01 X70.49Y9.029
G01 X70.332Y9.061
M5
G01 X40.551Y18.999
M3
G01 X39.807Y18.999
G01 X38.684Y20.122
G01 X38.684Y21.077
G01 X38.566Y21.16
G01 X38.482Y21.243
G01 X38.419Y21.326
G01 X38.37Y21.409
G01 X38.334Y21.492
G01 X38.308Y21.575
G01 X38.292Y21.658
G01 X38.285Y21.741
G01 X38.286Y21.824
G01 X38.296Y21.906
G01 X38.315Y21.989
G01 X38.343Y22.072
G01 X38.383Y22.155
G01 X38.435Y22.238
G01 X38.504Y22.321
G01 X38.596Y22.404
G01 X38.729Y22.487
G01 X39.084Y22.57
G01 X39.439Y22.487
G01 X39.572Y22.404
G01 X39.664Y22.321
G01 X39.733Y22.238
G01 X39.785Y22.155
G01 X39.825Y22.072
G01 X39.853Y21.989
G01 X39.872Y21.906
G01 X39.882Y21.824
G01 X39.883Y21.741
G01 X39.876Y21.658
G01 X39.86Y21.575
G01 X39.834Y21.492
G01 X39.798Y21.409
G01 X39.749Y21.326
G01 X39.686Y21.243
G01 X39.602Y21.16
G01 X39.484Y21.077
G01 X39.484Y20.454
G01 X39.484Y20.454
G01 X40.139Y19.799
G01 X40.551Y19.799
G01 X40.551Y20.199
G01 X42.951Y20.199
G01 X42.951Y18.599
G01 X40.551Y18.599
G01 X40.551Y18.999
M5
G01 X40.551Y11.379
M3
G01 X40.138Y11.379
G01 X39.484Y10.725
G01 X39.484Y10.313
G01 X39.602Y10.23
G01 X39.686Y10.147
G01 X39.749Y10.064
G01 X39.798Y9.981
G01 X39.834Y9.898
G01 X39.86Y9.815
G01 X39.876Y9.732
G01 X39.883Y9.649
G01 X39.882Y9.566
G01 X39.872Y9.484
G01 X39.853Y9.401
G01 X39.825Y9.318
G01 X39.785Y9.235
G01 X39.733Y9.152
G01 X39.664Y9.069
G01 X39.572Y8.986
G01 X39.439Y8.903
G01 X39.084Y8.82
G01 X38.729Y8.903
G01 X38.596Y8.986
G01 X38.504Y9.069
G01 X38.435Y9.152
G01 X38.383Y9.235
G01 X38.343Y9.318
G01 X38.315Y9.401
G01 X38.296Y9.484
G01 X38.286Y9.566
G01 X38.285Y9.649
G01 X38.292Y9.732
G01 X38.308Y9.815
G01 X38.334Y9.898
G01 X38.37Y9.981
G01 X38.419Y10.064
G01 X38.482Y10.147
G01 X38.566Y10.23
G01 X38.684Y10.313
G01 X38.684Y11.055
G01 X38.684Y11.055
G01 X39.808Y12.179
G01 X40.551Y12.179
G01 X40.551Y12.579
G01 X42.951Y12.579
G01 X42.951Y10.979
G01 X40.551Y10.979
G01 X40.551Y11.379
M5
G01 X70.295Y11.564
M3
G01 X69.602Y10.871
G01 X68.967Y10.871
G01 X68.432Y10.335
G01 X68.456Y10.193
G01 X68.457Y10.075
G01 X68.444Y9.971
G01 X68.419Y9.878
G01 X68.386Y9.794
G01 X68.346Y9.717
G01 X68.298Y9.647
G01 X68.245Y9.583
G01 X68.185Y9.526
G01 X68.12Y9.474
G01 X68.048Y9.429
G01 X67.969Y9.39
G01 X67.882Y9.36
G01 X67.786Y9.338
G01 X67.679Y9.328
G01 X67.555Y9.335
G01 X67.402Y9.37
G01 X67.093Y9.563
G01 X66.901Y9.872
G01 X66.866Y10.025
G01 X66.859Y10.149
G01 X66.869Y10.256
G01 X66.891Y10.352
G01 X66.922Y10.438
G01 X66.96Y10.517
G01 X67.005Y10.589
G01 X67.057Y10.655
G01 X67.115Y10.714
G01 X67.179Y10.768
G01 X67.249Y10.815
G01 X67.326Y10.855
G01 X67.41Y10.888
G01 X67.503Y10.913
G01 X67.607Y10.926
G01 X67.725Y10.925
G01 X67.867Y10.9
G01 X68.637Y11.671
G01 X68.637Y11.671
G01 X69.272Y11.671
G01 X69.73Y12.129
G01 X69.73Y13.264
G01 X71.43Y13.264
G01 X71.43Y11.564
G01 X70.295Y11.564
M5
G01 X28.277Y7.226
M3
G01 X28.505Y7.226
G01 X30.691Y9.412
G01 X30.667Y9.554
G01 X30.666Y9.672
G01 X30.679Y9.776
G01 X30.704Y9.869
G01 X30.737Y9.953
G01 X30.777Y10.03
G01 X30.824Y10.1
G01 X30.878Y10.164
G01 X30.937Y10.222
G01 X31.003Y10.274
G01 X31.075Y10.319
G01 X31.154Y10.357
G01 X31.24Y10.388
G01 X31.336Y10.41
G01 X31.443Y10.42
G01 X31.567Y10.413
G01 X31.72Y10.378
G01 X32.029Y10.186
G01 X32.222Y9.877
G01 X32.257Y9.724
G01 X32.264Y9.6
G01 X32.254Y9.493
G01 X32.232Y9.397
G01 X32.202Y9.31
G01 X32.163Y9.232
G01 X32.118Y9.159
G01 X32.067Y9.094
G01 X32.009Y9.034
G01 X31.945Y8.981
G01 X31.875Y8.934
G01 X31.798Y8.893
G01 X31.714Y8.86
G01 X31.621Y8.836
G01 X31.517Y8.822
G01 X31.399Y8.823
G01 X31.257Y8.847
G01 X28.835Y6.426
G01 X28.835Y6.426
G01 X28.277Y6.426
G01 X28.277Y6.301
G01 X26.777Y6.301
G01 X26.777Y7.351
G01 X28.277Y7.351
G01 X28.277Y7.226
M5
G01 X30.575Y12.216
M3
G01 X28.277Y12.216
G01 X28.277Y12.091
G01 X26.777Y12.091
G01 X26.777Y13.141
G01 X28.277Y13.141
G01 X28.277Y13.016
G01 X30.245Y13.016
G01 X30.245Y13.016
G01 X30.691Y13.463
G01 X30.667Y13.605
G01 X30.666Y13.723
G01 X30.679Y13.826
G01 X30.704Y13.919
G01 X30.737Y14.004
G01 X30.777Y14.08
G01 X30.824Y14.151
G01 X30.878Y14.214
G01 X30.937Y14.272
G01 X31.003Y14.324
G01 X31.075Y14.369
G01 X31.154Y14.408
G01 X31.241Y14.438
G01 X31.336Y14.46
G01 X31.444Y14.47
G01 X31.567Y14.463
G01 X31.72Y14.428
G01 X32.03Y14.236
G01 X32.222Y13.926
G01 X32.257Y13.774
G01 X32.264Y13.65
G01 X32.254Y13.542
G01 X32.232Y13.447
G01 X32.202Y13.36
G01 X32.163Y13.281
G01 X32.118Y13.209
G01 X32.066Y13.143
G01 X32.009Y13.084
G01 X31.945Y13.031
G01 X31.875Y12.983
G01 X31.798Y12.943
G01 X31.713Y12.91
G01 X31.621Y12.885
G01 X31.517Y12.872
G01 X31.399Y12.873
G01 X31.257Y12.897
G01 X30.575Y12.216
G01 X30.575Y12.216
M5
G01 X30.612Y18.006
M3
G01 X28.277Y18.006
G01 X28.277Y17.881
G01 X26.777Y17.881
G01 X26.777Y18.931
G01 X28.277Y18.931
G01 X28.277Y18.806
G01 X30.944Y18.806
G01 X30.944Y18.806
G01 X31.257Y18.493
G01 X31.399Y18.517
G01 X31.517Y18.518
G01 X31.621Y18.505
G01 X31.714Y18.48
G01 X31.798Y18.447
G01 X31.875Y18.407
G01 X31.945Y18.359
G01 X32.009Y18.306
G01 X32.066Y18.246
G01 X32.118Y18.181
G01 X32.163Y18.109
G01 X32.202Y18.03
G01 X32.232Y17.943
G01 X32.254Y17.847
G01 X32.264Y17.74
G01 X32.257Y17.616
G01 X32.222Y17.464
G01 X32.03Y17.154
G01 X31.72Y16.962
G01 X31.568Y16.927
G01 X31.444Y16.92
G01 X31.337Y16.93
G01 X31.241Y16.952
G01 X31.154Y16.982
G01 X31.075Y17.021
G01 X31.003Y17.066
G01 X30.938Y17.118
G01 X30.878Y17.175
G01 X30.825Y17.239
G01 X30.777Y17.309
G01 X30.737Y17.386
G01 X30.704Y17.47
G01 X30.68Y17.563
G01 X30.666Y17.667
G01 X30.667Y17.785
G01 X30.691Y17.927
G01 X30.612Y18.006
G01 X30.612Y18.006
M5
G01 X28.277Y24.596
M3
G01 X29.204Y24.596
G01 X31.257Y22.543
G01 X31.399Y22.567
G01 X31.517Y22.568
G01 X31.621Y22.555
G01 X31.714Y22.53
G01 X31.798Y22.497
G01 X31.875Y22.457
G01 X31.945Y22.409
G01 X32.009Y22.356
G01 X32.066Y22.296
G01 X32.118Y22.231
G01 X32.163Y22.159
G01 X32.202Y22.08
G01 X32.232Y21.993
G01 X32.254Y21.897
G01 X32.264Y21.79
G01 X32.257Y21.666
G01 X32.222Y21.514
G01 X32.03Y21.204
G01 X31.72Y21.012
G01 X31.568Y20.977
G01 X31.444Y20.97
G01 X31.337Y20.98
G01 X31.241Y21.002
G01 X31.154Y21.032
G01 X31.075Y21.071
G01 X31.003Y21.116
G01 X30.938Y21.168
G01 X30.878Y21.225
G01 X30.825Y21.289
G01 X30.777Y21.359
G01 X30.737Y21.436
G01 X30.704Y21.52
G01 X30.68Y21.613
G01 X30.666Y21.717
G01 X30.667Y21.835
G01 X30.691Y21.977
G01 X28.872Y23.796
G01 X28.872Y23.796
G01 X28.277Y23.796
G01 X28.277Y23.671
G01 X26.777Y23.671
G01 X26.777Y24.721
G01 X28.277Y24.721
G01 X28.277Y24.596
M5
G01 X40.551Y13.919
M3
G01 X39.898Y13.919
G01 X39.857Y13.878
G01 X39.881Y13.736
G01 X39.882Y13.617
G01 X39.869Y13.514
G01 X39.844Y13.421
G01 X39.811Y13.337
G01 X39.771Y13.26
G01 X39.724Y13.19
G01 X39.67Y13.126
G01 X39.611Y13.068
G01 X39.545Y13.016
G01 X39.473Y12.971
G01 X39.394Y12.933
G01 X39.308Y12.902
G01 X39.212Y12.88
G01 X39.104Y12.87
G01 X38.981Y12.877
G01 X38.828Y12.912
G01 X38.518Y13.104
G01 X38.326Y13.414
G01 X38.291Y13.566
G01 X38.284Y13.69
G01 X38.294Y13.797
G01 X38.316Y13.893
G01 X38.346Y13.98
G01 X38.385Y14.059
G01 X38.43Y14.131
G01 X38.482Y14.196
G01 X38.539Y14.256
G01 X38.603Y14.309
G01 X38.673Y14.357
G01 X38.75Y14.397
G01 X38.835Y14.43
G01 X38.927Y14.455
G01 X39.031Y14.468
G01 X39.149Y14.467
G01 X39.291Y14.443
G01 X39.568Y14.719
G01 X39.568Y14.719
G01 X40.551Y14.719
G01 X40.551Y15.119
G01 X42.951Y15.119
G01 X42.951Y13.519
G01 X40.551Y13.519
G01 X40.551Y13.919
M5
G01 X40.551Y16.459
M3
G01 X39.779Y16.459
G01 X39.291Y16.947
G01 X39.149Y16.923
G01 X39.031Y16.922
G01 X38.927Y16.936
G01 X38.834Y16.96
G01 X38.75Y16.993
G01 X38.673Y17.033
G01 X38.603Y17.081
G01 X38.539Y17.134
G01 X38.482Y17.194
G01 X38.43Y17.259
G01 X38.385Y17.331
G01 X38.346Y17.41
G01 X38.316Y17.497
G01 X38.294Y17.593
G01 X38.284Y17.7
G01 X38.291Y17.824
G01 X38.326Y17.976
G01 X38.518Y18.286
G01 X38.828Y18.478
G01 X38.98Y18.513
G01 X39.104Y18.52
G01 X39.211Y18.51
G01 X39.307Y18.488
G01 X39.394Y18.458
G01 X39.473Y18.419
G01 X39.545Y18.374
G01 X39.61Y18.322
G01 X39.67Y18.265
G01 X39.723Y18.201
G01 X39.771Y18.131
G01 X39.811Y18.054
G01 X39.844Y17.97
G01 X39.868Y17.877
G01 X39.882Y17.773
G01 X39.881Y17.655
G01 X39.857Y17.513
G01 X40.111Y17.259
G01 X40.111Y17.259
G01 X40.551Y17.259
G01 X40.551Y17.659
G01 X42.951Y17.659
G01 X42.951Y16.059
G01 X40.551Y16.059
G01 X40.551Y16.459
M5
G01 X48.171Y12.579
M3
G01 X50.571Y12.579
G01 X50.571Y10.979
G01 X48.171Y10.979
G01 X48.171Y12.579
G01 X48.171Y12.579
M5
G01 X48.171Y10.039
M3
G01 X50.571Y10.039
G01 X50.571Y8.439
G01 X48.171Y8.439
G01 X48.171Y10.039
G01 X48.171Y10.039
M5
G01 X48.171Y7.499
M3
G01 X50.571Y7.499
G01 X50.571Y5.899
G01 X48.171Y5.899
G01 X48.171Y7.499
G01 X48.171Y7.499
M5
G01 X40.551Y4.959
M3
G01 X42.951Y4.959
G01 X42.951Y3.359
G01 X40.551Y3.359
G01 X40.551Y4.959
G01 X40.551Y4.959
M5
G01 X40.551Y7.499
M3
G01 X42.951Y7.499
G01 X42.951Y5.899
G01 X40.551Y5.899
G01 X40.551Y7.499
G01 X40.551Y7.499
M5
G01 X40.551Y10.039
M3
G01 X42.951Y10.039
G01 X42.951Y8.439
G01 X40.551Y8.439
G01 X40.551Y10.039
G01 X40.551Y10.039
M5
G01 X2.0Y2.0
M3
G01 X74.771Y2.0
G01 X74.771Y30.321
G01 X2.0Y30.321
G01 X2.0Y2.0
M5

M5 ; Disable End-Effector Signal

; Returning the Deactivating Tool-1
C0 ; PWM Tool select demultiplexer to select tool zero which is the empty tool slot in multiplexers
#TODO X0Y0Z0 ;  ;Remove tool offset coordinate
G00X165Y0Z10.5 ; Go to Tool-1 Home Pos
G00X92 ; Enter Female Kinematic Mount Home Pos
A0 ; Latch OFF Kinematic Mount
G4 P5 ; Wait for Kinematic Mount to fully detach
G00X188 ; Exit Female Kinematic Mount Home Pos

; Machine deinitialization Sequence... 

G00X0Y0Z0
B0 ; Turn Machine OFF
