(G-CODE GENERATED BY FLATCAM v8.994 - www.flatcam.org - Version Date: 2020/11/7)

(Name: PSU controller-B_Cu.gbr_iso_combined_cnc)
(Type: G-code from Geometry)
(Units: MM)

(Created on Tuesday, 11 July 2023 at 06:35)

(This preprocessor is the default preprocessor used by FlatCAM.)
(It is made to work with MACH3 compatible motion controllers.)

(TOOL DIAMETER: 0.1 mm)
(Feedrate_XY: 120.0 mm/min)
(Feedrate_Z: 60.0 mm/min)
(Feedrate rapids 1500.0 mm/min)

(Z_Cut: -0.0 mm)
(Z_Move: 2.0 mm)
(Z Start: None mm)
(Z End: 15.0 mm)
(X,Y End: None mm)
(Steps per circle: 64)
(Preprocessor Geometry: default)

(X range:    0.2400 ...   48.0650  mm)
(Y range:  -32.7850 ...   -0.2000  mm)

(Spindle Speed: 0.0 RPM)
G21
G90
G94

G01 F120.00

M5
G00 Z15.0000
G00 X0.0000 Y0.0000
T1
M6    
(MSG, Change to Tool Dia = 0.1000)
M0
G00 Z15.0000

M03
G01 F120.00
G00 X4.7590 Y-9.0102
G01 F60.00
G01 Z-0.0000
G01 F120.00
G01 X4.8016 Y-9.0675
G01 X4.8543 Y-9.1257
G01 X4.9125 Y-9.1784
G01 X4.9755 Y-9.2252
G01 X5.0429 Y-9.2655
G01 X5.1139 Y-9.2991
G01 X5.1878 Y-9.3256
G01 X5.2639 Y-9.3446
G01 X5.3416 Y-9.3561
G01 X5.4200 Y-9.3600
G01 X5.4984 Y-9.3561
G01 X5.5761 Y-9.3446
G01 X5.6522 Y-9.3256
G01 X5.7261 Y-9.2991
G01 X5.7971 Y-9.2655
G01 X5.8645 Y-9.2252
G01 X5.9275 Y-9.1784
G01 X5.9839 Y-9.1274
G01 X6.0384 Y-9.0675
G01 X6.0852 Y-9.0045
G01 X6.1243 Y-8.9393
G01 X6.1591 Y-8.8661
G01 X6.1856 Y-8.7922
G01 X6.2041 Y-8.7185
G01 X6.2161 Y-8.6384
G01 X6.2199 Y-8.5575
G01 X6.2161 Y-8.4816
G01 X6.2057 Y-8.4109
G01 X7.1179 Y-7.4988
G01 X7.1476 Y-7.4660
G01 X7.1746 Y-7.4295
G01 X7.1977 Y-7.3905
G01 X7.2155 Y-7.3527
G01 X7.2296 Y-7.3134
G01 X7.2411 Y-7.2683
G01 X7.2478 Y-7.2221
G01 X7.2498 Y-7.1804
G01 X7.2498 Y-5.9622
G01 X7.2777 Y-5.9245
G01 X7.3067 Y-5.8761
G01 X7.3308 Y-5.8250
G01 X7.3490 Y-5.7742
G01 X7.3639 Y-5.7148
G01 X7.3718 Y-5.6614
G01 X7.3746 Y-5.6062
G01 X7.3746 Y-5.1538
G01 X7.3718 Y-5.0986
G01 X7.3639 Y-5.0452
G01 X7.3498 Y-4.9881
G01 X7.3298 Y-4.9327
G01 X7.3055 Y-4.8818
G01 X7.2777 Y-4.8355
G01 X7.2498 Y-4.7978
G01 X7.2498 Y-4.0165
G01 X9.4161 Y-1.8502
G01 X31.7335 Y-1.8502
G01 X33.2548 Y-3.3715
G01 X33.2548 Y-7.0298
G01 X32.1798 Y-8.1048
G01 X28.3665 Y-8.1048
G01 X27.2546 Y-6.9929
G01 X27.2765 Y-6.9463
G01 X27.3194 Y-6.8262
G01 X27.3500 Y-6.7036
G01 X27.3688 Y-6.5762
G01 X27.3750 Y-6.4500
G01 X27.3687 Y-6.3226
G01 X27.3500 Y-6.1964
G01 X27.3194 Y-6.0738
G01 X27.2760 Y-5.9525
G01 X27.2226 Y-5.8394
G01 X27.1545 Y-5.7258
G01 X27.0799 Y-5.6253
G01 X26.9942 Y-5.5308
G01 X26.8997 Y-5.4451
G01 X26.7972 Y-5.3691
G01 X26.6878 Y-5.3035
G01 X26.5725 Y-5.2490
G01 X26.4524 Y-5.2060
G01 X26.3262 Y-5.1746
G01 X26.2024 Y-5.1563
G01 X26.0725 Y-5.1501
G01 X25.9476 Y-5.1563
G01 X25.8238 Y-5.1746
G01 X25.7000 Y-5.2053
G01 X25.5775 Y-5.2490
G01 X25.4622 Y-5.3035
G01 X25.3528 Y-5.3691
G01 X25.2503 Y-5.4451
G01 X25.1558 Y-5.5308
G01 X25.0701 Y-5.6253
G01 X24.9941 Y-5.7278
G01 X24.9279 Y-5.8383
G01 X24.8740 Y-5.9525
G01 X24.8317 Y-6.0703
G01 X24.7996 Y-6.1988
G01 X24.7813 Y-6.3226
G01 X24.7750 Y-6.4500
G01 X24.7813 Y-6.5774
G01 X24.7996 Y-6.7012
G01 X24.8317 Y-6.8297
G01 X24.8740 Y-6.9475
G01 X24.9285 Y-7.0628
G01 X24.9955 Y-7.1742
G01 X25.0701 Y-7.2747
G01 X25.1558 Y-7.3692
G01 X25.2503 Y-7.4549
G01 X25.3508 Y-7.5295
G01 X25.4622 Y-7.5965
G01 X25.5775 Y-7.6510
G01 X25.6953 Y-7.6933
G01 X25.8226 Y-7.7252
G01 X25.9476 Y-7.7437
G01 X26.0725 Y-7.7499
G01 X26.2036 Y-7.7436
G01 X26.3286 Y-7.7250
G01 X26.4512 Y-7.6944
G01 X26.5713 Y-7.6515
G01 X26.6179 Y-7.6296
G01 X27.8617 Y-8.8733
G01 X27.8925 Y-8.9014
G01 X27.9320 Y-8.9306
G01 X27.9678 Y-8.9520
G01 X28.0077 Y-8.9709
G01 X28.0517 Y-8.9865
G01 X28.0922 Y-8.9965
G01 X28.1347 Y-9.0029
G01 X28.1800 Y-9.0052
G01 X32.3663 Y-9.0052
G01 X32.4129 Y-9.0027
G01 X32.4541 Y-8.9965
G01 X32.4946 Y-8.9865
G01 X32.5386 Y-8.9709
G01 X32.5807 Y-8.9508
G01 X32.6164 Y-8.9293
G01 X32.6500 Y-8.9045
G01 X32.6838 Y-8.8742
G01 X34.0233 Y-7.5346
G01 X34.0530 Y-7.5019
G01 X34.0793 Y-7.4664
G01 X34.1031 Y-7.4263
G01 X34.1209 Y-7.3886
G01 X34.1358 Y-7.3470
G01 X34.1470 Y-7.3017
G01 X34.1530 Y-7.2604
G01 X34.1552 Y-7.2175
G01 X34.1552 Y-3.1850
G01 X34.1530 Y-3.1409
G01 X34.1465 Y-3.0972
G01 X34.1350 Y-3.0520
G01 X34.1209 Y-3.0127
G01 X34.1020 Y-2.9728
G01 X34.0779 Y-2.9329
G01 X34.0530 Y-2.8994
G01 X34.0250 Y-2.8684
G01 X33.0069 Y-1.8502
G01 X38.6185 Y-1.8502
G01 X42.6754 Y-5.9071
G01 X42.6535 Y-5.9537
G01 X42.6106 Y-6.0738
G01 X42.5800 Y-6.1964
G01 X42.5612 Y-6.3238
G01 X42.5550 Y-6.4500
G01 X42.5613 Y-6.5774
G01 X42.5800 Y-6.7036
G01 X42.6106 Y-6.8262
G01 X42.6540 Y-6.9475
G01 X42.7074 Y-7.0606
G01 X42.7755 Y-7.1742
G01 X42.8501 Y-7.2747
G01 X42.9358 Y-7.3692
G01 X43.0303 Y-7.4549
G01 X43.1328 Y-7.5309
G01 X43.2422 Y-7.5965
G01 X43.3553 Y-7.6500
G01 X43.4776 Y-7.6940
G01 X43.6038 Y-7.7254
G01 X43.7276 Y-7.7437
G01 X43.8525 Y-7.7499
G01 X43.9849 Y-7.7434
G01 X44.1086 Y-7.7250
G01 X44.2300 Y-7.6947
G01 X44.3525 Y-7.6510
G01 X44.4700 Y-7.5953
G01 X44.5772 Y-7.5309
G01 X44.6778 Y-7.4564
G01 X44.7742 Y-7.3692
G01 X44.8599 Y-7.2747
G01 X44.9345 Y-7.1742
G01 X45.0015 Y-7.0628
G01 X45.0560 Y-6.9475
G01 X45.0983 Y-6.8297
G01 X45.1300 Y-6.7036
G01 X45.1489 Y-6.5750
G01 X45.1550 Y-6.4500
G01 X45.1488 Y-6.3238
G01 X45.1300 Y-6.1964
G01 X45.0983 Y-6.0703
G01 X45.0560 Y-5.9525
G01 X45.0026 Y-5.8394
G01 X44.9359 Y-5.7278
G01 X44.8599 Y-5.6253
G01 X44.7725 Y-5.5291
G01 X44.6797 Y-5.4451
G01 X44.5792 Y-5.3705
G01 X44.4689 Y-5.3041
G01 X44.3525 Y-5.2490
G01 X44.2300 Y-5.2053
G01 X44.1086 Y-5.1750
G01 X43.9849 Y-5.1566
G01 X43.8562 Y-5.1500
G01 X43.7276 Y-5.1563
G01 X43.6002 Y-5.1752
G01 X43.4765 Y-5.2063
G01 X43.3587 Y-5.2485
G01 X43.3121 Y-5.2704
G01 X39.1225 Y-1.0808
G01 X39.0906 Y-1.0520
G01 X39.0571 Y-1.0271
G01 X39.0172 Y-1.0030
G01 X38.9773 Y-0.9841
G01 X38.9380 Y-0.9700
G01 X38.8904 Y-0.9580
G01 X38.8491 Y-0.9520
G01 X38.8050 Y-0.9498
G01 X9.2296 Y-0.9498
G01 X9.1867 Y-0.9519
G01 X9.1417 Y-0.9584
G01 X9.1013 Y-0.9685
G01 X9.0550 Y-0.9851
G01 X9.0174 Y-1.0030
G01 X8.9795 Y-1.0257
G01 X8.9440 Y-1.0520
G01 X8.9121 Y-1.0808
G01 X6.4812 Y-3.5117
G01 X6.4516 Y-3.5444
G01 X6.4252 Y-3.5799
G01 X6.4025 Y-3.6178
G01 X6.3846 Y-3.6555
G01 X6.3688 Y-3.6993
G01 X6.3580 Y-3.7422
G01 X6.3515 Y-3.7859
G01 X6.3494 Y-3.8288
G01 X6.3494 Y-4.7978
G01 X6.3215 Y-4.8355
G01 X6.2925 Y-4.8839
G01 X6.2683 Y-4.9350
G01 X6.2501 Y-4.9858
G01 X6.2352 Y-5.0452
G01 X6.2273 Y-5.0986
G01 X6.2246 Y-5.1550
G01 X6.2246 Y-5.6062
G01 X6.2273 Y-5.6614
G01 X6.2352 Y-5.7148
G01 X6.2493 Y-5.7719
G01 X6.2693 Y-5.8273
G01 X6.2937 Y-5.8782
G01 X6.3215 Y-5.9245
G01 X6.3494 Y-5.9622
G01 X6.3494 Y-6.9939
G01 X5.5691 Y-7.7743
G01 X5.4984 Y-7.7639
G01 X5.4225 Y-7.7601
G01 X5.3416 Y-7.7639
G01 X5.2615 Y-7.7759
G01 X5.1878 Y-7.7944
G01 X5.1139 Y-7.8209
G01 X5.0407 Y-7.8557
G01 X4.9755 Y-7.8948
G01 X4.9125 Y-7.9416
G01 X4.8526 Y-7.9961
G01 X4.8016 Y-8.0525
G01 X4.7590 Y-8.1098
G01 X3.6030 Y-8.1098
G01 X3.5861 Y-8.0818
G01 X3.5378 Y-8.0167
G01 X3.4802 Y-7.9531
G01 X3.4192 Y-7.8979
G01 X3.3542 Y-7.8497
G01 X3.2796 Y-7.8048
G01 X3.2053 Y-7.7697
G01 X3.1291 Y-7.7424
G01 X3.0458 Y-7.7213
G01 X2.9633 Y-7.7091
G01 X2.8825 Y-7.7051
G01 X2.7967 Y-7.7091
G01 X2.7142 Y-7.7213
G01 X2.6356 Y-7.7409
G01 X2.5547 Y-7.7697
G01 X2.4793 Y-7.8054
G01 X2.4098 Y-7.8469
G01 X2.3389 Y-7.8995
G01 X2.2790 Y-7.9540
G01 X2.2229 Y-8.0158
G01 X2.1733 Y-8.0828
G01 X2.1316 Y-8.1522
G01 X2.0938 Y-8.2320
G01 X2.0666 Y-8.3083
G01 X2.0466 Y-8.3880
G01 X2.0341 Y-8.4717
G01 X2.0300 Y-8.5550
G01 X2.0341 Y-8.6383
G01 X2.0463 Y-8.7208
G01 X2.0666 Y-8.8017
G01 X2.0947 Y-8.8803
G01 X2.1304 Y-8.9557
G01 X2.1733 Y-9.0272
G01 X2.2229 Y-9.0942
G01 X2.2790 Y-9.1560
G01 X2.3408 Y-9.2121
G01 X2.4078 Y-9.2617
G01 X2.4793 Y-9.3046
G01 X2.5547 Y-9.3403
G01 X2.6333 Y-9.3684
G01 X2.7130 Y-9.3884
G01 X2.7991 Y-9.4011
G01 X2.8800 Y-9.4050
G01 X2.9633 Y-9.4009
G01 X3.0458 Y-9.3887
G01 X3.1244 Y-9.3691
G01 X3.2053 Y-9.3403
G01 X3.2807 Y-9.3046
G01 X3.3502 Y-9.2631
G01 X3.4202 Y-9.2113
G01 X3.4810 Y-9.1560
G01 X3.5363 Y-9.0952
G01 X3.5861 Y-9.0282
G01 X3.5970 Y-9.0102
G01 X4.7590 Y-9.0102
G00 Z2.0000
G00 X8.4102 Y-6.0675
G01 F60.00
G01 Z-0.0000
G01 F120.00
G01 X8.4353 Y-6.0487
G01 X8.4770 Y-6.0107
G01 X8.5141 Y-5.9698
G01 X8.5483 Y-5.9234
G01 X8.5767 Y-5.8761
G01 X8.6008 Y-5.8250
G01 X8.6198 Y-5.7719
G01 X8.6338 Y-5.7160
G01 X8.6418 Y-5.6614
G01 X8.6446 Y-5.6062
G01 X8.6445 Y-5.1525
G01 X8.6418 Y-5.0986
G01 X8.6335 Y-5.0428
G01 X8.6198 Y-4.9881
G01 X8.6013 Y-4.9361
G01 X8.5767 Y-4.8839
G01 X8.5477 Y-4.8355
G01 X8.5141 Y-4.7902
G01 X8.4762 Y-4.7484
G01 X8.4344 Y-4.7105
G01 X8.3890 Y-4.6769
G01 X8.3406 Y-4.6479
G01 X8.2896 Y-4.6238
G01 X8.2365 Y-4.6048
G01 X8.1818 Y-4.5910
G01 X8.1259 Y-4.5828
G01 X8.0696 Y-4.5800
G01 X8.0132 Y-4.5828
G01 X7.9574 Y-4.5910
G01 X7.9027 Y-4.6048
G01 X7.8507 Y-4.6233
G01 X7.7985 Y-4.6479
G01 X7.7481 Y-4.6783
G01 X7.7048 Y-4.7105
G01 X7.6648 Y-4.7467
G01 X7.6251 Y-4.7902
G01 X7.5902 Y-4.8376
G01 X7.5625 Y-4.8839
G01 X7.5393 Y-4.9327
G01 X7.5193 Y-4.9881
G01 X7.5054 Y-5.0440
G01 X7.4973 Y-5.0986
G01 X7.4946 Y-5.1538
G01 X7.4946 Y-5.6050
G01 X7.4975 Y-5.6626
G01 X7.5054 Y-5.7160
G01 X7.5098 Y-5.7341
G01 X7.5098 Y-7.8350
G01 X7.4868 Y-7.8489
G01 X7.4198 Y-7.8987
G01 X7.3590 Y-7.9540
G01 X7.3037 Y-8.0148
G01 X7.2519 Y-8.0848
G01 X7.2104 Y-8.1543
G01 X7.1752 Y-8.2286
G01 X7.1459 Y-8.3106
G01 X7.1263 Y-8.3892
G01 X7.1141 Y-8.4717
G01 X7.1101 Y-8.5575
G01 X7.1141 Y-8.6383
G01 X7.1263 Y-8.7208
G01 X7.1466 Y-8.8017
G01 X7.1747 Y-8.8803
G01 X7.2104 Y-8.9557
G01 X7.2533 Y-9.0272
G01 X7.3029 Y-9.0942
G01 X7.3590 Y-9.1560
G01 X7.4208 Y-9.2121
G01 X7.4888 Y-9.2624
G01 X7.5593 Y-9.3046
G01 X7.6347 Y-9.3403
G01 X7.7133 Y-9.3684
G01 X7.7954 Y-9.3889
G01 X7.8767 Y-9.4009
G01 X7.9612 Y-9.4050
G01 X8.0445 Y-9.4008
G01 X8.1246 Y-9.3889
G01 X8.1508 Y-9.3825
G01 X10.0498 Y-11.2815
G01 X10.0498 Y-15.4550
G01 X10.0268 Y-15.4689
G01 X9.9617 Y-15.5172
G01 X9.8981 Y-15.5748
G01 X9.8429 Y-15.6358
G01 X9.7947 Y-15.7008
G01 X9.7498 Y-15.7754
G01 X9.7147 Y-15.8497
G01 X9.6874 Y-15.9259
G01 X9.6663 Y-16.0092
G01 X9.6541 Y-16.0917
G01 X9.6501 Y-16.1725
G01 X9.6541 Y-16.2583
G01 X9.6663 Y-16.3408
G01 X9.6866 Y-16.4217
G01 X9.7147 Y-16.5003
G01 X9.7504 Y-16.5757
G01 X9.7933 Y-16.6472
G01 X9.8429 Y-16.7142
G01 X9.8990 Y-16.7760
G01 X9.9627 Y-16.8336
G01 X10.0278 Y-16.8817
G01 X10.1015 Y-16.9257
G01 X10.1747 Y-16.9603
G01 X10.2509 Y-16.9876
G01 X10.3318 Y-17.0081
G01 X10.4167 Y-17.0209
G01 X10.5000 Y-17.0250
G01 X10.5833 Y-17.0209
G01 X10.6658 Y-17.0087
G01 X10.7467 Y-16.9884
G01 X10.8230 Y-16.9612
G01 X10.9028 Y-16.9234
G01 X10.9722 Y-16.8817
G01 X11.0392 Y-16.8321
G01 X11.1010 Y-16.7760
G01 X11.1571 Y-16.7142
G01 X11.2067 Y-16.6472
G01 X11.2484 Y-16.5778
G01 X11.2862 Y-16.4980
G01 X11.3134 Y-16.4217
G01 X11.3337 Y-16.3408
G01 X11.3459 Y-16.2583
G01 X11.3499 Y-16.1775
G01 X11.3459 Y-16.0917
G01 X11.3331 Y-16.0068
G01 X11.3134 Y-15.9283
G01 X11.2862 Y-15.8520
G01 X11.2490 Y-15.7732
G01 X11.2067 Y-15.7028
G01 X11.1586 Y-15.6377
G01 X11.1019 Y-15.5748
G01 X11.0383 Y-15.5172
G01 X10.9732 Y-15.4689
G01 X10.9502 Y-15.4550
G01 X10.9502 Y-11.0950
G01 X10.9480 Y-11.0509
G01 X10.9415 Y-11.0072
G01 X10.9300 Y-10.9620
G01 X10.9159 Y-10.9227
G01 X10.8970 Y-10.8828
G01 X10.8729 Y-10.8429
G01 X10.8480 Y-10.8094
G01 X10.8192 Y-10.7775
G01 X8.7875 Y-8.7458
G01 X8.7939 Y-8.7196
G01 X8.8060 Y-8.6371
G01 X8.8100 Y-8.5550
G01 X8.8060 Y-8.4729
G01 X8.7931 Y-8.3868
G01 X8.7734 Y-8.3083
G01 X8.7453 Y-8.2297
G01 X8.7096 Y-8.1543
G01 X8.6681 Y-8.0848
G01 X8.6163 Y-8.0148
G01 X8.5610 Y-7.9540
G01 X8.5002 Y-7.8987
G01 X8.4332 Y-7.8489
G01 X8.4102 Y-7.8350
G01 X8.4102 Y-6.0675
G00 Z2.0000
G00 X12.4751 Y-18.6975
G01 F60.00
G01 Z-0.0000
G01 F120.00
G01 X12.4825 Y-18.8519
G01 X12.5048 Y-19.0024
G01 X12.5417 Y-19.1499
G01 X12.5930 Y-19.2932
G01 X12.6580 Y-19.4307
G01 X12.7362 Y-19.5611
G01 X12.8268 Y-19.6833
G01 X12.9290 Y-19.7960
G01 X13.0417 Y-19.8982
G01 X13.1639 Y-19.9888
G01 X13.2943 Y-20.0670
G01 X13.4318 Y-20.1320
G01 X13.5751 Y-20.1833
G01 X13.7226 Y-20.2202
G01 X13.8731 Y-20.2425
G01 X14.0250 Y-20.2500
G01 X14.1769 Y-20.2425
G01 X14.3274 Y-20.2202
G01 X14.4749 Y-20.1833
G01 X14.6182 Y-20.1320
G01 X14.7557 Y-20.0670
G01 X14.8861 Y-19.9888
G01 X15.0083 Y-19.8982
G01 X15.1210 Y-19.7960
G01 X15.2232 Y-19.6833
G01 X15.3138 Y-19.5611
G01 X15.3920 Y-19.4307
G01 X15.4570 Y-19.2932
G01 X15.5083 Y-19.1499
G01 X15.5452 Y-19.0024
G01 X15.5675 Y-18.8519
G01 X15.5750 Y-18.7000
G01 X15.5675 Y-18.5481
G01 X15.5452 Y-18.3976
G01 X15.5083 Y-18.2501
G01 X15.4570 Y-18.1068
G01 X15.3920 Y-17.9693
G01 X15.3138 Y-17.8389
G01 X15.2232 Y-17.7167
G01 X15.1210 Y-17.6040
G01 X15.0083 Y-17.5018
G01 X14.8861 Y-17.4112
G01 X14.7557 Y-17.3330
G01 X14.6182 Y-17.2680
G01 X14.4749 Y-17.2167
G01 X14.3274 Y-17.1798
G01 X14.1769 Y-17.1575
G01 X14.0250 Y-17.1500
G01 X13.8731 Y-17.1575
G01 X13.7226 Y-17.1798
G01 X13.5751 Y-17.2167
G01 X13.4318 Y-17.2680
G01 X13.2943 Y-17.3330
G01 X13.1639 Y-17.4112
G01 X13.0417 Y-17.5018
G01 X12.9290 Y-17.6040
G01 X12.8268 Y-17.7167
G01 X12.7362 Y-17.8389
G01 X12.6580 Y-17.9693
G01 X12.5930 Y-18.1068
G01 X12.5417 Y-18.2501
G01 X12.5048 Y-18.3976
G01 X12.4825 Y-18.5481
G01 X12.4751 Y-18.6975
G00 Z2.0000
G00 X7.5198 Y-25.1680
G01 F60.00
G01 Z-0.0000
G01 F120.00
G01 X7.5198 Y-26.8518
G01 X7.4700 Y-26.8817
G01 X7.4010 Y-26.9328
G01 X7.3345 Y-26.9927
G01 X7.2743 Y-27.0590
G01 X7.2210 Y-27.1310
G01 X7.1752 Y-27.2079
G01 X7.1385 Y-27.2856
G01 X7.1095 Y-27.3664
G01 X7.0873 Y-27.4544
G01 X7.0742 Y-27.5442
G01 X7.0700 Y-27.6300
G01 X7.0746 Y-27.7207
G01 X7.0873 Y-27.8056
G01 X7.1081 Y-27.8889
G01 X7.1376 Y-27.9721
G01 X7.1763 Y-28.0543
G01 X7.2217 Y-28.1300
G01 X7.2743 Y-28.2010
G01 X7.3336 Y-28.2664
G01 X7.3990 Y-28.3257
G01 X7.4700 Y-28.3783
G01 X7.5457 Y-28.4237
G01 X7.6279 Y-28.4624
G01 X7.7111 Y-28.4919
G01 X7.7944 Y-28.5127
G01 X7.8793 Y-28.5254
G01 X7.9700 Y-28.5300
G01 X8.0570 Y-28.5258
G01 X8.1456 Y-28.5127
G01 X8.2336 Y-28.4905
G01 X8.3144 Y-28.4615
G01 X8.3921 Y-28.4248
G01 X8.4690 Y-28.3790
G01 X8.5410 Y-28.3257
G01 X8.6073 Y-28.2655
G01 X8.6672 Y-28.1990
G01 X8.7183 Y-28.1300
G01 X8.7482 Y-28.0802
G01 X9.7318 Y-28.0802
G01 X9.7617 Y-28.1300
G01 X9.8151 Y-28.2019
G01 X9.8736 Y-28.2664
G01 X9.9381 Y-28.3249
G01 X10.0121 Y-28.3796
G01 X10.0857 Y-28.4237
G01 X10.1656 Y-28.4615
G01 X10.2487 Y-28.4912
G01 X10.3320 Y-28.5122
G01 X10.4230 Y-28.5258
G01 X10.5100 Y-28.5300
G01 X10.5970 Y-28.5258
G01 X10.6856 Y-28.5127
G01 X10.7420 Y-28.4986
G01 X12.0725 Y-29.8292
G01 X12.1063 Y-29.8595
G01 X12.1399 Y-29.8843
G01 X12.1756 Y-29.9058
G01 X12.2177 Y-29.9259
G01 X12.2617 Y-29.9415
G01 X12.3022 Y-29.9515
G01 X12.3434 Y-29.9577
G01 X12.3900 Y-29.9602
G01 X14.9450 Y-29.9602
G01 X14.9891 Y-29.9580
G01 X15.0328 Y-29.9515
G01 X15.0757 Y-29.9408
G01 X15.1184 Y-29.9254
G01 X15.1572 Y-29.9070
G01 X15.1951 Y-29.8843
G01 X15.2306 Y-29.8580
G01 X15.2633 Y-29.8283
G01 X17.1683 Y-27.9233
G01 X17.1995 Y-27.8887
G01 X17.2243 Y-27.8551
G01 X17.2458 Y-27.8194
G01 X17.2659 Y-27.7773
G01 X17.2815 Y-27.7333
G01 X17.2915 Y-27.6928
G01 X17.2977 Y-27.6516
G01 X17.3002 Y-27.6050
G01 X17.3002 Y-13.6350
G01 X17.2980 Y-13.5909
G01 X17.2920 Y-13.5496
G01 X17.2804 Y-13.5031
G01 X17.2649 Y-13.4605
G01 X17.2470 Y-13.4228
G01 X17.2256 Y-13.3870
G01 X17.1980 Y-13.3494
G01 X17.1683 Y-13.3167
G01 X12.0883 Y-8.2367
G01 X12.0575 Y-8.2086
G01 X12.0180 Y-8.1794
G01 X11.9822 Y-8.1580
G01 X11.9423 Y-8.1391
G01 X11.8983 Y-8.1235
G01 X11.8578 Y-8.1135
G01 X11.8153 Y-8.1071
G01 X11.7700 Y-8.1048
G01 X11.2200 Y-8.1048
G01 X11.2061 Y-8.0818
G01 X11.1578 Y-8.0167
G01 X11.1010 Y-7.9540
G01 X11.0383 Y-7.8972
G01 X10.9732 Y-7.8489
G01 X10.9502 Y-7.8350
G01 X10.9502 Y-6.5392
G01 X10.9480 Y-6.4963
G01 X10.9420 Y-6.4550
G01 X10.9304 Y-6.4086
G01 X10.9149 Y-6.3659
G01 X10.8970 Y-6.3282
G01 X10.8756 Y-6.2924
G01 X10.8480 Y-6.2548
G01 X10.8192 Y-6.2230
G01 X9.9146 Y-5.3183
G01 X9.9145 Y-4.6275
G01 X9.9131 Y-4.6179
G01 X9.9103 Y-4.6097
G01 X9.9061 Y-4.6022
G01 X9.9008 Y-4.5955
G01 X9.8944 Y-4.5898
G01 X9.8871 Y-4.5853
G01 X9.8791 Y-4.5822
G01 X9.8707 Y-4.5804
G01 X9.8646 Y-4.5800
G01 X8.8121 Y-4.5801
G01 X8.8024 Y-4.5815
G01 X8.7932 Y-4.5848
G01 X8.7848 Y-4.5898
G01 X8.7784 Y-4.5955
G01 X8.7723 Y-4.6033
G01 X8.7684 Y-4.6109
G01 X8.7655 Y-4.6202
G01 X8.7646 Y-4.6288
G01 X8.7646 Y-6.1300
G01 X8.7650 Y-6.1361
G01 X8.7664 Y-6.1433
G01 X8.7684 Y-6.1491
G01 X8.7717 Y-6.1557
G01 X8.7752 Y-6.1608
G01 X8.7801 Y-6.1662
G01 X8.7848 Y-6.1702
G01 X8.7899 Y-6.1735
G01 X8.7954 Y-6.1762
G01 X8.8012 Y-6.1782
G01 X8.8072 Y-6.1795
G01 X8.8133 Y-6.1800
G01 X9.5029 Y-6.1800
G01 X10.0498 Y-6.7269
G01 X10.0498 Y-7.8350
G01 X10.0268 Y-7.8489
G01 X9.9617 Y-7.8972
G01 X9.8998 Y-7.9531
G01 X9.8429 Y-8.0158
G01 X9.7926 Y-8.0838
G01 X9.7493 Y-8.1565
G01 X9.7147 Y-8.2297
G01 X9.6874 Y-8.3059
G01 X9.6663 Y-8.3892
G01 X9.6542 Y-8.4705
G01 X9.6500 Y-8.5550
G01 X9.6541 Y-8.6383
G01 X9.6663 Y-8.7208
G01 X9.6859 Y-8.7994
G01 X9.7157 Y-8.8825
G01 X9.7504 Y-8.9557
G01 X9.7939 Y-9.0282
G01 X9.8445 Y-9.0961
G01 X9.8990 Y-9.1560
G01 X9.9589 Y-9.2105
G01 X10.0278 Y-9.2617
G01 X10.0993 Y-9.3046
G01 X10.1770 Y-9.3412
G01 X10.2533 Y-9.3684
G01 X10.3318 Y-9.3881
G01 X10.4167 Y-9.4009
G01 X10.5012 Y-9.4050
G01 X10.5858 Y-9.4006
G01 X10.6658 Y-9.3887
G01 X10.7444 Y-9.3691
G01 X10.8253 Y-9.3403
G01 X10.9018 Y-9.3040
G01 X10.9722 Y-9.2617
G01 X11.0373 Y-9.2136
G01 X11.1002 Y-9.1569
G01 X11.1578 Y-9.0933
G01 X11.2061 Y-9.0282
G01 X11.2200 Y-9.0052
G01 X11.5835 Y-9.0052
G01 X16.3998 Y-13.8215
G01 X16.3998 Y-27.4185
G01 X14.7585 Y-29.0598
G01 X12.5765 Y-29.0598
G01 X11.3786 Y-27.8620
G01 X11.3927 Y-27.8056
G01 X11.4058 Y-27.7170
G01 X11.4100 Y-27.6300
G01 X11.4058 Y-27.5430
G01 X11.3927 Y-27.4544
G01 X11.3719 Y-27.3711
G01 X11.3410 Y-27.2845
G01 X11.3037 Y-27.2057
G01 X11.2583 Y-27.1300
G01 X11.2057 Y-27.0590
G01 X11.1481 Y-26.9954
G01 X11.0790 Y-26.9328
G01 X11.0100 Y-26.8817
G01 X10.9343 Y-26.8363
G01 X10.8544 Y-26.7985
G01 X10.7713 Y-26.7688
G01 X10.6856 Y-26.7473
G01 X10.5982 Y-26.7343
G01 X10.5100 Y-26.7300
G01 X10.4218 Y-26.7343
G01 X10.3344 Y-26.7473
G01 X10.2499 Y-26.7684
G01 X10.1656 Y-26.7985
G01 X10.0857 Y-26.8363
G01 X10.0100 Y-26.8817
G01 X9.9400 Y-26.9335
G01 X9.8736 Y-26.9936
G01 X9.8151 Y-27.0581
G01 X9.7617 Y-27.1300
G01 X9.7318 Y-27.1798
G01 X8.7482 Y-27.1798
G01 X8.7183 Y-27.1300
G01 X8.6665 Y-27.0600
G01 X8.6064 Y-26.9936
G01 X8.5400 Y-26.9335
G01 X8.4700 Y-26.8817
G01 X8.4202 Y-26.8518
G01 X8.4202 Y-25.1309
G01 X8.4792 Y-25.0871
G01 X8.5393 Y-25.0327
G01 X8.5971 Y-24.9692
G01 X8.6467 Y-24.9022
G01 X8.6884 Y-24.8328
G01 X8.7258 Y-24.7541
G01 X8.7534 Y-24.6767
G01 X8.7731 Y-24.5982
G01 X8.7860 Y-24.5121
G01 X8.7900 Y-24.4300
G01 X8.7860 Y-24.3479
G01 X8.7739 Y-24.2654
G01 X8.7675 Y-24.2392
G01 X9.6433 Y-23.3633
G01 X9.6714 Y-23.3325
G01 X9.6993 Y-23.2951
G01 X9.7231 Y-23.2550
G01 X9.7409 Y-23.2173
G01 X9.7550 Y-23.1780
G01 X9.7670 Y-23.1304
G01 X9.7730 Y-23.0891
G01 X9.7752 Y-23.0450
G01 X9.7752 Y-20.7050
G01 X9.7982 Y-20.6911
G01 X9.8633 Y-20.6428
G01 X9.9269 Y-20.5852
G01 X9.9821 Y-20.5242
G01 X10.0303 Y-20.4592
G01 X10.0752 Y-20.3846
G01 X10.1103 Y-20.3103
G01 X10.1376 Y-20.2341
G01 X10.1587 Y-20.1508
G01 X10.1711 Y-20.0659
G01 X10.1750 Y-19.9850
G01 X10.1711 Y-19.9041
G01 X10.1581 Y-19.8168
G01 X10.1384 Y-19.7383
G01 X10.1103 Y-19.6597
G01 X10.0734 Y-19.5822
G01 X10.0317 Y-19.5128
G01 X9.9821 Y-19.4458
G01 X9.9260 Y-19.3840
G01 X9.8661 Y-19.3295
G01 X9.7972 Y-19.2783
G01 X9.7257 Y-19.2354
G01 X9.6525 Y-19.2007
G01 X9.5694 Y-19.1709
G01 X9.4908 Y-19.1513
G01 X9.4083 Y-19.1391
G01 X9.3250 Y-19.1350
G01 X9.2417 Y-19.1391
G01 X9.1592 Y-19.1513
G01 X9.0783 Y-19.1716
G01 X8.9997 Y-19.1997
G01 X8.9243 Y-19.2354
G01 X8.8528 Y-19.2783
G01 X8.7858 Y-19.3279
G01 X8.7240 Y-19.3840
G01 X8.6679 Y-19.4458
G01 X8.6183 Y-19.5128
G01 X8.5754 Y-19.5843
G01 X8.5397 Y-19.6597
G01 X8.5120 Y-19.7371
G01 X8.4913 Y-19.8192
G01 X8.4794 Y-19.8992
G01 X8.4751 Y-19.9875
G01 X8.4791 Y-20.0683
G01 X8.4913 Y-20.1508
G01 X8.5116 Y-20.2317
G01 X8.5392 Y-20.3091
G01 X8.5766 Y-20.3878
G01 X8.6183 Y-20.4572
G01 X8.6687 Y-20.5252
G01 X8.7240 Y-20.5860
G01 X8.7848 Y-20.6413
G01 X8.8518 Y-20.6911
G01 X8.8748 Y-20.7050
G01 X8.8748 Y-22.8585
G01 X8.1308 Y-23.6025
G01 X8.1046 Y-23.5961
G01 X8.0221 Y-23.5840
G01 X7.9400 Y-23.5800
G01 X7.8579 Y-23.5840
G01 X7.7742 Y-23.5963
G01 X7.6956 Y-23.6159
G01 X7.6136 Y-23.6452
G01 X7.5393 Y-23.6804
G01 X7.4698 Y-23.7219
G01 X7.3989 Y-23.7745
G01 X7.3390 Y-23.8290
G01 X7.2829 Y-23.8908
G01 X7.2333 Y-23.9578
G01 X7.1916 Y-24.0272
G01 X7.1547 Y-24.1047
G01 X7.1266 Y-24.1833
G01 X7.1063 Y-24.2642
G01 X7.0941 Y-24.3467
G01 X7.0900 Y-24.4300
G01 X7.0941 Y-24.5133
G01 X7.1063 Y-24.5958
G01 X7.1263 Y-24.6756
G01 X7.1547 Y-24.7553
G01 X7.1904 Y-24.8307
G01 X7.2333 Y-24.9022
G01 X7.2822 Y-24.9683
G01 X7.3390 Y-25.0310
G01 X7.4008 Y-25.0871
G01 X7.4678 Y-25.1367
G01 X7.5198 Y-25.1680
G00 Z2.0000
G00 X3.1695 Y-22.7962
G01 F60.00
G01 Z-0.0000
G01 F120.00
G01 X4.6125 Y-24.2392
G01 X4.6061 Y-24.2654
G01 X4.5940 Y-24.3479
G01 X4.5900 Y-24.4300
G01 X4.5940 Y-24.5121
G01 X4.6069 Y-24.5982
G01 X4.6266 Y-24.6767
G01 X4.6547 Y-24.7553
G01 X4.6904 Y-24.8307
G01 X4.7319 Y-24.9002
G01 X4.7837 Y-24.9702
G01 X4.8390 Y-25.0310
G01 X4.8998 Y-25.0863
G01 X4.9668 Y-25.1361
G01 X4.9898 Y-25.1500
G01 X4.9898 Y-26.7300
G01 X4.5751 Y-26.7302
G01 X4.5667 Y-26.7318
G01 X4.5586 Y-26.7348
G01 X4.5512 Y-26.7391
G01 X4.5446 Y-26.7446
G01 X4.5398 Y-26.7502
G01 X4.5353 Y-26.7575
G01 X4.5322 Y-26.7655
G01 X4.5304 Y-26.7739
G01 X4.5300 Y-26.7800
G01 X4.5300 Y-28.4800
G01 X4.5305 Y-28.4873
G01 X4.5318 Y-28.4933
G01 X4.5343 Y-28.5003
G01 X4.5378 Y-28.5067
G01 X4.5413 Y-28.5117
G01 X4.5455 Y-28.5162
G01 X4.5502 Y-28.5202
G01 X4.5554 Y-28.5235
G01 X4.5609 Y-28.5262
G01 X4.5667 Y-28.5282
G01 X4.5727 Y-28.5295
G01 X4.5788 Y-28.5300
G01 X5.6933 Y-28.5300
G01 X8.2617 Y-31.0983
G01 X8.2944 Y-31.1280
G01 X8.3289 Y-31.1536
G01 X8.3700 Y-31.1781
G01 X8.4077 Y-31.1959
G01 X8.4493 Y-31.2108
G01 X8.4922 Y-31.2215
G01 X8.5334 Y-31.2277
G01 X8.5800 Y-31.2302
G01 X15.0892 Y-31.2302
G01 X15.1358 Y-31.2277
G01 X15.1770 Y-31.2215
G01 X15.2175 Y-31.2115
G01 X15.2615 Y-31.1959
G01 X15.3025 Y-31.1764
G01 X15.3393 Y-31.1543
G01 X15.3729 Y-31.1295
G01 X15.4076 Y-31.0983
G01 X18.1692 Y-28.3367
G01 X18.1980 Y-28.3048
G01 X18.2229 Y-28.2713
G01 X18.2481 Y-28.2292
G01 X18.2659 Y-28.1915
G01 X18.2808 Y-28.1499
G01 X18.2916 Y-28.1070
G01 X18.2977 Y-28.0658
G01 X18.3002 Y-28.0192
G01 X18.3002 Y-10.2250
G01 X18.2980 Y-10.1809
G01 X18.2916 Y-10.1372
G01 X18.2808 Y-10.0943
G01 X18.2659 Y-10.0527
G01 X18.2470 Y-10.0128
G01 X18.2243 Y-9.9749
G01 X18.1980 Y-9.9394
G01 X18.1692 Y-9.9075
G01 X15.2546 Y-6.9929
G01 X15.2765 Y-6.9463
G01 X15.3187 Y-6.8285
G01 X15.3498 Y-6.7048
G01 X15.3687 Y-6.5774
G01 X15.3750 Y-6.4500
G01 X15.3687 Y-6.3226
G01 X15.3498 Y-6.1952
G01 X15.3187 Y-6.0715
G01 X15.2765 Y-5.9537
G01 X15.2546 Y-5.9071
G01 X18.3115 Y-2.8502
G01 X27.6185 Y-2.8502
G01 X30.6754 Y-5.9071
G01 X30.6535 Y-5.9537
G01 X30.6113 Y-6.0715
G01 X30.5802 Y-6.1952
G01 X30.5613 Y-6.3226
G01 X30.5550 Y-6.4512
G01 X30.5616 Y-6.5799
G01 X30.5800 Y-6.7036
G01 X30.6103 Y-6.8250
G01 X30.6540 Y-6.9475
G01 X30.7079 Y-7.0617
G01 X30.7741 Y-7.1722
G01 X30.8501 Y-7.2747
G01 X30.9358 Y-7.3692
G01 X31.0322 Y-7.4564
G01 X31.1348 Y-7.5322
G01 X31.2422 Y-7.5965
G01 X31.3553 Y-7.6500
G01 X31.4776 Y-7.6940
G01 X31.6014 Y-7.7250
G01 X31.7276 Y-7.7437
G01 X31.8525 Y-7.7499
G01 X31.9824 Y-7.7437
G01 X32.1086 Y-7.7250
G01 X32.2300 Y-7.6947
G01 X32.3525 Y-7.6510
G01 X32.4678 Y-7.5965
G01 X32.5752 Y-7.5322
G01 X32.6797 Y-7.4549
G01 X32.7759 Y-7.3675
G01 X32.8599 Y-7.2747
G01 X32.9345 Y-7.1742
G01 X33.0026 Y-7.0606
G01 X33.0560 Y-6.9475
G01 X33.0983 Y-6.8297
G01 X33.1300 Y-6.7036
G01 X33.1489 Y-6.5750
G01 X33.1550 Y-6.4500
G01 X33.1489 Y-6.3250
G01 X33.1300 Y-6.1964
G01 X33.0990 Y-6.0726
G01 X33.0569 Y-5.9548
G01 X33.0009 Y-5.8361
G01 X32.9359 Y-5.7278
G01 X32.8599 Y-5.6253
G01 X32.7742 Y-5.5308
G01 X32.6797 Y-5.4451
G01 X32.5772 Y-5.3691
G01 X32.4678 Y-5.3035
G01 X32.3525 Y-5.2490
G01 X32.2335 Y-5.2063
G01 X32.1086 Y-5.1750
G01 X31.9824 Y-5.1563
G01 X31.8550 Y-5.1500
G01 X31.7288 Y-5.1562
G01 X31.6014 Y-5.1750
G01 X31.4788 Y-5.2056
G01 X31.3587 Y-5.2485
G01 X31.3121 Y-5.2704
G01 X28.1225 Y-2.0808
G01 X28.0906 Y-2.0520
G01 X28.0551 Y-2.0257
G01 X28.0172 Y-2.0030
G01 X27.9773 Y-1.9841
G01 X27.9357 Y-1.9692
G01 X27.8928 Y-1.9585
G01 X27.8491 Y-1.9520
G01 X27.8050 Y-1.9498
G01 X18.1250 Y-1.9498
G01 X18.0784 Y-1.9523
G01 X18.0372 Y-1.9585
G01 X17.9967 Y-1.9685
G01 X17.9527 Y-1.9841
G01 X17.9106 Y-2.0042
G01 X17.8749 Y-2.0257
G01 X17.8413 Y-2.0505
G01 X17.8067 Y-2.0817
G01 X14.6179 Y-5.2704
G01 X14.5713 Y-5.2485
G01 X14.4512 Y-5.2056
G01 X14.3286 Y-5.1750
G01 X14.2012 Y-5.1562
G01 X14.0750 Y-5.1500
G01 X13.9476 Y-5.1563
G01 X13.8214 Y-5.1750
G01 X13.6988 Y-5.2056
G01 X13.5775 Y-5.2490
G01 X13.4644 Y-5.3024
G01 X13.3508 Y-5.3705
G01 X13.2503 Y-5.4451
G01 X13.1558 Y-5.5308
G01 X13.0701 Y-5.6253
G01 X12.9955 Y-5.7258
G01 X12.9285 Y-5.8372
G01 X12.8750 Y-5.9503
G01 X12.8303 Y-6.0750
G01 X12.8000 Y-6.1964
G01 X12.7813 Y-6.3226
G01 X12.7750 Y-6.4500
G01 X12.7813 Y-6.5774
G01 X12.8000 Y-6.7036
G01 X12.8303 Y-6.8250
G01 X12.8750 Y-6.9497
G01 X12.9285 Y-7.0628
G01 X12.9941 Y-7.1722
G01 X13.0701 Y-7.2747
G01 X13.1549 Y-7.3684
G01 X13.2522 Y-7.4564
G01 X13.3528 Y-7.5309
G01 X13.4622 Y-7.5965
G01 X13.5775 Y-7.6510
G01 X13.6953 Y-7.6933
G01 X13.8226 Y-7.7252
G01 X13.9476 Y-7.7437
G01 X14.0725 Y-7.7499
G01 X14.2036 Y-7.7436
G01 X14.3286 Y-7.7250
G01 X14.4512 Y-7.6944
G01 X14.5713 Y-7.6515
G01 X14.6179 Y-7.6296
G01 X17.3998 Y-10.4115
G01 X17.3998 Y-27.8327
G01 X14.9027 Y-30.3298
G01 X8.7665 Y-30.3298
G01 X6.3300 Y-27.8933
G01 X6.3300 Y-26.7800
G01 X6.3293 Y-26.7715
G01 X6.3266 Y-26.7620
G01 X6.3235 Y-26.7554
G01 X6.3194 Y-26.7492
G01 X6.3145 Y-26.7438
G01 X6.3098 Y-26.7398
G01 X6.3036 Y-26.7359
G01 X6.2968 Y-26.7329
G01 X6.2898 Y-26.7310
G01 X6.2837 Y-26.7301
G01 X5.8902 Y-26.7300
G01 X5.8902 Y-25.1500
G01 X5.9132 Y-25.1361
G01 X5.9802 Y-25.0863
G01 X6.0410 Y-25.0310
G01 X6.0963 Y-24.9702
G01 X6.1481 Y-24.9002
G01 X6.1896 Y-24.8307
G01 X6.2253 Y-24.7553
G01 X6.2534 Y-24.6767
G01 X6.2731 Y-24.5982
G01 X6.2860 Y-24.5121
G01 X6.2900 Y-24.4300
G01 X6.2860 Y-24.3479
G01 X6.2739 Y-24.2654
G01 X6.2675 Y-24.2392
G01 X7.6442 Y-22.8625
G01 X7.6730 Y-22.8306
G01 X7.6993 Y-22.7951
G01 X7.7220 Y-22.7572
G01 X7.7414 Y-22.7161
G01 X7.7558 Y-22.6757
G01 X7.7665 Y-22.6328
G01 X7.7730 Y-22.5891
G01 X7.7752 Y-22.5462
G01 X7.7752 Y-20.8350
G01 X8.1299 Y-20.8348
G01 X8.1371 Y-20.8335
G01 X8.1441 Y-20.8312
G01 X8.1507 Y-20.8279
G01 X8.1577 Y-20.8229
G01 X8.1629 Y-20.8177
G01 X8.1672 Y-20.8117
G01 X8.1707 Y-20.8053
G01 X8.1735 Y-20.7971
G01 X8.1746 Y-20.7911
G01 X8.1750 Y-20.7850
G01 X8.1750 Y-19.1850
G01 X8.1743 Y-19.1765
G01 X8.1721 Y-19.1682
G01 X8.1679 Y-19.1593
G01 X8.1629 Y-19.1523
G01 X8.1558 Y-19.1456
G01 X8.1486 Y-19.1409
G01 X8.1407 Y-19.1375
G01 X8.1311 Y-19.1354
G01 X8.1250 Y-19.1350
G01 X7.7752 Y-19.1350
G01 X7.7752 Y-18.0850
G01 X7.7732 Y-18.0433
G01 X7.7665 Y-17.9972
G01 X7.7550 Y-17.9520
G01 X7.7409 Y-17.9127
G01 X7.7231 Y-17.8750
G01 X7.6986 Y-17.8339
G01 X7.6730 Y-17.7994
G01 X7.6433 Y-17.7667
G01 X6.2200 Y-16.3433
G01 X6.2200 Y-15.4288
G01 X6.2193 Y-15.4215
G01 X6.2175 Y-15.4143
G01 X6.2147 Y-15.4075
G01 X6.2109 Y-15.4012
G01 X6.2062 Y-15.3955
G01 X6.2017 Y-15.3913
G01 X6.1957 Y-15.3871
G01 X6.1891 Y-15.3838
G01 X6.1798 Y-15.3810
G01 X6.1700 Y-15.3800
G01 X4.6700 Y-15.3800
G01 X4.6602 Y-15.3810
G01 X4.6509 Y-15.3838
G01 X4.6422 Y-15.3884
G01 X4.6346 Y-15.3946
G01 X4.6284 Y-15.4022
G01 X4.6238 Y-15.4109
G01 X4.6210 Y-15.4202
G01 X4.6200 Y-15.4300
G01 X4.6202 Y-16.9349
G01 X4.6218 Y-16.9433
G01 X4.6248 Y-16.9514
G01 X4.6298 Y-16.9598
G01 X4.6355 Y-16.9662
G01 X4.6433 Y-16.9722
G01 X4.6509 Y-16.9762
G01 X4.6590 Y-16.9788
G01 X4.6675 Y-16.9799
G01 X5.5833 Y-16.9800
G01 X6.8748 Y-18.2715
G01 X6.8748 Y-19.1350
G01 X6.5201 Y-19.1352
G01 X6.5129 Y-19.1365
G01 X6.5047 Y-19.1393
G01 X6.4972 Y-19.1434
G01 X6.4905 Y-19.1488
G01 X6.4848 Y-19.1552
G01 X6.4809 Y-19.1614
G01 X6.4775 Y-19.1693
G01 X6.4755 Y-19.1777
G01 X6.4750 Y-19.1850
G01 X6.4750 Y-20.7850
G01 X6.4757 Y-20.7935
G01 X6.4779 Y-20.8018
G01 X6.4815 Y-20.8096
G01 X6.4871 Y-20.8177
G01 X6.4942 Y-20.8244
G01 X6.5014 Y-20.8291
G01 X6.5093 Y-20.8325
G01 X6.5189 Y-20.8346
G01 X6.5250 Y-20.8350
G01 X6.8748 Y-20.8350
G01 X6.8748 Y-22.3585
G01 X5.6308 Y-23.6025
G01 X5.6046 Y-23.5961
G01 X5.5245 Y-23.5842
G01 X5.4400 Y-23.5800
G01 X5.3555 Y-23.5842
G01 X5.2754 Y-23.5961
G01 X5.2492 Y-23.6025
G01 X3.8804 Y-22.2337
G01 X3.8856 Y-22.2223
G01 X3.9167 Y-22.1344
G01 X3.9387 Y-22.0463
G01 X3.9524 Y-21.9541
G01 X3.9569 Y-21.8585
G01 X3.9524 Y-21.7679
G01 X3.9387 Y-21.6757
G01 X3.9161 Y-21.5852
G01 X3.8856 Y-21.4997
G01 X3.8448 Y-21.4132
G01 X3.7955 Y-21.3312
G01 X3.7414 Y-21.2583
G01 X3.6804 Y-21.1910
G01 X3.6097 Y-21.1266
G01 X3.5327 Y-21.0698
G01 X3.4548 Y-21.0232
G01 X3.3728 Y-20.9843
G01 X3.2828 Y-20.9519
G01 X3.1923 Y-20.9293
G01 X3.0977 Y-20.9154
G01 X3.0070 Y-20.9110
G01 X2.9163 Y-20.9154
G01 X2.8229 Y-20.9290
G01 X2.7312 Y-20.9519
G01 X2.6435 Y-20.9833
G01 X2.5592 Y-21.0232
G01 X2.4792 Y-21.0711
G01 X2.4043 Y-21.1266
G01 X2.3352 Y-21.1892
G01 X2.2726 Y-21.2583
G01 X2.2171 Y-21.3332
G01 X2.1692 Y-21.4132
G01 X2.1293 Y-21.4975
G01 X2.0979 Y-21.5852
G01 X2.0753 Y-21.6757
G01 X2.0616 Y-21.7679
G01 X2.0570 Y-21.8610
G01 X2.0616 Y-21.9541
G01 X2.0750 Y-22.0451
G01 X2.0979 Y-22.1368
G01 X2.1293 Y-22.2245
G01 X2.1692 Y-22.3088
G01 X2.2171 Y-22.3888
G01 X2.2726 Y-22.4637
G01 X2.3352 Y-22.5328
G01 X2.4043 Y-22.5954
G01 X2.4782 Y-22.6502
G01 X2.5592 Y-22.6988
G01 X2.6435 Y-22.7387
G01 X2.7312 Y-22.7701
G01 X2.8217 Y-22.7927
G01 X2.9139 Y-22.8064
G01 X3.0070 Y-22.8110
G01 X3.1001 Y-22.8064
G01 X3.1695 Y-22.7962
G00 Z2.0000
G00 X3.9070 Y-20.2710
G01 F60.00
G01 Z-0.0000
G01 F120.00
G01 X3.9168 Y-20.2700
G01 X3.9261 Y-20.2672
G01 X3.9348 Y-20.2626
G01 X3.9424 Y-20.2564
G01 X3.9479 Y-20.2498
G01 X3.9527 Y-20.2413
G01 X3.9558 Y-20.2320
G01 X3.9570 Y-20.2222
G01 X3.9570 Y-18.4210
G01 X3.9565 Y-18.4137
G01 X3.9548 Y-18.4065
G01 X3.9522 Y-18.3996
G01 X3.9486 Y-18.3932
G01 X3.9432 Y-18.3865
G01 X3.9378 Y-18.3816
G01 X3.9316 Y-18.3775
G01 X3.9250 Y-18.3744
G01 X3.9180 Y-18.3722
G01 X3.9095 Y-18.3711
G01 X3.3302 Y-18.3710
G01 X3.3302 Y-16.8950
G01 X3.3532 Y-16.8811
G01 X3.4202 Y-16.8313
G01 X3.4810 Y-16.7760
G01 X3.5363 Y-16.7152
G01 X3.5867 Y-16.6472
G01 X3.6284 Y-16.5778
G01 X3.6658 Y-16.4991
G01 X3.6934 Y-16.4217
G01 X3.7131 Y-16.3432
G01 X3.7261 Y-16.2559
G01 X3.7300 Y-16.1750
G01 X3.7259 Y-16.0917
G01 X3.7137 Y-16.0092
G01 X3.6941 Y-15.9306
G01 X3.6653 Y-15.8497
G01 X3.6296 Y-15.7743
G01 X3.5867 Y-15.7028
G01 X3.5371 Y-15.6358
G01 X3.4810 Y-15.5740
G01 X3.4192 Y-15.5179
G01 X3.3522 Y-15.4683
G01 X3.2807 Y-15.4254
G01 X3.2053 Y-15.3897
G01 X3.1267 Y-15.3616
G01 X3.0458 Y-15.3413
G01 X2.9633 Y-15.3291
G01 X2.8800 Y-15.3250
G01 X2.7967 Y-15.3291
G01 X2.7142 Y-15.3413
G01 X2.6356 Y-15.3609
G01 X2.5525 Y-15.3907
G01 X2.4793 Y-15.4254
G01 X2.4078 Y-15.4683
G01 X2.3389 Y-15.5195
G01 X2.2790 Y-15.5740
G01 X2.2229 Y-15.6358
G01 X2.1733 Y-15.7028
G01 X2.1316 Y-15.7722
G01 X2.0947 Y-15.8497
G01 X2.0659 Y-15.9306
G01 X2.0463 Y-16.0092
G01 X2.0342 Y-16.0905
G01 X2.0301 Y-16.1775
G01 X2.0341 Y-16.2583
G01 X2.0463 Y-16.3408
G01 X2.0674 Y-16.4241
G01 X2.0947 Y-16.5003
G01 X2.1298 Y-16.5746
G01 X2.1747 Y-16.6492
G01 X2.2229 Y-16.7142
G01 X2.2781 Y-16.7752
G01 X2.3417 Y-16.8328
G01 X2.4068 Y-16.8811
G01 X2.4298 Y-16.8950
G01 X2.4298 Y-18.3710
G01 X2.1070 Y-18.3710
G01 X2.1009 Y-18.3714
G01 X2.0925 Y-18.3732
G01 X2.0856 Y-18.3758
G01 X2.0782 Y-18.3801
G01 X2.0716 Y-18.3856
G01 X2.0661 Y-18.3922
G01 X2.0618 Y-18.3996
G01 X2.0592 Y-18.4065
G01 X2.0574 Y-18.4149
G01 X2.0570 Y-18.4210
G01 X2.0570 Y-20.2210
G01 X2.0574 Y-20.2271
G01 X2.0585 Y-20.2331
G01 X2.0608 Y-20.2401
G01 X2.0648 Y-20.2477
G01 X2.0691 Y-20.2537
G01 X2.0753 Y-20.2597
G01 X2.0824 Y-20.2645
G01 X2.0890 Y-20.2676
G01 X2.0972 Y-20.2700
G01 X2.1058 Y-20.2710
G01 X3.9070 Y-20.2710
G00 Z2.0000
G00 X12.5998 Y-26.8518
G01 F60.00
G01 Z-0.0000
G01 F120.00
G01 X12.5500 Y-26.8817
G01 X12.4781 Y-26.9351
G01 X12.4136 Y-26.9936
G01 X12.3535 Y-27.0600
G01 X12.3017 Y-27.1300
G01 X12.2563 Y-27.2057
G01 X12.2185 Y-27.2856
G01 X12.1884 Y-27.3699
G01 X12.1673 Y-27.4544
G01 X12.1543 Y-27.5418
G01 X12.1500 Y-27.6300
G01 X12.1543 Y-27.7182
G01 X12.1673 Y-27.8056
G01 X12.1888 Y-27.8913
G01 X12.2185 Y-27.9744
G01 X12.2569 Y-28.0553
G01 X12.3017 Y-28.1300
G01 X12.3543 Y-28.2010
G01 X12.4136 Y-28.2664
G01 X12.4790 Y-28.3257
G01 X12.5500 Y-28.3783
G01 X12.6257 Y-28.4237
G01 X12.7056 Y-28.4615
G01 X12.7887 Y-28.4912
G01 X12.8744 Y-28.5127
G01 X12.9618 Y-28.5257
G01 X13.0500 Y-28.5300
G01 X13.1382 Y-28.5257
G01 X13.2256 Y-28.5127
G01 X13.3113 Y-28.4912
G01 X13.3944 Y-28.4615
G01 X13.4753 Y-28.4231
G01 X13.5500 Y-28.3783
G01 X13.6190 Y-28.3272
G01 X13.6864 Y-28.2664
G01 X13.7472 Y-28.1990
G01 X13.7983 Y-28.1300
G01 X13.8425 Y-28.0564
G01 X13.8815 Y-27.9744
G01 X13.9119 Y-27.8889
G01 X13.9327 Y-27.8056
G01 X13.9454 Y-27.7207
G01 X13.9500 Y-27.6300
G01 X13.9454 Y-27.5393
G01 X13.9327 Y-27.4544
G01 X13.9119 Y-27.3711
G01 X13.8815 Y-27.2856
G01 X13.8431 Y-27.2047
G01 X13.7969 Y-27.1280
G01 X13.7457 Y-27.0590
G01 X13.6873 Y-26.9945
G01 X13.6200 Y-26.9335
G01 X13.5500 Y-26.8817
G01 X13.5002 Y-26.8518
G01 X13.5002 Y-25.7088
G01 X13.4980 Y-25.6659
G01 X13.4915 Y-25.6222
G01 X13.4808 Y-25.5793
G01 X13.4664 Y-25.5389
G01 X13.4470 Y-25.4978
G01 X13.4243 Y-25.4599
G01 X13.3980 Y-25.4244
G01 X13.3692 Y-25.3925
G01 X11.5852 Y-23.6085
G01 X11.5852 Y-19.3500
G01 X11.5830 Y-19.3059
G01 X11.5765 Y-19.2622
G01 X11.5658 Y-19.2193
G01 X11.5504 Y-19.1766
G01 X11.5320 Y-19.1378
G01 X11.5093 Y-19.0999
G01 X11.4830 Y-19.0644
G01 X11.4533 Y-19.0317
G01 X8.7875 Y-16.3658
G01 X8.7939 Y-16.3396
G01 X8.8058 Y-16.2595
G01 X8.8100 Y-16.1738
G01 X8.8059 Y-16.0917
G01 X8.7941 Y-16.0116
G01 X8.7737 Y-15.9294
G01 X8.7453 Y-15.8497
G01 X8.7084 Y-15.7722
G01 X8.6667 Y-15.7028
G01 X8.6186 Y-15.6377
G01 X8.5602 Y-15.5731
G01 X8.4992 Y-15.5179
G01 X8.4342 Y-15.4697
G01 X8.3607 Y-15.4254
G01 X8.2853 Y-15.3897
G01 X8.2091 Y-15.3624
G01 X8.1258 Y-15.3413
G01 X8.0433 Y-15.3291
G01 X7.9625 Y-15.3251
G01 X7.8767 Y-15.3291
G01 X7.7942 Y-15.3413
G01 X7.7156 Y-15.3609
G01 X7.6336 Y-15.3902
G01 X7.5593 Y-15.4254
G01 X7.4858 Y-15.4697
G01 X7.4189 Y-15.5195
G01 X7.3590 Y-15.5740
G01 X7.3045 Y-15.6339
G01 X7.2533 Y-15.7028
G01 X7.2104 Y-15.7743
G01 X7.1747 Y-15.8497
G01 X7.1466 Y-15.9283
G01 X7.1263 Y-16.0092
G01 X7.1139 Y-16.0941
G01 X7.1101 Y-16.1775
G01 X7.1141 Y-16.2583
G01 X7.1259 Y-16.3384
G01 X7.1466 Y-16.4217
G01 X7.1747 Y-16.5003
G01 X7.2104 Y-16.5757
G01 X7.2547 Y-16.6492
G01 X7.3029 Y-16.7142
G01 X7.3573 Y-16.7743
G01 X7.4208 Y-16.8321
G01 X7.4878 Y-16.8817
G01 X7.5572 Y-16.9234
G01 X7.6359 Y-16.9608
G01 X7.7133 Y-16.9884
G01 X7.7918 Y-17.0081
G01 X7.8779 Y-17.0210
G01 X7.9600 Y-17.0250
G01 X8.0421 Y-17.0210
G01 X8.1246 Y-17.0089
G01 X8.1508 Y-17.0025
G01 X10.6848 Y-19.5365
G01 X10.6848 Y-23.7950
G01 X10.6873 Y-23.8416
G01 X10.6935 Y-23.8828
G01 X10.7035 Y-23.9233
G01 X10.7191 Y-23.9673
G01 X10.7392 Y-24.0094
G01 X10.7607 Y-24.0451
G01 X10.7855 Y-24.0787
G01 X10.8158 Y-24.1125
G01 X12.5998 Y-25.8965
G01 X12.5998 Y-26.8518
G00 Z2.0000
G00 X28.5100 Y-29.7900
G01 F60.00
G01 Z-0.0000
G01 F120.00
G01 X28.5198 Y-29.7890
G01 X28.5291 Y-29.7862
G01 X28.5378 Y-29.7816
G01 X28.5454 Y-29.7754
G01 X28.5516 Y-29.7678
G01 X28.5562 Y-29.7591
G01 X28.5588 Y-29.7510
G01 X28.5600 Y-29.7412
G01 X28.5600 Y-26.7400
G01 X28.5593 Y-26.7315
G01 X28.5566 Y-26.7220
G01 X28.5529 Y-26.7143
G01 X28.5479 Y-26.7073
G01 X28.5445 Y-26.7038
G01 X28.5398 Y-26.6998
G01 X28.5314 Y-26.6948
G01 X28.5257 Y-26.6925
G01 X28.5210 Y-26.6912
G01 X28.5161 Y-26.6904
G01 X28.5100 Y-26.6900
G01 X26.5919 Y-26.6900
G01 X20.8254 Y-20.9235
G01 X20.8254 Y-5.8253
G01 X20.8871 Y-5.7881
G01 X21.0074 Y-5.6989
G01 X21.1219 Y-5.5951
G01 X21.2232 Y-5.4833
G01 X21.3124 Y-5.3631
G01 X21.3925 Y-5.2296
G01 X21.4570 Y-5.0932
G01 X21.5075 Y-4.9523
G01 X21.5452 Y-4.8024
G01 X21.5677 Y-4.6495
G01 X21.5750 Y-4.5000
G01 X21.5676 Y-4.3493
G01 X21.5452 Y-4.1976
G01 X21.5083 Y-4.0501
G01 X21.4570 Y-3.9068
G01 X21.3908 Y-3.7672
G01 X21.3124 Y-3.6369
G01 X21.2232 Y-3.5167
G01 X21.1227 Y-3.4058
G01 X21.0083 Y-3.3018
G01 X20.8861 Y-3.2112
G01 X20.7557 Y-3.1330
G01 X20.6159 Y-3.0671
G01 X20.4726 Y-3.0161
G01 X20.3274 Y-2.9798
G01 X20.1794 Y-2.9578
G01 X20.0250 Y-2.9500
G01 X19.8731 Y-2.9575
G01 X19.7226 Y-2.9798
G01 X19.5739 Y-3.0171
G01 X19.4318 Y-3.0680
G01 X19.2965 Y-3.1319
G01 X19.1619 Y-3.2126
G01 X19.0417 Y-3.3018
G01 X18.9290 Y-3.4040
G01 X18.8268 Y-3.5167
G01 X18.7376 Y-3.6369
G01 X18.6569 Y-3.7715
G01 X18.5930 Y-3.9068
G01 X18.5417 Y-4.0501
G01 X18.5044 Y-4.2000
G01 X18.4825 Y-4.3481
G01 X18.4750 Y-4.4988
G01 X18.4828 Y-4.6544
G01 X18.5048 Y-4.8024
G01 X18.5411 Y-4.9476
G01 X18.5930 Y-5.0932
G01 X18.6586 Y-5.2317
G01 X18.7376 Y-5.3631
G01 X18.8268 Y-5.4833
G01 X18.9281 Y-5.5951
G01 X19.0426 Y-5.6989
G01 X19.1629 Y-5.7881
G01 X19.2246 Y-5.8253
G01 X19.2246 Y-21.2550
G01 X19.2285 Y-21.3335
G01 X19.2396 Y-21.4087
G01 X19.2595 Y-21.4885
G01 X19.2865 Y-21.5635
G01 X19.3191 Y-21.6323
G01 X19.3582 Y-21.6976
G01 X19.4063 Y-21.7628
G01 X19.4590 Y-21.8210
G01 X25.4600 Y-27.8219
G01 X25.4600 Y-29.7400
G01 X25.4610 Y-29.7498
G01 X25.4625 Y-29.7557
G01 X25.4643 Y-29.7603
G01 X25.4691 Y-29.7688
G01 X25.4721 Y-29.7727
G01 X25.4764 Y-29.7770
G01 X25.4843 Y-29.7829
G01 X25.4920 Y-29.7866
G01 X25.5002 Y-29.7890
G01 X25.5100 Y-29.7900
G01 X28.5100 Y-29.7900
G00 Z2.0000
G00 X37.4338 Y-26.7369
G01 F60.00
G01 Z-0.0000
G01 F120.00
G01 X28.7810 Y-18.0840
G01 X28.7228 Y-18.0313
G01 X28.6607 Y-17.9852
G01 X28.5923 Y-17.9441
G01 X28.5190 Y-17.9097
G01 X28.4473 Y-17.8841
G01 X28.3735 Y-17.8655
G01 X28.2935 Y-17.8535
G01 X28.2150 Y-17.8496
G01 X27.4003 Y-17.8496
G01 X27.3631 Y-17.7879
G01 X27.2739 Y-17.6676
G01 X27.1719 Y-17.5549
G01 X27.0583 Y-17.4518
G01 X26.9351 Y-17.3606
G01 X26.8035 Y-17.2819
G01 X26.6682 Y-17.2180
G01 X26.5273 Y-17.1675
G01 X26.3774 Y-17.1298
G01 X26.2245 Y-17.1073
G01 X26.0750 Y-17.1000
G01 X25.9255 Y-17.1073
G01 X25.7726 Y-17.1298
G01 X25.6227 Y-17.1675
G01 X25.4818 Y-17.2180
G01 X25.3465 Y-17.2819
G01 X25.2139 Y-17.3612
G01 X25.0898 Y-17.4534
G01 X24.9790 Y-17.5540
G01 X24.8784 Y-17.6648
G01 X24.7869 Y-17.7879
G01 X24.7080 Y-17.9193
G01 X24.6430 Y-18.0568
G01 X24.5917 Y-18.2001
G01 X24.5553 Y-18.3452
G01 X24.5325 Y-18.4981
G01 X24.5251 Y-18.6475
G01 X24.5328 Y-18.8044
G01 X24.5548 Y-18.9524
G01 X24.5917 Y-19.0999
G01 X24.6430 Y-19.2432
G01 X24.7080 Y-19.3807
G01 X24.7862 Y-19.5111
G01 X24.8768 Y-19.6333
G01 X24.9790 Y-19.7460
G01 X25.0898 Y-19.8466
G01 X25.2139 Y-19.9388
G01 X25.3443 Y-20.0170
G01 X25.4818 Y-20.0820
G01 X25.6251 Y-20.1333
G01 X25.7726 Y-20.1702
G01 X25.9231 Y-20.1925
G01 X26.0750 Y-20.2000
G01 X26.2294 Y-20.1922
G01 X26.3798 Y-20.1697
G01 X26.5249 Y-20.1333
G01 X26.6659 Y-20.0829
G01 X26.8057 Y-20.0170
G01 X26.9351 Y-19.9394
G01 X27.0583 Y-19.8482
G01 X27.1719 Y-19.7451
G01 X27.2739 Y-19.6324
G01 X27.3631 Y-19.5121
G01 X27.4003 Y-19.4504
G01 X27.8835 Y-19.4504
G01 X36.3019 Y-27.8688
G01 X36.2846 Y-27.9388
G01 X36.2626 Y-28.0869
G01 X36.2550 Y-28.2412
G01 X36.2625 Y-28.3919
G01 X36.2844 Y-28.5400
G01 X36.3214 Y-28.6888
G01 X36.3730 Y-28.8332
G01 X36.4392 Y-28.9728
G01 X36.5162 Y-29.1011
G01 X36.6053 Y-29.2214
G01 X36.7090 Y-29.3360
G01 X36.8217 Y-29.4382
G01 X36.9459 Y-29.5301
G01 X37.0743 Y-29.6070
G01 X37.2096 Y-29.6710
G01 X37.3551 Y-29.7233
G01 X37.5050 Y-29.7606
G01 X37.6531 Y-29.7825
G01 X37.8025 Y-29.7899
G01 X37.9569 Y-29.7825
G01 X38.1086 Y-29.7600
G01 X38.2549 Y-29.7233
G01 X38.3982 Y-29.6720
G01 X38.5357 Y-29.6070
G01 X38.6661 Y-29.5288
G01 X38.7883 Y-29.4382
G01 X38.9010 Y-29.3360
G01 X39.0032 Y-29.2233
G01 X39.0938 Y-29.1011
G01 X39.1720 Y-28.9707
G01 X39.2370 Y-28.8332
G01 X39.2883 Y-28.6899
G01 X39.3252 Y-28.5424
G01 X39.3475 Y-28.3919
G01 X39.3550 Y-28.2400
G01 X39.3475 Y-28.0881
G01 X39.3250 Y-27.9364
G01 X39.2883 Y-27.7901
G01 X39.2370 Y-27.6468
G01 X39.1720 Y-27.5093
G01 X39.0938 Y-27.3789
G01 X39.0032 Y-27.2567
G01 X38.9010 Y-27.1440
G01 X38.7883 Y-27.0418
G01 X38.6651 Y-26.9506
G01 X38.5357 Y-26.8730
G01 X38.3982 Y-26.8080
G01 X38.2549 Y-26.7567
G01 X38.1062 Y-26.7196
G01 X37.9569 Y-26.6975
G01 X37.8038 Y-26.6900
G01 X37.6519 Y-26.6976
G01 X37.5038 Y-26.7196
G01 X37.4338 Y-26.7369
G00 Z2.0000
G00 X44.4350 Y-27.8205
G01 F60.00
G01 Z-0.0000
G01 F120.00
G01 X44.4737 Y-27.7778
G01 X44.5205 Y-27.7147
G01 X44.5609 Y-27.6473
G01 X44.5945 Y-27.5763
G01 X44.6209 Y-27.5023
G01 X44.6400 Y-27.4261
G01 X44.6515 Y-27.3485
G01 X44.6554 Y-27.2712
G01 X44.6554 Y-19.9753
G01 X44.7171 Y-19.9381
G01 X44.8374 Y-19.8489
G01 X44.9519 Y-19.7451
G01 X45.0532 Y-19.6333
G01 X45.1424 Y-19.5131
G01 X45.2225 Y-19.3796
G01 X45.2870 Y-19.2432
G01 X45.3375 Y-19.1023
G01 X45.3752 Y-18.9524
G01 X45.3977 Y-18.7995
G01 X45.4050 Y-18.6500
G01 X45.3976 Y-18.4993
G01 X45.3752 Y-18.3476
G01 X45.3383 Y-18.2001
G01 X45.2870 Y-18.0568
G01 X45.2220 Y-17.9193
G01 X45.1438 Y-17.7889
G01 X45.0532 Y-17.6667
G01 X44.9510 Y-17.5540
G01 X44.8383 Y-17.4518
G01 X44.7161 Y-17.3612
G01 X44.5857 Y-17.2830
G01 X44.4482 Y-17.2180
G01 X44.3049 Y-17.1667
G01 X44.1574 Y-17.1298
G01 X44.0069 Y-17.1075
G01 X43.8550 Y-17.1000
G01 X43.7043 Y-17.1074
G01 X43.5502 Y-17.1303
G01 X43.4051 Y-17.1667
G01 X43.2618 Y-17.2180
G01 X43.1243 Y-17.2830
G01 X42.9959 Y-17.3599
G01 X42.8698 Y-17.4534
G01 X42.7590 Y-17.5540
G01 X42.6568 Y-17.6667
G01 X42.5662 Y-17.7889
G01 X42.4892 Y-17.9172
G01 X42.4221 Y-18.0591
G01 X42.3717 Y-18.2001
G01 X42.3348 Y-18.3476
G01 X42.3125 Y-18.4981
G01 X42.3051 Y-18.6475
G01 X42.3125 Y-18.8019
G01 X42.3348 Y-18.9524
G01 X42.3711 Y-19.0976
G01 X42.4235 Y-19.2443
G01 X42.4880 Y-19.3807
G01 X42.5649 Y-19.5091
G01 X42.6576 Y-19.6342
G01 X42.7590 Y-19.7460
G01 X42.8708 Y-19.8474
G01 X42.9929 Y-19.9381
G01 X43.0546 Y-19.9753
G01 X43.0546 Y-26.6900
G01 X41.3838 Y-26.6900
G01 X41.3777 Y-26.6905
G01 X41.3717 Y-26.6918
G01 X41.3647 Y-26.6943
G01 X41.3593 Y-26.6971
G01 X41.3542 Y-26.7006
G01 X41.3488 Y-26.7055
G01 X41.3448 Y-26.7102
G01 X41.3415 Y-26.7154
G01 X41.3384 Y-26.7220
G01 X41.3365 Y-26.7279
G01 X41.3354 Y-26.7339
G01 X41.3350 Y-26.7400
G01 X41.3350 Y-29.7400
G01 X41.3355 Y-29.7473
G01 X41.3372 Y-29.7545
G01 X41.3398 Y-29.7614
G01 X41.3428 Y-29.7667
G01 X41.3463 Y-29.7717
G01 X41.3505 Y-29.7762
G01 X41.3552 Y-29.7802
G01 X41.3604 Y-29.7835
G01 X41.3670 Y-29.7866
G01 X41.3729 Y-29.7885
G01 X41.3789 Y-29.7896
G01 X41.3850 Y-29.7900
G01 X44.3850 Y-29.7900
G01 X44.3923 Y-29.7895
G01 X44.3995 Y-29.7878
G01 X44.4053 Y-29.7857
G01 X44.4117 Y-29.7822
G01 X44.4167 Y-29.7787
G01 X44.4212 Y-29.7745
G01 X44.4252 Y-29.7698
G01 X44.4291 Y-29.7636
G01 X44.4316 Y-29.7580
G01 X44.4335 Y-29.7521
G01 X44.4346 Y-29.7461
G01 X44.4350 Y-29.7400
G01 X44.4350 Y-27.8205
G00 Z2.0000
G00 X47.1053 Y-29.2675
G01 F60.00
G01 Z-0.0000
G01 F120.00
G01 X47.1054 Y-13.0000
G01 X47.1015 Y-12.9215
G01 X47.0900 Y-12.8439
G01 X47.0709 Y-12.7677
G01 X47.0449 Y-12.6948
G01 X47.0109 Y-12.6227
G01 X46.9705 Y-12.5553
G01 X46.9237 Y-12.4922
G01 X46.8710 Y-12.4340
G01 X39.3081 Y-4.8712
G01 X39.3254 Y-4.8012
G01 X39.3474 Y-4.6531
G01 X39.3550 Y-4.4988
G01 X39.3475 Y-4.3481
G01 X39.3256 Y-4.2000
G01 X39.2886 Y-4.0512
G01 X39.2370 Y-3.9068
G01 X39.1708 Y-3.7672
G01 X39.0938 Y-3.6389
G01 X39.0047 Y-3.5186
G01 X38.9010 Y-3.4040
G01 X38.7883 Y-3.3018
G01 X38.6681 Y-3.2126
G01 X38.5357 Y-3.1330
G01 X38.3959 Y-3.0671
G01 X38.2549 Y-3.0167
G01 X38.1074 Y-2.9798
G01 X37.9569 Y-2.9575
G01 X37.8075 Y-2.9501
G01 X37.6531 Y-2.9575
G01 X37.5002 Y-2.9803
G01 X37.3551 Y-3.0167
G01 X37.2130 Y-3.0675
G01 X37.0743 Y-3.1330
G01 X36.9419 Y-3.2126
G01 X36.8217 Y-3.3018
G01 X36.7108 Y-3.4023
G01 X36.6084 Y-3.5148
G01 X36.5162 Y-3.6389
G01 X36.4380 Y-3.7693
G01 X36.3730 Y-3.9068
G01 X36.3211 Y-4.0524
G01 X36.2848 Y-4.1976
G01 X36.2628 Y-4.3456
G01 X36.2551 Y-4.4975
G01 X36.2625 Y-4.6519
G01 X36.2848 Y-4.8024
G01 X36.3217 Y-4.9499
G01 X36.3740 Y-5.0954
G01 X36.4380 Y-5.2307
G01 X36.5149 Y-5.3591
G01 X36.6068 Y-5.4833
G01 X36.7108 Y-5.5977
G01 X36.8217 Y-5.6982
G01 X36.9439 Y-5.7888
G01 X37.0765 Y-5.8681
G01 X37.2118 Y-5.9320
G01 X37.3539 Y-5.9829
G01 X37.5050 Y-6.0206
G01 X37.6531 Y-6.0425
G01 X37.8038 Y-6.0500
G01 X37.9581 Y-6.0424
G01 X38.1062 Y-6.0204
G01 X38.1762 Y-6.0031
G01 X45.5046 Y-13.3315
G01 X45.5046 Y-28.9335
G01 X44.5485 Y-29.8896
G01 X34.8715 Y-29.8896
G01 X33.5931 Y-28.6112
G01 X33.6104 Y-28.5412
G01 X33.6324 Y-28.3931
G01 X33.6400 Y-28.2412
G01 X33.6325 Y-28.0881
G01 X33.6100 Y-27.9364
G01 X33.5725 Y-27.7877
G01 X33.5220 Y-27.6468
G01 X33.4581 Y-27.5115
G01 X33.3788 Y-27.3789
G01 X33.2874 Y-27.2558
G01 X33.1860 Y-27.1440
G01 X33.0714 Y-27.0403
G01 X32.9491 Y-26.9499
G01 X32.8207 Y-26.8730
G01 X32.6854 Y-26.8090
G01 X32.5399 Y-26.7567
G01 X32.3924 Y-26.7198
G01 X32.2419 Y-26.6975
G01 X32.0900 Y-26.6900
G01 X31.9356 Y-26.6978
G01 X31.7876 Y-26.7198
G01 X31.6424 Y-26.7561
G01 X31.4968 Y-26.8080
G01 X31.3593 Y-26.8730
G01 X31.2269 Y-26.9526
G01 X31.1067 Y-27.0418
G01 X30.9958 Y-27.1423
G01 X30.8918 Y-27.2567
G01 X30.8012 Y-27.3789
G01 X30.7219 Y-27.5115
G01 X30.6580 Y-27.6468
G01 X30.6075 Y-27.7877
G01 X30.5698 Y-27.9376
G01 X30.5475 Y-28.0881
G01 X30.5400 Y-28.2400
G01 X30.5478 Y-28.3944
G01 X30.5698 Y-28.5424
G01 X30.6061 Y-28.6876
G01 X30.6575 Y-28.8320
G01 X30.7230 Y-28.9707
G01 X30.8012 Y-29.1011
G01 X30.8918 Y-29.2233
G01 X30.9923 Y-29.3342
G01 X31.1086 Y-29.4397
G01 X31.2289 Y-29.5288
G01 X31.3604 Y-29.6075
G01 X31.4968 Y-29.6720
G01 X31.6401 Y-29.7233
G01 X31.7876 Y-29.7602
G01 X31.9369 Y-29.7824
G01 X32.0900 Y-29.7900
G01 X32.2407 Y-29.7826
G01 X32.3912 Y-29.7604
G01 X32.4612 Y-29.7431
G01 X33.9740 Y-31.2560
G01 X34.0322 Y-31.3087
G01 X34.0953 Y-31.3555
G01 X34.1606 Y-31.3947
G01 X34.2360 Y-31.4303
G01 X34.3077 Y-31.4559
G01 X34.3839 Y-31.4750
G01 X34.4615 Y-31.4865
G01 X34.5388 Y-31.4904
G01 X44.8800 Y-31.4904
G01 X44.9585 Y-31.4865
G01 X45.0349 Y-31.4752
G01 X45.1147 Y-31.4551
G01 X45.1863 Y-31.4295
G01 X45.2551 Y-31.3970
G01 X45.3247 Y-31.3555
G01 X45.3896 Y-31.3071
G01 X45.4460 Y-31.2560
G01 X46.8718 Y-29.8301
G01 X46.9237 Y-29.7728
G01 X46.9705 Y-29.7097
G01 X47.0109 Y-29.6423
G01 X47.0445 Y-29.5713
G01 X47.0709 Y-29.4973
G01 X47.0900 Y-29.4211
G01 X47.1015 Y-29.3435
G01 X47.1053 Y-29.2675
G00 Z2.0000
G00 X47.8650 Y-32.5850
G01 F60.00
G01 Z-0.0000
G01 F120.00
G01 X47.8650 Y-0.4000
G01 X0.4400 Y-0.4000
G01 X0.4400 Y-32.5850
G01 X47.8650 Y-32.5850
G00 Z2.0000
G00 X48.0650 Y-32.6875
G01 F60.00
G01 Z-0.0000
G01 F120.00
G01 X48.0650 Y-0.3000
G01 X48.0642 Y-0.2878
G01 X48.0631 Y-0.2805
G01 X48.0614 Y-0.2733
G01 X48.0579 Y-0.2629
G01 X48.0532 Y-0.2528
G01 X48.0468 Y-0.2424
G01 X48.0423 Y-0.2365
G01 X48.0374 Y-0.2310
G01 X48.0294 Y-0.2235
G01 X48.0206 Y-0.2168
G01 X48.0100 Y-0.2107
G01 X48.0033 Y-0.2076
G01 X47.9940 Y-0.2043
G01 X47.9845 Y-0.2019
G01 X47.9772 Y-0.2008
G01 X47.9650 Y-0.2000
G01 X0.3400 Y-0.2000
G01 X0.3278 Y-0.2008
G01 X0.3205 Y-0.2019
G01 X0.3133 Y-0.2036
G01 X0.3029 Y-0.2071
G01 X0.2928 Y-0.2118
G01 X0.2824 Y-0.2182
G01 X0.2765 Y-0.2227
G01 X0.2710 Y-0.2276
G01 X0.2635 Y-0.2356
G01 X0.2568 Y-0.2444
G01 X0.2507 Y-0.2550
G01 X0.2476 Y-0.2617
G01 X0.2443 Y-0.2710
G01 X0.2419 Y-0.2805
G01 X0.2408 Y-0.2878
G01 X0.2400 Y-0.3000
G01 X0.2400 Y-32.6850
G01 X0.2408 Y-32.6972
G01 X0.2419 Y-32.7045
G01 X0.2436 Y-32.7117
G01 X0.2471 Y-32.7221
G01 X0.2518 Y-32.7322
G01 X0.2582 Y-32.7426
G01 X0.2627 Y-32.7485
G01 X0.2676 Y-32.7540
G01 X0.2756 Y-32.7615
G01 X0.2844 Y-32.7682
G01 X0.2950 Y-32.7743
G01 X0.3017 Y-32.7774
G01 X0.3110 Y-32.7807
G01 X0.3205 Y-32.7831
G01 X0.3278 Y-32.7842
G01 X0.3400 Y-32.7850
G01 X47.9650 Y-32.7850
G01 X47.9748 Y-32.7845
G01 X47.9845 Y-32.7831
G01 X47.9940 Y-32.7807
G01 X48.0033 Y-32.7774
G01 X48.0122 Y-32.7732
G01 X48.0206 Y-32.7682
G01 X48.0285 Y-32.7623
G01 X48.0357 Y-32.7557
G01 X48.0423 Y-32.7485
G01 X48.0482 Y-32.7406
G01 X48.0532 Y-32.7322
G01 X48.0574 Y-32.7233
G01 X48.0607 Y-32.7140
G01 X48.0631 Y-32.7045
G01 X48.0645 Y-32.6948
G01 X48.0650 Y-32.6875
G00 Z2.0000
G00 X30.2551 Y-18.6975
G01 F60.00
G01 Z-0.0000
G01 F120.00
G01 X30.2625 Y-18.8519
G01 X30.2848 Y-19.0024
G01 X30.3217 Y-19.1499
G01 X30.3730 Y-19.2932
G01 X30.4380 Y-19.4307
G01 X30.5162 Y-19.5611
G01 X30.6068 Y-19.6833
G01 X30.7090 Y-19.7960
G01 X30.8217 Y-19.8982
G01 X30.9439 Y-19.9888
G01 X31.0743 Y-20.0670
G01 X31.2118 Y-20.1320
G01 X31.3551 Y-20.1833
G01 X31.5026 Y-20.2202
G01 X31.6531 Y-20.2425
G01 X31.8050 Y-20.2500
G01 X31.9569 Y-20.2425
G01 X32.1074 Y-20.2202
G01 X32.2549 Y-20.1833
G01 X32.3982 Y-20.1320
G01 X32.5357 Y-20.0670
G01 X32.6661 Y-19.9888
G01 X32.7883 Y-19.8982
G01 X32.9010 Y-19.7960
G01 X33.0032 Y-19.6833
G01 X33.0938 Y-19.5611
G01 X33.1720 Y-19.4307
G01 X33.2370 Y-19.2932
G01 X33.2883 Y-19.1499
G01 X33.3252 Y-19.0024
G01 X33.3475 Y-18.8519
G01 X33.3550 Y-18.7000
G01 X33.3475 Y-18.5481
G01 X33.3252 Y-18.3976
G01 X33.2883 Y-18.2501
G01 X33.2370 Y-18.1068
G01 X33.1720 Y-17.9693
G01 X33.0938 Y-17.8389
G01 X33.0032 Y-17.7167
G01 X32.9010 Y-17.6040
G01 X32.7883 Y-17.5018
G01 X32.6661 Y-17.4112
G01 X32.5357 Y-17.3330
G01 X32.3982 Y-17.2680
G01 X32.2549 Y-17.2167
G01 X32.1074 Y-17.1798
G01 X31.9569 Y-17.1575
G01 X31.8050 Y-17.1500
G01 X31.6531 Y-17.1575
G01 X31.5026 Y-17.1798
G01 X31.3551 Y-17.2167
G01 X31.2118 Y-17.2680
G01 X31.0743 Y-17.3330
G01 X30.9439 Y-17.4112
G01 X30.8217 Y-17.5018
G01 X30.7090 Y-17.6040
G01 X30.6068 Y-17.7167
G01 X30.5162 Y-17.8389
G01 X30.4380 Y-17.9693
G01 X30.3730 Y-18.1068
G01 X30.3217 Y-18.2501
G01 X30.2848 Y-18.3976
G01 X30.2625 Y-18.5481
G01 X30.2551 Y-18.6975
G00 Z2.0000
M05
G00 Z2.0000
G00 Z15.00


