; This gcode is generated by my specialised python script for my PCB manufacturer project :))

; Machine Initialization Sequence...

G21 ; to set metric units
G90 ; to set absolute mode , G91 for incremental mode
G94 ; To set the active feed rate mode to units per minute mode

M5 ; disabling spindle PWM
C0 ; Choosing the empty tool slot in the multiplexer circuits

B1 ; Turn ON Machine

; Getting and Activating Tool-2, The Tool.Spindle
C2 ; Choosing tool 2 in the choose demultiplexer circuits

F600 ; setting default feedrate

S230 ; sets pwm speed when we enable it

G01 Z10F20 ; Moving Spindle to UP Postion

M3 ; Turn Motor ON
G4 P2 ; dwell for 2 seconds so motor reaches full RPM

G01 X13.638Y9.5F600
G01 Z13F1
G01 Z10F20
G01 X16.138Y9.5F600
G01 Z13F1
G01 Z10F20
G01 X18.638Y9.5F600
G01 Z13F1
G01 Z10F20
G01 X21.138Y16.75F600
G01 Z13F1
G01 Z10F20
G01 X26.138Y16.75F600
G01 Z13F1
G01 Z10F20
G01 X9.239Y39.911F600
G01 Z13F1
G01 Z10F20
G01 X9.239Y32.291F600
G01 Z13F1
G01 Z10F20
G01 X24.638Y43.1325F600
G01 Z13F1
G01 Z10F20
G01 X22.138Y43.1325F600
G01 Z13F1
G01 Z10F20
G01 X16.138Y43.1F600
G01 Z13F1
G01 Z10F20
G01 X13.638Y43.1F600
G01 Z13F1
G01 Z10F20
G01 X21.138Y19.75F600
G01 Z13F1
G01 Z10F20
G01 X26.138Y19.75F600
G01 Z13F1
G01 Z10F20
G01 X7.638Y43.0F600
G01 Z13F1
G01 Z10F20
G01 X5.138Y43.0F600
G01 Z13F1
G01 Z10F20
G01 X20.4105Y35.5F600
G01 Z13F1
G01 Z10F20
G01 X20.4105Y38.0F600
G01 Z13F1
G01 Z10F20
G01 X14.822Y30.122F600
G01 Z13F1
G01 Z10F20
G01 X17.362Y30.122F600
G01 Z13F1
G01 Z10F20
G01 X17.362Y22.502F600
G01 Z13F1
G01 Z10F20
G01 X14.822Y22.502F600
G01 Z13F1
G01 Z10F20
G01 X6.638Y12.75F600
G01 Z13F1
G01 Z10F20
G01 X6.638Y20.37F600
G01 Z13F1
G01 Z10F20
G01 X18.638Y12.75F600
G01 Z13F1
G01 Z10F20
G01 X18.638Y20.37F600
G01 Z13F1
G01 Z10F20
G01 X14.192Y39.911F600
G01 Z13F1
G01 Z10F20
G01 X14.192Y32.291F600
G01 Z13F1
G01 Z10F20
G01 X21.138Y13.75F600
G01 Z13F1
G01 Z10F20
G01 X26.138Y13.75F600
G01 Z13F1
G01 Z10F20
G01 X15.638Y12.75F600
G01 Z13F1
G01 Z10F20
G01 X15.638Y20.37F600
G01 Z13F1
G01 Z10F20
G01 X3.638Y12.75F600
G01 Z13F1
G01 Z10F20
G01 X3.638Y20.37F600
G01 Z13F1
G01 Z10F20
G01 X5.138Y9.5F600
G01 Z13F1
G01 Z10F20
G01 X7.638Y9.5F600
G01 Z13F1
G01 Z10F20
G01 X9.234Y30.122F600
G01 Z13F1
G01 Z10F20
G01 X11.774Y30.122F600
G01 Z13F1
G01 Z10F20
G01 X11.774Y22.502F600
G01 Z13F1
G01 Z10F20
G01 X9.234Y22.502F600
G01 Z13F1
G01 Z10F20
G01 X3.651Y39.911F600
G01 Z13F1
G01 Z10F20
G01 X3.651Y32.291F600
G01 Z13F1
G01 Z10F20
G01 X12.638Y12.75F600
G01 Z13F1
G01 Z10F20
G01 X12.638Y20.37F600
G01 Z13F1
G01 Z10F20
G01 X3.646Y30.122F600
G01 Z13F1
G01 Z10F20
G01 X6.186Y30.122F600
G01 Z13F1
G01 Z10F20
G01 X6.186Y22.502F600
G01 Z13F1
G01 Z10F20
G01 X3.646Y22.502F600
G01 Z13F1
G01 Z10F20
G01 X9.638Y12.75F600
G01 Z13F1
G01 Z10F20
G01 X9.638Y20.37F600
G01 Z13F1
G01 Z10F20

M5 ; disabling spindle PWM

; Returning the Deactivating Tool-2
C0 ; PWM Tool select demultiplexer to select tool zero which is the empty tool slot in multiplexers

; Machine deinitialization Sequence... 
G00X0.0Y0.0Z0.0
B0 ; Turn Machine OFF
