; This gcode is generated by my specialised python script for my PCB manufacturer project :))

; Machine Initialization Sequence...

G21 ; to set metric units
G90 ; to set absolute mode , G91 for incremental mode
G94 ; To set the active feed rate mode to units per minute mode

M5 ; disabling spindle PWM
C0 ; Choosing the empty tool slot in the multiplexer circuits

B1 ; Turn ON Machine

$H ; Homing :)
G10 P0 L20 X0.0Y0.0Z0.0 ; Force Reset current coordinates after homing


; The following gcode is the PCB trace laser marking gcode

M5 ; Being extra sure it won't light up before activation

; Getting and Activating Tool-1, The Tool.Laser
G00X165.0Y0.0Z10.5 ; Go to Tool-1 Home Pos
G00X188 ; Enter Female Kinematic Mount Home Pos
A1 ; Latch on Kinematic Mount
G4 P5 ; Wait for Kinematic Mount to fully attach
G00X92 ; Exit Female Kinematic Mount Home Pos
#TODO X0.0Y0.0Z0.0 ;  ;Add tool offset coordinate
C1 ; Choosing tool 1 in the choose demultiplexer circuits

F400 ; setting default feedrate

G00Z16 ; Moving to correct focal length Z position

S200 ; Setting Laser Power

; Number of passes: 1

; Pass number: 1
G01 X16.58353Y4.305
M3
G01 X19.11Y6.83147
G01 X19.11Y24.29431
G01 X16.28858Y27.11573
G01 X16.21335Y27.08015
G01 X16.09786Y27.03882
G01 X15.97886Y27.00902
G01 X15.85752Y26.99102
G01 X15.735Y26.985
G01 X15.61248Y26.99102
G01 X15.49114Y27.00902
G01 X15.37214Y27.03882
G01 X15.25665Y27.08015
G01 X15.14575Y27.1326
G01 X15.04054Y27.19566
G01 X14.94201Y27.26874
G01 X14.85112Y27.35112
G01 X14.76874Y27.44201
G01 X14.69566Y27.54054
G01 X14.6326Y27.64575
G01 X14.58015Y27.75665
G01 X14.53882Y27.87214
G01 X14.50902Y27.99114
G01 X14.49102Y28.11248
G01 X14.485Y28.235
G01 X14.49102Y28.35752
G01 X14.50902Y28.47886
G01 X14.53882Y28.59786
G01 X14.58015Y28.71335
G01 X14.6326Y28.82425
G01 X14.69566Y28.92946
G01 X14.76874Y29.02799
G01 X14.85112Y29.11888
G01 X14.94201Y29.20126
G01 X15.04054Y29.27434
G01 X15.14575Y29.3374
G01 X15.25665Y29.38985
G01 X15.37214Y29.43118
G01 X15.49114Y29.46098
G01 X15.61248Y29.47898
G01 X15.735Y29.485
G01 X15.85752Y29.47898
G01 X15.97886Y29.46098
G01 X16.09786Y29.43118
G01 X16.21335Y29.38985
G01 X16.28858Y29.35427
G01 X19.50216Y32.56784
G01 X19.53124Y32.5942
G01 X19.56277Y32.61759
G01 X19.59644Y32.63777
G01 X19.63193Y32.65455
G01 X19.66889Y32.66778
G01 X19.70696Y32.67731
G01 X19.74579Y32.68307
G01 X19.785Y32.685
G01 X29.465Y32.685
G01 X29.50421Y32.68307
G01 X29.54304Y32.67731
G01 X29.58111Y32.66778
G01 X29.61807Y32.65455
G01 X29.65356Y32.63777
G01 X29.68723Y32.61759
G01 X29.71876Y32.5942
G01 X29.74784Y32.56784
G01 X32.96142Y29.35427
G01 X33.03665Y29.38985
G01 X33.15214Y29.43118
G01 X33.27114Y29.46098
G01 X33.39248Y29.47898
G01 X33.515Y29.485
G01 X33.63752Y29.47898
G01 X33.75886Y29.46098
G01 X33.87786Y29.43118
G01 X33.99335Y29.38985
G01 X34.10425Y29.3374
G01 X34.20946Y29.27434
G01 X34.30799Y29.20126
G01 X34.39888Y29.11888
G01 X34.48126Y29.02799
G01 X34.55434Y28.92946
G01 X34.6174Y28.82425
G01 X34.66985Y28.71335
G01 X34.71118Y28.59786
G01 X34.74098Y28.47886
G01 X34.75898Y28.35752
G01 X34.765Y28.235
G01 X34.75898Y28.11248
G01 X34.74098Y27.99114
G01 X34.71118Y27.87214
G01 X34.66985Y27.75665
G01 X34.6174Y27.64575
G01 X34.55434Y27.54054
G01 X34.48126Y27.44201
G01 X34.39888Y27.35112
G01 X34.30799Y27.26874
G01 X34.20946Y27.19566
G01 X34.10425Y27.1326
G01 X33.99335Y27.08015
G01 X33.87786Y27.03882
G01 X33.75886Y27.00902
G01 X33.63752Y26.99102
G01 X33.515Y26.985
G01 X33.39248Y26.99102
G01 X33.27114Y27.00902
G01 X33.15214Y27.03882
G01 X33.03665Y27.08015
G01 X32.92575Y27.1326
G01 X32.82054Y27.19566
G01 X32.72201Y27.26874
G01 X32.63112Y27.35112
G01 X32.54874Y27.44201
G01 X32.47566Y27.54054
G01 X32.4126Y27.64575
G01 X32.36015Y27.75665
G01 X32.31882Y27.87214
G01 X32.28902Y27.99114
G01 X32.27102Y28.11248
G01 X32.265Y28.235
G01 X32.27102Y28.35752
G01 X32.28902Y28.47886
G01 X32.31882Y28.59786
G01 X32.36015Y28.71335
G01 X32.39573Y28.78858
G01 X29.29931Y31.885
G01 X19.95069Y31.885
G01 X16.85427Y28.78858
G01 X16.88985Y28.71335
G01 X16.93118Y28.59786
G01 X16.96098Y28.47886
G01 X16.97898Y28.35752
G01 X16.985Y28.235
G01 X16.97898Y28.11248
G01 X16.96098Y27.99114
G01 X16.93118Y27.87214
G01 X16.88985Y27.75665
G01 X16.85427Y27.68142
G01 X19.79284Y24.74284
G01 X19.81921Y24.71376
G01 X19.84259Y24.68223
G01 X19.86277Y24.64856
G01 X19.87955Y24.61307
G01 X19.89278Y24.57611
G01 X19.90232Y24.53804
G01 X19.90807Y24.49921
G01 X19.91Y24.46
G01 X19.91Y6.66579
G01 X19.90807Y6.62658
G01 X19.90232Y6.58775
G01 X19.89278Y6.54967
G01 X19.87955Y6.51271
G01 X19.86277Y6.47723
G01 X19.84259Y6.44356
G01 X19.81921Y6.41203
G01 X19.79284Y6.38294
G01 X17.03206Y3.62216
G01 X17.00297Y3.5958
G01 X16.97144Y3.57241
G01 X16.93777Y3.55223
G01 X16.90229Y3.53545
G01 X16.86533Y3.52222
G01 X16.82725Y3.51269
G01 X16.78842Y3.50693
G01 X16.74921Y3.505
G01 X10.24Y3.505
G01 X10.20079Y3.50693
G01 X10.16196Y3.51269
G01 X10.12389Y3.52222
G01 X10.08693Y3.53545
G01 X10.05144Y3.55223
G01 X10.01777Y3.57241
G01 X9.98624Y3.5958
G01 X9.95716Y3.62216
G01 X7.37431Y6.205
G01 X6.24Y6.205
G01 X6.24Y7.905
G01 X6.7Y7.905
G01 X6.7Y9.56318
G01 X6.65554Y9.58982
G01 X6.59249Y9.63659
G01 X6.53431Y9.68931
G01 X6.48159Y9.74749
G01 X6.43482Y9.81054
G01 X6.39446Y9.87788
G01 X6.3609Y9.94885
G01 X6.33445Y10.02277
G01 X6.31537Y10.09893
G01 X6.30385Y10.17659
G01 X6.3Y10.255
G01 X6.30385Y10.33341
G01 X6.31537Y10.41107
G01 X6.32797Y10.46135
G01 X4.84693Y11.94238
G01 X4.84258Y11.94129
G01 X4.75522Y11.92833
G01 X4.667Y11.924
G01 X4.57878Y11.92833
G01 X4.49142Y11.94129
G01 X4.40574Y11.96275
G01 X4.32258Y11.99251
G01 X4.24274Y12.03027
G01 X4.16699Y12.07568
G01 X4.09605Y12.12829
G01 X4.0306Y12.1876
G01 X3.97129Y12.25305
G01 X3.91868Y12.32399
G01 X3.87327Y12.39974
G01 X3.83551Y12.47958
G01 X3.80575Y12.56274
G01 X3.78429Y12.64842
G01 X3.77133Y12.73578
G01 X3.767Y12.824
G01 X3.77133Y12.91222
G01 X3.78429Y12.99958
G01 X3.80575Y13.08526
G01 X3.83551Y13.16842
G01 X3.87327Y13.24826
G01 X3.91868Y13.32401
G01 X3.97129Y13.39495
G01 X4.0306Y13.4604
G01 X4.09605Y13.51971
G01 X4.16699Y13.57232
G01 X4.24274Y13.61773
G01 X4.32258Y13.65549
G01 X4.40574Y13.68525
G01 X4.49142Y13.70671
G01 X4.57878Y13.71967
G01 X4.667Y13.724
G01 X4.75522Y13.71967
G01 X4.84258Y13.70671
G01 X4.92826Y13.68525
G01 X5.01142Y13.65549
G01 X5.09126Y13.61773
G01 X5.16701Y13.57232
G01 X5.23795Y13.51971
G01 X5.3034Y13.4604
G01 X5.36271Y13.39495
G01 X5.41532Y13.32401
G01 X5.46073Y13.24826
G01 X5.49849Y13.16842
G01 X5.52825Y13.08526
G01 X5.54971Y12.99958
G01 X5.56267Y12.91222
G01 X5.567Y12.824
G01 X5.56267Y12.73578
G01 X5.54971Y12.64842
G01 X5.52825Y12.56274
G01 X5.49849Y12.47958
G01 X5.48006Y12.44062
G01 X6.89365Y11.02703
G01 X6.94393Y11.03963
G01 X7.02159Y11.05115
G01 X7.1Y11.055
G01 X7.17841Y11.05115
G01 X7.25607Y11.03963
G01 X7.30635Y11.02703
G01 X8.585Y12.30569
G01 X8.585Y13.9
G01 X8.185Y13.9
G01 X8.185Y15.5
G01 X8.585Y15.5
G01 X8.585Y16.43431
G01 X7.26431Y17.755
G01 X6.33Y17.755
G01 X6.33Y19.255
G01 X7.83Y19.255
G01 X7.83Y18.32069
G01 X9.26784Y16.88284
G01 X9.2942Y16.85376
G01 X9.31759Y16.82223
G01 X9.33777Y16.78856
G01 X9.35455Y16.75307
G01 X9.36778Y16.71611
G01 X9.37731Y16.67804
G01 X9.38307Y16.63921
G01 X9.385Y16.6
G01 X9.385Y15.5
G01 X9.785Y15.5
G01 X9.785Y13.9
G01 X9.385Y13.9
G01 X9.385Y12.14
G01 X9.385Y12.14
G01 X9.38307Y12.10079
G01 X9.37731Y12.06196
G01 X9.37492Y12.05242
G01 X9.36778Y12.02389
G01 X9.35928Y12.00014
G01 X9.35455Y11.98693
G01 X9.33777Y11.95144
G01 X9.31759Y11.91777
G01 X9.31155Y11.90963
G01 X9.2942Y11.88624
G01 X9.26784Y11.85716
G01 X7.87203Y10.46135
G01 X7.88463Y10.41107
G01 X7.89615Y10.33341
G01 X7.9Y10.255
G01 X7.89615Y10.17659
G01 X7.88463Y10.09893
G01 X7.86555Y10.02277
G01 X7.8391Y9.94885
G01 X7.80554Y9.87788
G01 X7.76518Y9.81054
G01 X7.71841Y9.74749
G01 X7.66569Y9.68931
G01 X7.60751Y9.63659
G01 X7.54446Y9.58982
G01 X7.5Y9.56318
G01 X7.5Y7.905
G01 X7.94Y7.905
G01 X7.94Y6.77069
G01 X10.40569Y4.305
G01 X16.58353Y4.305
G01 X16.58353Y4.305
M5
G01 X6.93368Y25.38941
M3
G01 X6.86229Y25.40729
G01 X6.79299Y25.43209
G01 X6.72645Y25.46356
G01 X6.66332Y25.5014
G01 X6.60421Y25.54524
G01 X6.54967Y25.59467
G01 X6.50024Y25.64921
G01 X6.4564Y25.70832
G01 X6.4464Y25.725
G01 X5.22882Y25.725
G01 X5.20518Y25.68554
G01 X5.15841Y25.62249
G01 X5.10569Y25.56431
G01 X5.04751Y25.51159
G01 X4.98446Y25.46482
G01 X4.91712Y25.42446
G01 X4.84615Y25.3909
G01 X4.77223Y25.36445
G01 X4.69607Y25.34537
G01 X4.61841Y25.33385
G01 X4.54Y25.33
G01 X4.46159Y25.33385
G01 X4.38393Y25.34537
G01 X4.30777Y25.36445
G01 X4.23385Y25.3909
G01 X4.16288Y25.42446
G01 X4.09554Y25.46482
G01 X4.03249Y25.51159
G01 X3.97431Y25.56431
G01 X3.92159Y25.62249
G01 X3.87482Y25.68554
G01 X3.83446Y25.75288
G01 X3.8009Y25.82385
G01 X3.77445Y25.89777
G01 X3.75537Y25.97393
G01 X3.74385Y26.05159
G01 X3.74Y26.13
G01 X3.74385Y26.20841
G01 X3.75537Y26.28607
G01 X3.77445Y26.36223
G01 X3.8009Y26.43615
G01 X3.83446Y26.50712
G01 X3.87482Y26.57446
G01 X3.92159Y26.63751
G01 X3.97431Y26.69569
G01 X4.03249Y26.74841
G01 X4.09554Y26.79518
G01 X4.16288Y26.83554
G01 X4.23385Y26.8691
G01 X4.30777Y26.89555
G01 X4.38393Y26.91463
G01 X4.46159Y26.92615
G01 X4.54Y26.93
G01 X4.61841Y26.92615
G01 X4.69607Y26.91463
G01 X4.77223Y26.89555
G01 X4.84615Y26.8691
G01 X4.91712Y26.83554
G01 X4.98446Y26.79518
G01 X5.04751Y26.74841
G01 X5.10569Y26.69569
G01 X5.15841Y26.63751
G01 X5.20518Y26.57446
G01 X5.23482Y26.525
G01 X6.4464Y26.525
G01 X6.4564Y26.54168
G01 X6.50024Y26.60079
G01 X6.54967Y26.65533
G01 X6.60421Y26.70476
G01 X6.66332Y26.7486
G01 X6.72645Y26.78644
G01 X6.79299Y26.81791
G01 X6.86229Y26.84271
G01 X6.93368Y26.86059
G01 X7.00649Y26.87139
G01 X7.08Y26.875
G01 X7.15351Y26.87139
G01 X7.22632Y26.86059
G01 X7.24518Y26.85586
G01 X8.05958Y27.67026
G01 X8.05958Y28.74051
G01 X8.05375Y28.74694
G01 X8.02305Y28.78833
G01 X7.99657Y28.83252
G01 X7.97454Y28.87909
G01 X7.95718Y28.9276
G01 X7.94466Y28.97758
G01 X7.9371Y29.02854
G01 X7.93458Y29.53
G01 X7.9371Y29.58146
G01 X7.94466Y29.63242
G01 X7.95718Y29.6824
G01 X7.97454Y29.73091
G01 X7.99657Y29.77748
G01 X8.02305Y29.82167
G01 X8.05375Y29.86306
G01 X8.05958Y29.86949
G01 X8.05958Y30.855
G01 X8.0615Y30.89421
G01 X8.06726Y30.93304
G01 X8.0768Y30.97111
G01 X8.09002Y31.00807
G01 X8.10681Y31.04356
G01 X8.12699Y31.07723
G01 X8.15037Y31.10876
G01 X8.17673Y31.13784
G01 X10.60673Y33.56784
G01 X10.63582Y33.59421
G01 X10.66735Y33.61759
G01 X10.70102Y33.63777
G01 X10.7365Y33.65455
G01 X10.77346Y33.66778
G01 X10.81154Y33.67732
G01 X10.85037Y33.68307
G01 X10.88958Y33.685
G01 X33.58Y33.685
G01 X40.465Y33.685
G01 X40.50421Y33.68307
G01 X40.54304Y33.67732
G01 X40.58111Y33.66778
G01 X40.61807Y33.65455
G01 X40.65356Y33.63777
G01 X40.68723Y33.61759
G01 X40.71876Y33.59421
G01 X40.74784Y33.56784
G01 X44.96142Y29.35427
G01 X45.03665Y29.38985
G01 X45.15214Y29.43118
G01 X45.27114Y29.46098
G01 X45.39248Y29.47898
G01 X45.515Y29.485
G01 X45.63752Y29.47898
G01 X45.75886Y29.46098
G01 X45.87786Y29.43118
G01 X45.99335Y29.38985
G01 X46.10425Y29.3374
G01 X46.20946Y29.27434
G01 X46.30799Y29.20126
G01 X46.39888Y29.11888
G01 X46.48126Y29.02799
G01 X46.55434Y28.92946
G01 X46.6174Y28.82425
G01 X46.66985Y28.71335
G01 X46.71118Y28.59786
G01 X46.74098Y28.47886
G01 X46.75898Y28.35752
G01 X46.765Y28.235
G01 X46.75898Y28.11248
G01 X46.74098Y27.99114
G01 X46.71118Y27.87214
G01 X46.66985Y27.75665
G01 X46.6174Y27.64575
G01 X46.55434Y27.54054
G01 X46.48126Y27.44201
G01 X46.39888Y27.35112
G01 X46.30799Y27.26874
G01 X46.20946Y27.19566
G01 X46.10425Y27.1326
G01 X45.99335Y27.08015
G01 X45.87786Y27.03882
G01 X45.75886Y27.00902
G01 X45.63752Y26.99102
G01 X45.515Y26.985
G01 X45.39248Y26.99102
G01 X45.27114Y27.00902
G01 X45.15214Y27.03882
G01 X45.03665Y27.08015
G01 X44.92575Y27.1326
G01 X44.82054Y27.19566
G01 X44.72201Y27.26874
G01 X44.63112Y27.35112
G01 X44.54874Y27.44201
G01 X44.47566Y27.54054
G01 X44.4126Y27.64575
G01 X44.36015Y27.75665
G01 X44.31882Y27.87214
G01 X44.28902Y27.99114
G01 X44.27102Y28.11248
G01 X44.265Y28.235
G01 X44.27102Y28.35752
G01 X44.28902Y28.47886
G01 X44.31882Y28.59786
G01 X44.36015Y28.71335
G01 X44.39573Y28.78858
G01 X40.29931Y32.885
G01 X34.54568Y32.885
G01 X35.64784Y31.78284
G01 X35.6742Y31.75376
G01 X35.69759Y31.72223
G01 X35.71777Y31.68856
G01 X35.73455Y31.65307
G01 X35.74778Y31.61611
G01 X35.75731Y31.57804
G01 X35.76307Y31.53921
G01 X35.765Y31.5
G01 X35.765Y27.4687
G01 X35.76307Y27.4295
G01 X35.75731Y27.39067
G01 X35.74778Y27.35259
G01 X35.73455Y27.31563
G01 X35.71777Y27.28015
G01 X35.69759Y27.24648
G01 X35.6742Y27.21495
G01 X35.64784Y27.18586
G01 X34.30914Y25.84716
G01 X34.28005Y25.8208
G01 X34.24852Y25.79741
G01 X34.21485Y25.77723
G01 X34.17937Y25.76045
G01 X34.14241Y25.74722
G01 X34.10433Y25.73769
G01 X34.0655Y25.73193
G01 X34.0263Y25.73
G01 X29.84Y25.73
G01 X29.80079Y25.73193
G01 X29.76196Y25.73769
G01 X29.72389Y25.74722
G01 X29.68693Y25.76045
G01 X29.65144Y25.77723
G01 X29.61777Y25.79741
G01 X29.58624Y25.8208
G01 X29.55716Y25.84716
G01 X28.28858Y27.11573
G01 X28.21335Y27.08015
G01 X28.09786Y27.03882
G01 X27.97886Y27.00902
G01 X27.85752Y26.99102
G01 X27.735Y26.985
G01 X27.61248Y26.99102
G01 X27.49114Y27.00902
G01 X27.37214Y27.03882
G01 X27.25665Y27.08015
G01 X27.14575Y27.1326
G01 X27.04054Y27.19566
G01 X26.94201Y27.26874
G01 X26.85112Y27.35112
G01 X26.76874Y27.44201
G01 X26.69566Y27.54054
G01 X26.6326Y27.64575
G01 X26.58015Y27.75665
G01 X26.53882Y27.87214
G01 X26.50902Y27.99114
G01 X26.49102Y28.11248
G01 X26.485Y28.235
G01 X26.49102Y28.35752
G01 X26.50902Y28.47886
G01 X26.53882Y28.59786
G01 X26.58015Y28.71335
G01 X26.6326Y28.82425
G01 X26.69566Y28.92946
G01 X26.76874Y29.02799
G01 X26.85112Y29.11888
G01 X26.94201Y29.20126
G01 X27.04054Y29.27434
G01 X27.14575Y29.3374
G01 X27.25665Y29.38985
G01 X27.37214Y29.43118
G01 X27.49114Y29.46098
G01 X27.61248Y29.47898
G01 X27.735Y29.485
G01 X27.85752Y29.47898
G01 X27.97886Y29.46098
G01 X28.09786Y29.43118
G01 X28.21335Y29.38985
G01 X28.32425Y29.3374
G01 X28.42946Y29.27434
G01 X28.52799Y29.20126
G01 X28.61888Y29.11888
G01 X28.70126Y29.02799
G01 X28.77434Y28.92946
G01 X28.8374Y28.82425
G01 X28.88985Y28.71335
G01 X28.93118Y28.59786
G01 X28.96098Y28.47886
G01 X28.97898Y28.35752
G01 X28.985Y28.235
G01 X28.97898Y28.11248
G01 X28.96098Y27.99114
G01 X28.93118Y27.87214
G01 X28.88985Y27.75665
G01 X28.85427Y27.68142
G01 X30.00569Y26.53
G01 X33.86061Y26.53
G01 X34.965Y27.63439
G01 X34.965Y31.33431
G01 X33.41431Y32.885
G01 X11.05526Y32.885
G01 X8.85958Y30.68931
G01 X8.85958Y29.86949
G01 X8.86541Y29.86306
G01 X8.8961Y29.82167
G01 X8.92258Y29.77748
G01 X8.94461Y29.73091
G01 X8.96197Y29.6824
G01 X8.97449Y29.63242
G01 X8.98205Y29.58146
G01 X8.98458Y29.08
G01 X8.98205Y29.02854
G01 X8.97449Y28.97758
G01 X8.96197Y28.9276
G01 X8.94461Y28.87909
G01 X8.92258Y28.83252
G01 X8.8961Y28.78833
G01 X8.86541Y28.74694
G01 X8.85958Y28.74051
G01 X8.85958Y27.50458
G01 X8.85958Y27.50458
G01 X8.85765Y27.46537
G01 X8.85189Y27.42654
G01 X8.84235Y27.38846
G01 X8.82913Y27.3515
G01 X8.81325Y27.31793
G01 X8.81234Y27.31602
G01 X8.81234Y27.31602
G01 X8.79216Y27.28235
G01 X8.76878Y27.25082
G01 X8.74242Y27.22173
G01 X7.81086Y26.29018
G01 X7.81559Y26.27132
G01 X7.82639Y26.19851
G01 X7.83Y26.125
G01 X7.82639Y26.05149
G01 X7.81559Y25.97868
G01 X7.79771Y25.90729
G01 X7.77291Y25.83799
G01 X7.74144Y25.77145
G01 X7.7036Y25.70832
G01 X7.65976Y25.64921
G01 X7.61033Y25.59467
G01 X7.55579Y25.54524
G01 X7.49668Y25.5014
G01 X7.43355Y25.46356
G01 X7.36701Y25.43209
G01 X7.29771Y25.40729
G01 X7.22632Y25.38941
G01 X7.15351Y25.37861
G01 X7.08Y25.375
G01 X7.00649Y25.37861
G01 X6.93368Y25.38941
G01 X6.93368Y25.38941
M5
G01 X36.05368Y3.25941
M3
G01 X35.98229Y3.27729
G01 X35.9336Y3.29472
G01 X35.91299Y3.30209
G01 X35.84645Y3.33356
G01 X35.78332Y3.3714
G01 X35.7634Y3.38618
G01 X35.72421Y3.41524
G01 X35.68472Y3.45103
G01 X35.66967Y3.46467
G01 X34.1369Y4.99744
G01 X34.04264Y4.97382
G01 X33.89703Y4.95222
G01 X33.75Y4.945
G01 X33.60297Y4.95222
G01 X33.45736Y4.97382
G01 X33.31457Y5.00959
G01 X33.17597Y5.05918
G01 X33.0429Y5.12212
G01 X32.91664Y5.1978
G01 X32.79841Y5.28548
G01 X32.68934Y5.38434
G01 X32.59048Y5.49341
G01 X32.5028Y5.61164
G01 X32.42712Y5.7379
G01 X32.36418Y5.87097
G01 X32.31459Y6.00957
G01 X32.27882Y6.15236
G01 X32.25722Y6.29797
G01 X32.25Y6.445
G01 X32.25722Y6.59203
G01 X32.27882Y6.73764
G01 X32.31459Y6.88043
G01 X32.36418Y7.01903
G01 X32.42712Y7.1521
G01 X32.5028Y7.27836
G01 X32.59048Y7.39659
G01 X32.68934Y7.50566
G01 X32.79841Y7.60452
G01 X32.91664Y7.6922
G01 X33.0429Y7.76788
G01 X33.17597Y7.83082
G01 X33.31457Y7.88041
G01 X33.45736Y7.91618
G01 X33.60297Y7.93778
G01 X33.75Y7.945
G01 X33.89703Y7.93778
G01 X34.04264Y7.91618
G01 X34.18543Y7.88041
G01 X34.32403Y7.83082
G01 X34.4571Y7.76788
G01 X34.58336Y7.6922
G01 X34.70159Y7.60452
G01 X34.81066Y7.50566
G01 X34.90952Y7.39659
G01 X34.9972Y7.27836
G01 X35.07288Y7.1521
G01 X35.13582Y7.01903
G01 X35.18541Y6.88043
G01 X35.22118Y6.73764
G01 X35.24278Y6.59203
G01 X35.25Y6.445
G01 X35.24278Y6.29797
G01 X35.22118Y6.15236
G01 X35.19756Y6.0581
G01 X36.51066Y4.745
G01 X46.22934Y4.745
G01 X47.215Y5.73066
G01 X47.215Y21.37434
G01 X39.8519Y28.73744
G01 X39.75764Y28.71382
G01 X39.61203Y28.69222
G01 X39.465Y28.685
G01 X39.31797Y28.69222
G01 X39.17236Y28.71382
G01 X39.02957Y28.74959
G01 X38.89097Y28.79918
G01 X38.7579Y28.86212
G01 X38.63164Y28.9378
G01 X38.51341Y29.02548
G01 X38.40434Y29.12434
G01 X38.30548Y29.23341
G01 X38.2178Y29.35164
G01 X38.14212Y29.4779
G01 X38.07918Y29.61097
G01 X38.02959Y29.74957
G01 X37.99382Y29.89236
G01 X37.97222Y30.03797
G01 X37.965Y30.185
G01 X37.97222Y30.33203
G01 X37.99382Y30.47764
G01 X38.02959Y30.62043
G01 X38.07918Y30.75903
G01 X38.14212Y30.8921
G01 X38.2178Y31.01836
G01 X38.30548Y31.13659
G01 X38.40434Y31.24566
G01 X38.51341Y31.34452
G01 X38.63164Y31.4322
G01 X38.7579Y31.50788
G01 X38.89097Y31.57082
G01 X39.02957Y31.62041
G01 X39.17236Y31.65618
G01 X39.31797Y31.67778
G01 X39.465Y31.685
G01 X39.61203Y31.67778
G01 X39.75764Y31.65618
G01 X39.90043Y31.62041
G01 X40.03903Y31.57082
G01 X40.1721Y31.50788
G01 X40.29836Y31.4322
G01 X40.41659Y31.34452
G01 X40.52566Y31.24566
G01 X40.62452Y31.13659
G01 X40.7122Y31.01836
G01 X40.78788Y30.8921
G01 X40.85082Y30.75903
G01 X40.90041Y30.62043
G01 X40.93618Y30.47764
G01 X40.95778Y30.33203
G01 X40.965Y30.185
G01 X40.95778Y30.03797
G01 X40.93618Y29.89236
G01 X40.91256Y29.7981
G01 X48.49533Y22.21533
G01 X48.54476Y22.16079
G01 X48.5886Y22.10168
G01 X48.62644Y22.03855
G01 X48.65791Y21.97201
G01 X48.68271Y21.90271
G01 X48.70059Y21.83132
G01 X48.71139Y21.75851
G01 X48.715Y21.685
G01 X48.715Y5.42
G01 X48.71139Y5.34649
G01 X48.70059Y5.27368
G01 X48.68271Y5.20229
G01 X48.65791Y5.13299
G01 X48.62644Y5.06645
G01 X48.5886Y5.00332
G01 X48.54476Y4.94421
G01 X48.49533Y4.88967
G01 X47.07033Y3.46467
G01 X47.01579Y3.41524
G01 X46.95668Y3.3714
G01 X46.89355Y3.33356
G01 X46.82701Y3.30209
G01 X46.75771Y3.27729
G01 X46.68632Y3.25941
G01 X46.61351Y3.24861
G01 X46.54Y3.245
G01 X36.2Y3.245
G01 X36.12649Y3.24861
G01 X36.12649Y3.24861
G01 X36.05368Y3.25941
G01 X36.05368Y3.25941
M5
G01 X44.35548Y15.08341
M3
G01 X44.2678Y15.20164
G01 X44.19212Y15.3279
G01 X44.12918Y15.46097
G01 X44.07959Y15.59957
G01 X44.04382Y15.74236
G01 X44.02222Y15.88797
G01 X44.015Y16.035
G01 X44.02222Y16.18203
G01 X44.04382Y16.32764
G01 X44.07959Y16.47043
G01 X44.12918Y16.60903
G01 X44.19212Y16.7421
G01 X44.2678Y16.86836
G01 X44.35548Y16.98659
G01 X44.45434Y17.09566
G01 X44.56341Y17.19452
G01 X44.68164Y17.2822
G01 X44.8079Y17.35788
G01 X44.94097Y17.42082
G01 X45.07957Y17.47041
G01 X45.22236Y17.50618
G01 X45.36797Y17.52778
G01 X45.515Y17.535
G01 X45.66203Y17.52778
G01 X45.80764Y17.50618
G01 X45.95043Y17.47041
G01 X46.08903Y17.42082
G01 X46.2221Y17.35788
G01 X46.34836Y17.2822
G01 X46.46659Y17.19452
G01 X46.57566Y17.09566
G01 X46.67452Y16.98659
G01 X46.7622Y16.86836
G01 X46.83788Y16.7421
G01 X46.90082Y16.60903
G01 X46.95041Y16.47043
G01 X46.98618Y16.32764
G01 X47.00778Y16.18203
G01 X47.015Y16.035
G01 X47.00778Y15.88797
G01 X46.98618Y15.74236
G01 X46.95041Y15.59957
G01 X46.90082Y15.46097
G01 X46.83788Y15.3279
G01 X46.7622Y15.20164
G01 X46.67452Y15.08341
G01 X46.57566Y14.97434
G01 X46.46659Y14.87548
G01 X46.34836Y14.7878
G01 X46.265Y14.73783
G01 X46.265Y7.415
G01 X46.265Y7.415
G01 X46.26487Y7.41229
G01 X46.26139Y7.34149
G01 X46.25161Y7.27556
G01 X46.25059Y7.26868
G01 X46.23271Y7.19729
G01 X46.20791Y7.12799
G01 X46.17644Y7.06145
G01 X46.1386Y6.99832
G01 X46.09476Y6.93921
G01 X46.06961Y6.91146
G01 X46.04533Y6.88467
G01 X46.045Y6.88434
G01 X46.045Y4.945
G01 X43.045Y4.945
G01 X43.045Y7.945
G01 X44.765Y7.945
G01 X44.765Y14.73783
G01 X44.68164Y14.7878
G01 X44.56341Y14.87548
G01 X44.45434Y14.97434
G01 X44.35548Y15.08341
G01 X44.35548Y15.08341
M5
G01 X31.99382Y16.27764
M3
G01 X32.02959Y16.42043
G01 X32.07918Y16.55903
G01 X32.14212Y16.6921
G01 X32.2178Y16.81836
G01 X32.30548Y16.93659
G01 X32.40434Y17.04566
G01 X32.51341Y17.14452
G01 X32.63164Y17.2322
G01 X32.7579Y17.30788
G01 X32.89097Y17.37082
G01 X33.02957Y17.42041
G01 X33.17236Y17.45618
G01 X33.31797Y17.47778
G01 X33.465Y17.485
G01 X33.61203Y17.47778
G01 X33.75764Y17.45618
G01 X33.90043Y17.42041
G01 X34.03903Y17.37082
G01 X34.1721Y17.30788
G01 X34.29836Y17.2322
G01 X34.41659Y17.14452
G01 X34.52566Y17.04566
G01 X34.62452Y16.93659
G01 X34.7122Y16.81836
G01 X34.78788Y16.6921
G01 X34.85082Y16.55903
G01 X34.90041Y16.42043
G01 X34.93618Y16.27764
G01 X34.95778Y16.13203
G01 X34.965Y15.985
G01 X34.95778Y15.83797
G01 X34.93618Y15.69236
G01 X34.90041Y15.54957
G01 X34.85082Y15.41097
G01 X34.78788Y15.2779
G01 X34.7122Y15.15164
G01 X34.62452Y15.03341
G01 X34.52566Y14.92434
G01 X34.41659Y14.82548
G01 X34.29836Y14.7378
G01 X34.1721Y14.66212
G01 X34.03903Y14.59918
G01 X33.90043Y14.54959
G01 X33.75764Y14.51382
G01 X33.61203Y14.49222
G01 X33.465Y14.485
G01 X33.31797Y14.49222
G01 X33.17236Y14.51382
G01 X33.02957Y14.54959
G01 X32.89097Y14.59918
G01 X32.7579Y14.66212
G01 X32.63164Y14.7378
G01 X32.51341Y14.82548
G01 X32.40434Y14.92434
G01 X32.30548Y15.03341
G01 X32.2178Y15.15164
G01 X32.14212Y15.2779
G01 X32.07918Y15.41097
G01 X32.02959Y15.54957
G01 X31.99382Y15.69236
G01 X31.97222Y15.83797
G01 X31.965Y15.985
G01 X31.97222Y16.13203
G01 X31.99382Y16.27764
G01 X31.99382Y16.27764
M5
G01 X18.90231Y21.12804
M3
G01 X18.90807Y21.08921
G01 X18.91Y21.05
G01 X18.91Y7.08
G01 X18.90807Y7.04079
G01 X18.90231Y7.00196
G01 X18.89278Y6.96389
G01 X18.87955Y6.92693
G01 X18.86277Y6.89144
G01 X18.84259Y6.85777
G01 X18.8192Y6.82624
G01 X18.79284Y6.79716
G01 X16.88784Y4.89216
G01 X16.85876Y4.8658
G01 X16.82723Y4.84241
G01 X16.79356Y4.82223
G01 X16.75807Y4.80545
G01 X16.72111Y4.79222
G01 X16.68304Y4.78269
G01 X16.64421Y4.77693
G01 X16.605Y4.775
G01 X14.05Y4.775
G01 X14.01079Y4.77693
G01 X13.97196Y4.78269
G01 X13.93389Y4.79222
G01 X13.89693Y4.80545
G01 X13.86144Y4.82223
G01 X13.82777Y4.84241
G01 X13.79624Y4.8658
G01 X13.76716Y4.89216
G01 X12.41746Y6.24186
G01 X12.41674Y6.2416
G01 X12.33583Y6.22133
G01 X12.25331Y6.20909
G01 X12.17Y6.205
G01 X12.08669Y6.20909
G01 X12.00417Y6.22133
G01 X11.92326Y6.2416
G01 X11.84472Y6.2697
G01 X11.76931Y6.30537
G01 X11.69777Y6.34825
G01 X11.63077Y6.39794
G01 X11.56896Y6.45396
G01 X11.51294Y6.51577
G01 X11.46325Y6.58277
G01 X11.42037Y6.65431
G01 X11.42004Y6.655
G01 X10.37996Y6.655
G01 X10.37963Y6.65431
G01 X10.33675Y6.58277
G01 X10.28706Y6.51577
G01 X10.23104Y6.45396
G01 X10.16923Y6.39794
G01 X10.10223Y6.34825
G01 X10.03069Y6.30537
G01 X9.95528Y6.2697
G01 X9.87674Y6.2416
G01 X9.79583Y6.22133
G01 X9.71331Y6.20909
G01 X9.63Y6.205
G01 X9.54669Y6.20909
G01 X9.46417Y6.22133
G01 X9.38326Y6.2416
G01 X9.30472Y6.2697
G01 X9.22931Y6.30537
G01 X9.15777Y6.34825
G01 X9.09077Y6.39794
G01 X9.02896Y6.45396
G01 X8.97294Y6.51577
G01 X8.92325Y6.58277
G01 X8.88037Y6.65431
G01 X8.8447Y6.72972
G01 X8.8166Y6.80826
G01 X8.79633Y6.88917
G01 X8.78409Y6.97169
G01 X8.78Y7.055
G01 X8.78409Y7.13831
G01 X8.79633Y7.22083
G01 X8.8166Y7.30174
G01 X8.8447Y7.38028
G01 X8.88037Y7.45569
G01 X8.92325Y7.52723
G01 X8.97294Y7.59423
G01 X9.02896Y7.65604
G01 X9.09077Y7.71206
G01 X9.15777Y7.76175
G01 X9.22931Y7.80463
G01 X9.23Y7.80496
G01 X9.23Y9.5461
G01 X9.22288Y9.54946
G01 X9.15554Y9.58982
G01 X9.09249Y9.63659
G01 X9.03431Y9.68931
G01 X8.98159Y9.74749
G01 X8.93482Y9.81054
G01 X8.89446Y9.87788
G01 X8.8609Y9.94885
G01 X8.83445Y10.02277
G01 X8.81537Y10.09893
G01 X8.80385Y10.17659
G01 X8.8Y10.255
G01 X8.80385Y10.33341
G01 X8.81537Y10.41107
G01 X8.83445Y10.48723
G01 X8.8609Y10.56115
G01 X8.89446Y10.63212
G01 X8.93482Y10.69946
G01 X8.98159Y10.76251
G01 X9.03431Y10.82069
G01 X9.09249Y10.87341
G01 X9.15554Y10.92018
G01 X9.22288Y10.96054
G01 X9.29385Y10.9941
G01 X9.36777Y11.02055
G01 X9.44393Y11.03963
G01 X9.52159Y11.05115
G01 X9.6Y11.055
G01 X9.67841Y11.05115
G01 X9.75607Y11.03963
G01 X9.80635Y11.02703
G01 X10.585Y11.80569
G01 X10.585Y14.00818
G01 X10.54054Y14.03482
G01 X10.47749Y14.08159
G01 X10.41931Y14.13431
G01 X10.36659Y14.19249
G01 X10.31982Y14.25554
G01 X10.27946Y14.32288
G01 X10.2459Y14.39385
G01 X10.21945Y14.46777
G01 X10.20037Y14.54393
G01 X10.18885Y14.62159
G01 X10.185Y14.7
G01 X10.18885Y14.77841
G01 X10.20037Y14.85607
G01 X10.21945Y14.93223
G01 X10.2459Y15.00615
G01 X10.27946Y15.07712
G01 X10.31982Y15.14446
G01 X10.36659Y15.20751
G01 X10.41931Y15.26569
G01 X10.47749Y15.31841
G01 X10.54054Y15.36518
G01 X10.60788Y15.40554
G01 X10.67885Y15.4391
G01 X10.75277Y15.46555
G01 X10.82893Y15.48463
G01 X10.90659Y15.49615
G01 X10.985Y15.5
G01 X11.06341Y15.49615
G01 X11.14107Y15.48463
G01 X11.21723Y15.46555
G01 X11.29115Y15.4391
G01 X11.36212Y15.40554
G01 X11.42946Y15.36518
G01 X11.49251Y15.31841
G01 X11.55069Y15.26569
G01 X11.60341Y15.20751
G01 X11.65018Y15.14446
G01 X11.69054Y15.07712
G01 X11.7241Y15.00615
G01 X11.75055Y14.93223
G01 X11.76963Y14.85607
G01 X11.78115Y14.77841
G01 X11.785Y14.7
G01 X11.78115Y14.62159
G01 X11.76963Y14.54393
G01 X11.75055Y14.46777
G01 X11.7241Y14.39385
G01 X11.69054Y14.32288
G01 X11.65018Y14.25554
G01 X11.60341Y14.19249
G01 X11.55069Y14.13431
G01 X11.49251Y14.08159
G01 X11.42946Y14.03482
G01 X11.385Y14.00818
G01 X11.385Y11.64
G01 X11.385Y11.64
G01 X11.38307Y11.60079
G01 X11.37731Y11.56196
G01 X11.36778Y11.52389
G01 X11.35455Y11.48693
G01 X11.33948Y11.45507
G01 X11.33777Y11.45144
G01 X11.33777Y11.45144
G01 X11.31759Y11.41777
G01 X11.30024Y11.39438
G01 X11.2942Y11.38624
G01 X11.26784Y11.35716
G01 X10.37203Y10.46135
G01 X10.38463Y10.41107
G01 X10.39615Y10.33341
G01 X10.4Y10.255
G01 X10.39615Y10.17659
G01 X10.38463Y10.09893
G01 X10.36555Y10.02277
G01 X10.3391Y9.94885
G01 X10.30554Y9.87788
G01 X10.26518Y9.81054
G01 X10.21841Y9.74749
G01 X10.16569Y9.68931
G01 X10.10751Y9.63659
G01 X10.04446Y9.58982
G01 X10.03Y9.58116
G01 X10.03Y7.80496
G01 X10.03069Y7.80463
G01 X10.10223Y7.76175
G01 X10.16923Y7.71206
G01 X10.23104Y7.65604
G01 X10.28706Y7.59423
G01 X10.33675Y7.52723
G01 X10.37963Y7.45569
G01 X10.37996Y7.455
G01 X11.42004Y7.455
G01 X11.42037Y7.45569
G01 X11.46325Y7.52723
G01 X11.51294Y7.59423
G01 X11.56896Y7.65604
G01 X11.63077Y7.71206
G01 X11.69777Y7.76175
G01 X11.76931Y7.80463
G01 X11.84472Y7.8403
G01 X11.92326Y7.8684
G01 X12.00417Y7.88867
G01 X12.08669Y7.90091
G01 X12.17Y7.905
G01 X12.25331Y7.90091
G01 X12.33583Y7.88867
G01 X12.41674Y7.8684
G01 X12.49528Y7.8403
G01 X12.57069Y7.80463
G01 X12.64223Y7.76175
G01 X12.70923Y7.71206
G01 X12.77104Y7.65604
G01 X12.82706Y7.59423
G01 X12.87675Y7.52723
G01 X12.91963Y7.45569
G01 X12.9553Y7.38028
G01 X12.9834Y7.30174
G01 X13.00367Y7.22083
G01 X13.01591Y7.13831
G01 X13.02Y7.055
G01 X13.01591Y6.97169
G01 X13.00367Y6.88917
G01 X12.9834Y6.80826
G01 X12.98314Y6.80754
G01 X14.21569Y5.575
G01 X16.43931Y5.575
G01 X18.11Y7.24569
G01 X18.11Y20.88431
G01 X13.26431Y25.73
G01 X12.85182Y25.73
G01 X12.82518Y25.68554
G01 X12.77841Y25.62249
G01 X12.72569Y25.56431
G01 X12.66751Y25.51159
G01 X12.60446Y25.46482
G01 X12.53712Y25.42446
G01 X12.46615Y25.3909
G01 X12.39223Y25.36445
G01 X12.31607Y25.34537
G01 X12.23841Y25.33385
G01 X12.16Y25.33
G01 X12.08159Y25.33385
G01 X12.00393Y25.34537
G01 X11.92777Y25.36445
G01 X11.85385Y25.3909
G01 X11.78288Y25.42446
G01 X11.71554Y25.46482
G01 X11.65249Y25.51159
G01 X11.59431Y25.56431
G01 X11.54159Y25.62249
G01 X11.49482Y25.68554
G01 X11.45446Y25.75288
G01 X11.4209Y25.82385
G01 X11.39445Y25.89777
G01 X11.37537Y25.97393
G01 X11.36385Y26.05159
G01 X11.36Y26.13
G01 X11.36385Y26.20841
G01 X11.37537Y26.28607
G01 X11.39445Y26.36223
G01 X11.4209Y26.43615
G01 X11.45446Y26.50712
G01 X11.49482Y26.57446
G01 X11.54159Y26.63751
G01 X11.59431Y26.69569
G01 X11.65249Y26.74841
G01 X11.71554Y26.79518
G01 X11.76Y26.82182
G01 X11.76Y27.97889
G01 X11.18389Y28.555
G01 X10.47458Y28.555
G01 X10.47458Y30.055
G01 X11.52458Y30.055
G01 X11.52458Y29.34569
G01 X12.44284Y28.42742
G01 X12.4692Y28.39833
G01 X12.49259Y28.3668
G01 X12.51277Y28.33313
G01 X12.52955Y28.29765
G01 X12.54278Y28.26069
G01 X12.55231Y28.22261
G01 X12.55807Y28.18378
G01 X12.56Y28.14458
G01 X12.56Y26.82182
G01 X12.60446Y26.79518
G01 X12.66751Y26.74841
G01 X12.72569Y26.69569
G01 X12.77841Y26.63751
G01 X12.82518Y26.57446
G01 X12.85182Y26.53
G01 X13.43Y26.53
G01 X13.46921Y26.52807
G01 X13.50804Y26.52231
G01 X13.54611Y26.51278
G01 X13.58307Y26.49955
G01 X13.61856Y26.48277
G01 X13.65223Y26.46259
G01 X13.68376Y26.4392
G01 X13.71284Y26.41284
G01 X18.79284Y21.33284
G01 X18.8192Y21.30376
G01 X18.84259Y21.27223
G01 X18.86277Y21.23856
G01 X18.87955Y21.20307
G01 X18.89278Y21.16611
G01 X18.90231Y21.12804
G01 X18.90231Y21.12804
M5
G01 X10.18569Y26.69569
M3
G01 X10.23841Y26.63751
G01 X10.28518Y26.57446
G01 X10.32554Y26.50712
G01 X10.3591Y26.43615
G01 X10.38555Y26.36223
G01 X10.40463Y26.28607
G01 X10.41615Y26.20841
G01 X10.42Y26.13
G01 X10.41615Y26.05159
G01 X10.40463Y25.97393
G01 X10.39203Y25.92365
G01 X12.44284Y23.87284
G01 X12.4692Y23.84376
G01 X12.49259Y23.81223
G01 X12.51277Y23.77856
G01 X12.52955Y23.74307
G01 X12.54278Y23.70611
G01 X12.55231Y23.66804
G01 X12.55807Y23.62921
G01 X12.56Y23.59
G01 X12.56Y19.20182
G01 X12.60446Y19.17518
G01 X12.66751Y19.12841
G01 X12.72569Y19.07569
G01 X12.77841Y19.01751
G01 X12.82518Y18.95446
G01 X12.86554Y18.88712
G01 X12.8991Y18.81615
G01 X12.92555Y18.74223
G01 X12.94463Y18.66607
G01 X12.95615Y18.58841
G01 X12.96Y18.51
G01 X12.95615Y18.43159
G01 X12.94463Y18.35393
G01 X12.92555Y18.27777
G01 X12.8991Y18.20385
G01 X12.86554Y18.13288
G01 X12.82518Y18.06554
G01 X12.77841Y18.00249
G01 X12.72569Y17.94431
G01 X12.66751Y17.89159
G01 X12.60446Y17.84482
G01 X12.53712Y17.80446
G01 X12.46615Y17.7709
G01 X12.39223Y17.74445
G01 X12.31607Y17.72537
G01 X12.23841Y17.71385
G01 X12.16Y17.71
G01 X12.08159Y17.71385
G01 X12.00393Y17.72537
G01 X11.92777Y17.74445
G01 X11.85385Y17.7709
G01 X11.78288Y17.80446
G01 X11.71554Y17.84482
G01 X11.65249Y17.89159
G01 X11.59431Y17.94431
G01 X11.54159Y18.00249
G01 X11.49482Y18.06554
G01 X11.45446Y18.13288
G01 X11.4209Y18.20385
G01 X11.39445Y18.27777
G01 X11.37537Y18.35393
G01 X11.36385Y18.43159
G01 X11.36Y18.51
G01 X11.36385Y18.58841
G01 X11.37537Y18.66607
G01 X11.39445Y18.74223
G01 X11.4209Y18.81615
G01 X11.45446Y18.88712
G01 X11.49482Y18.95446
G01 X11.54159Y19.01751
G01 X11.59431Y19.07569
G01 X11.65249Y19.12841
G01 X11.71554Y19.17518
G01 X11.76Y19.20182
G01 X11.76Y23.42431
G01 X9.82635Y25.35797
G01 X9.77607Y25.34537
G01 X9.69841Y25.33385
G01 X9.62Y25.33
G01 X9.54159Y25.33385
G01 X9.46393Y25.34537
G01 X9.38777Y25.36445
G01 X9.31385Y25.3909
G01 X9.24288Y25.42446
G01 X9.17554Y25.46482
G01 X9.11249Y25.51159
G01 X9.05431Y25.56431
G01 X9.00159Y25.62249
G01 X8.95482Y25.68554
G01 X8.91446Y25.75288
G01 X8.8809Y25.82385
G01 X8.85445Y25.89777
G01 X8.83537Y25.97393
G01 X8.82385Y26.05159
G01 X8.82Y26.13
G01 X8.82385Y26.20841
G01 X8.83537Y26.28607
G01 X8.85445Y26.36223
G01 X8.8809Y26.43615
G01 X8.91446Y26.50712
G01 X8.95482Y26.57446
G01 X9.00159Y26.63751
G01 X9.05431Y26.69569
G01 X9.11249Y26.74841
G01 X9.17554Y26.79518
G01 X9.22Y26.82182
G01 X9.22Y28.95627
G01 X9.21466Y28.97758
G01 X9.2071Y29.02854
G01 X9.20458Y29.53
G01 X9.2071Y29.58146
G01 X9.21466Y29.63242
G01 X9.22718Y29.6824
G01 X9.24454Y29.73091
G01 X9.26657Y29.77748
G01 X9.29305Y29.82167
G01 X9.32375Y29.86306
G01 X9.35834Y29.90123
G01 X9.39652Y29.93583
G01 X9.4379Y29.96652
G01 X9.48209Y29.99301
G01 X9.52867Y30.01504
G01 X9.57718Y30.03239
G01 X9.62715Y30.04491
G01 X9.67812Y30.05247
G01 X9.72958Y30.055
G01 X9.78103Y30.05247
G01 X9.832Y30.04491
G01 X9.88198Y30.03239
G01 X9.93048Y30.01504
G01 X9.97706Y29.99301
G01 X10.02125Y29.96652
G01 X10.06263Y29.93583
G01 X10.10081Y29.90123
G01 X10.13541Y29.86306
G01 X10.1661Y29.82167
G01 X10.19258Y29.77748
G01 X10.21461Y29.73091
G01 X10.23197Y29.6824
G01 X10.24449Y29.63242
G01 X10.25205Y29.58146
G01 X10.25458Y29.08
G01 X10.25205Y29.02854
G01 X10.24449Y28.97758
G01 X10.23197Y28.9276
G01 X10.21461Y28.87909
G01 X10.19258Y28.83252
G01 X10.1661Y28.78833
G01 X10.13541Y28.74694
G01 X10.10081Y28.70877
G01 X10.06263Y28.67417
G01 X10.02125Y28.64348
G01 X10.02Y28.64273
G01 X10.02Y26.82182
G01 X10.06446Y26.79518
G01 X10.12751Y26.74841
G01 X10.18569Y26.69569
G01 X10.18569Y26.69569
M5
G01 X14.71Y6.205
M3
G01 X14.62669Y6.20909
G01 X14.54417Y6.22133
G01 X14.46326Y6.2416
G01 X14.38472Y6.2697
G01 X14.30931Y6.30537
G01 X14.23777Y6.34825
G01 X14.17077Y6.39794
G01 X14.10896Y6.45396
G01 X14.05294Y6.51577
G01 X14.00325Y6.58277
G01 X13.96037Y6.65431
G01 X13.9247Y6.72972
G01 X13.8966Y6.80826
G01 X13.87633Y6.88917
G01 X13.86409Y6.97169
G01 X13.86Y7.055
G01 X13.86409Y7.13831
G01 X13.87633Y7.22083
G01 X13.8966Y7.30174
G01 X13.9247Y7.38028
G01 X13.96037Y7.45569
G01 X14.00325Y7.52723
G01 X14.05294Y7.59423
G01 X14.10896Y7.65604
G01 X14.17077Y7.71206
G01 X14.23777Y7.76175
G01 X14.30931Y7.80463
G01 X14.31Y7.80496
G01 X14.31Y8.80931
G01 X12.51216Y10.60716
G01 X12.4858Y10.63624
G01 X12.46241Y10.66777
G01 X12.44223Y10.70144
G01 X12.42545Y10.73693
G01 X12.41222Y10.77389
G01 X12.40269Y10.81196
G01 X12.39693Y10.85079
G01 X12.395Y10.89
G01 X12.395Y15.16931
G01 X9.82635Y17.73797
G01 X9.77607Y17.72537
G01 X9.69841Y17.71385
G01 X9.62Y17.71
G01 X9.54159Y17.71385
G01 X9.46393Y17.72537
G01 X9.38777Y17.74445
G01 X9.31385Y17.7709
G01 X9.24288Y17.80446
G01 X9.17554Y17.84482
G01 X9.11249Y17.89159
G01 X9.05431Y17.94431
G01 X9.00159Y18.00249
G01 X8.95482Y18.06554
G01 X8.91446Y18.13288
G01 X8.8809Y18.20385
G01 X8.85445Y18.27777
G01 X8.83537Y18.35393
G01 X8.82385Y18.43159
G01 X8.82Y18.51
G01 X8.82385Y18.58841
G01 X8.83537Y18.66607
G01 X8.85445Y18.74223
G01 X8.8809Y18.81615
G01 X8.91446Y18.88712
G01 X8.95482Y18.95446
G01 X9.00159Y19.01751
G01 X9.05431Y19.07569
G01 X9.11249Y19.12841
G01 X9.17554Y19.17518
G01 X9.24288Y19.21554
G01 X9.31385Y19.2491
G01 X9.38777Y19.27555
G01 X9.46393Y19.29463
G01 X9.54159Y19.30615
G01 X9.62Y19.31
G01 X9.69841Y19.30615
G01 X9.77607Y19.29463
G01 X9.85223Y19.27555
G01 X9.92615Y19.2491
G01 X9.99712Y19.21554
G01 X10.06446Y19.17518
G01 X10.12751Y19.12841
G01 X10.18569Y19.07569
G01 X10.23841Y19.01751
G01 X10.28518Y18.95446
G01 X10.32554Y18.88712
G01 X10.3591Y18.81615
G01 X10.38555Y18.74223
G01 X10.40463Y18.66607
G01 X10.41615Y18.58841
G01 X10.42Y18.51
G01 X10.41615Y18.43159
G01 X10.40463Y18.35393
G01 X10.39203Y18.30365
G01 X13.07784Y15.61784
G01 X13.1042Y15.58876
G01 X13.12759Y15.55723
G01 X13.14777Y15.52356
G01 X13.16455Y15.48807
G01 X13.17778Y15.45111
G01 X13.18731Y15.41304
G01 X13.19307Y15.37421
G01 X13.195Y15.335
G01 X13.195Y11.05569
G01 X14.99284Y9.25784
G01 X15.0192Y9.22876
G01 X15.04259Y9.19723
G01 X15.06277Y9.16356
G01 X15.07955Y9.12807
G01 X15.09278Y9.09111
G01 X15.10231Y9.05304
G01 X15.10807Y9.01421
G01 X15.11Y8.975
G01 X15.11Y7.80496
G01 X15.11069Y7.80463
G01 X15.18223Y7.76175
G01 X15.24923Y7.71206
G01 X15.31104Y7.65604
G01 X15.36706Y7.59423
G01 X15.41675Y7.52723
G01 X15.45963Y7.45569
G01 X15.4953Y7.38028
G01 X15.5234Y7.30174
G01 X15.54367Y7.22083
G01 X15.55591Y7.13831
G01 X15.56Y7.055
G01 X15.55591Y6.97169
G01 X15.54367Y6.88917
G01 X15.5234Y6.80826
G01 X15.4953Y6.72972
G01 X15.45963Y6.65431
G01 X15.41675Y6.58277
G01 X15.36706Y6.51577
G01 X15.31104Y6.45396
G01 X15.24923Y6.39794
G01 X15.18223Y6.34825
G01 X15.11069Y6.30537
G01 X15.03528Y6.2697
G01 X14.95674Y6.2416
G01 X14.87583Y6.22133
G01 X14.79331Y6.20909
G01 X14.71Y6.205
G01 X14.71Y6.205
M5
G01 X30.17Y7.945
M3
G01 X30.17Y4.945
G01 X27.17Y4.945
G01 X27.17Y6.88434
G01 X21.15467Y12.89967
G01 X21.15467Y12.89967
G01 X21.10524Y12.95421
G01 X21.0614Y13.01332
G01 X21.02356Y13.07645
G01 X20.99209Y13.14299
G01 X20.96729Y13.21229
G01 X20.94941Y13.28368
G01 X20.93861Y13.35649
G01 X20.935Y13.43
G01 X20.935Y28.88783
G01 X20.85164Y28.9378
G01 X20.73341Y29.02548
G01 X20.62434Y29.12434
G01 X20.52548Y29.23341
G01 X20.4378Y29.35164
G01 X20.36212Y29.4779
G01 X20.29918Y29.61097
G01 X20.24959Y29.74957
G01 X20.21382Y29.89236
G01 X20.19222Y30.03797
G01 X20.185Y30.185
G01 X20.19222Y30.33203
G01 X20.21382Y30.47764
G01 X20.24959Y30.62043
G01 X20.29918Y30.75903
G01 X20.36212Y30.8921
G01 X20.4378Y31.01836
G01 X20.52548Y31.13659
G01 X20.62434Y31.24566
G01 X20.73341Y31.34452
G01 X20.85164Y31.4322
G01 X20.9779Y31.50788
G01 X21.11097Y31.57082
G01 X21.24957Y31.62041
G01 X21.39236Y31.65618
G01 X21.53797Y31.67778
G01 X21.685Y31.685
G01 X21.83203Y31.67778
G01 X21.97764Y31.65618
G01 X22.12043Y31.62041
G01 X22.25903Y31.57082
G01 X22.3921Y31.50788
G01 X22.51836Y31.4322
G01 X22.63659Y31.34452
G01 X22.74566Y31.24566
G01 X22.84452Y31.13659
G01 X22.9322Y31.01836
G01 X23.00788Y30.8921
G01 X23.07082Y30.75903
G01 X23.12041Y30.62043
G01 X23.15618Y30.47764
G01 X23.17778Y30.33203
G01 X23.185Y30.185
G01 X23.17778Y30.03797
G01 X23.15618Y29.89236
G01 X23.12041Y29.74957
G01 X23.07082Y29.61097
G01 X23.00788Y29.4779
G01 X22.9322Y29.35164
G01 X22.84452Y29.23341
G01 X22.74566Y29.12434
G01 X22.63659Y29.02548
G01 X22.51836Y28.9378
G01 X22.435Y28.88783
G01 X22.435Y13.74066
G01 X28.23066Y7.945
G01 X30.17Y7.945
G01 X30.17Y7.945
M5
G01 X3.74Y18.51
M3
G01 X3.74385Y18.58841
G01 X3.75537Y18.66607
G01 X3.77445Y18.74223
G01 X3.8009Y18.81615
G01 X3.83446Y18.88712
G01 X3.87482Y18.95446
G01 X3.92159Y19.01751
G01 X3.97431Y19.07569
G01 X4.03249Y19.12841
G01 X4.09554Y19.17518
G01 X4.16288Y19.21554
G01 X4.23385Y19.2491
G01 X4.30777Y19.27555
G01 X4.38393Y19.29463
G01 X4.46159Y19.30615
G01 X4.54Y19.31
G01 X4.61841Y19.30615
G01 X4.69607Y19.29463
G01 X4.77223Y19.27555
G01 X4.84615Y19.2491
G01 X4.91712Y19.21554
G01 X4.98446Y19.17518
G01 X5.04751Y19.12841
G01 X5.10569Y19.07569
G01 X5.15841Y19.01751
G01 X5.20518Y18.95446
G01 X5.24554Y18.88712
G01 X5.2791Y18.81615
G01 X5.30555Y18.74223
G01 X5.32463Y18.66607
G01 X5.33615Y18.58841
G01 X5.34Y18.51
G01 X5.33615Y18.43159
G01 X5.32463Y18.35393
G01 X5.30555Y18.27777
G01 X5.2791Y18.20385
G01 X5.24554Y18.13288
G01 X5.20518Y18.06554
G01 X5.15841Y18.00249
G01 X5.10569Y17.94431
G01 X5.04751Y17.89159
G01 X4.98446Y17.84482
G01 X4.94Y17.81818
G01 X4.94Y16.264
G01 X5.567Y16.264
G01 X5.567Y14.464
G01 X3.767Y14.464
G01 X3.767Y16.264
G01 X4.14Y16.264
G01 X4.14Y17.81818
G01 X4.09554Y17.84482
G01 X4.03249Y17.89159
G01 X3.97431Y17.94431
G01 X3.92159Y18.00249
G01 X3.87482Y18.06554
G01 X3.83446Y18.13288
G01 X3.8009Y18.20385
G01 X3.77445Y18.27777
G01 X3.75537Y18.35393
G01 X3.74385Y18.43159
G01 X3.74Y18.51
G01 X3.74Y18.51
M5
G01 X27.16097Y17.42082
M3
G01 X27.29957Y17.47041
G01 X27.44236Y17.50618
G01 X27.58797Y17.52778
G01 X27.735Y17.535
G01 X27.88203Y17.52778
G01 X28.02764Y17.50618
G01 X28.17043Y17.47041
G01 X28.30903Y17.42082
G01 X28.4421Y17.35788
G01 X28.56836Y17.2822
G01 X28.68659Y17.19452
G01 X28.79566Y17.09566
G01 X28.89452Y16.98659
G01 X28.9822Y16.86836
G01 X29.03217Y16.785
G01 X29.875Y16.785
G01 X29.94851Y16.78139
G01 X30.02132Y16.77059
G01 X30.09271Y16.75271
G01 X30.16201Y16.72791
G01 X30.22855Y16.69644
G01 X30.29168Y16.6586
G01 X30.35079Y16.61476
G01 X30.40533Y16.56533
G01 X39.0781Y7.89256
G01 X39.17236Y7.91618
G01 X39.31797Y7.93778
G01 X39.465Y7.945
G01 X39.61203Y7.93778
G01 X39.75764Y7.91618
G01 X39.90043Y7.88041
G01 X40.03903Y7.83082
G01 X40.1721Y7.76788
G01 X40.29836Y7.6922
G01 X40.41659Y7.60452
G01 X40.52566Y7.50566
G01 X40.62452Y7.39659
G01 X40.7122Y7.27836
G01 X40.78788Y7.1521
G01 X40.85082Y7.01903
G01 X40.90041Y6.88043
G01 X40.93618Y6.73764
G01 X40.95778Y6.59203
G01 X40.965Y6.445
G01 X40.95778Y6.29797
G01 X40.93618Y6.15236
G01 X40.90041Y6.00957
G01 X40.85082Y5.87097
G01 X40.78788Y5.7379
G01 X40.7122Y5.61164
G01 X40.62452Y5.49341
G01 X40.52566Y5.38434
G01 X40.41659Y5.28548
G01 X40.29836Y5.1978
G01 X40.1721Y5.12212
G01 X40.03903Y5.05918
G01 X39.90043Y5.00959
G01 X39.75764Y4.97382
G01 X39.61203Y4.95222
G01 X39.465Y4.945
G01 X39.31797Y4.95222
G01 X39.17236Y4.97382
G01 X39.02957Y5.00959
G01 X38.89097Y5.05918
G01 X38.7579Y5.12212
G01 X38.63164Y5.1978
G01 X38.51341Y5.28548
G01 X38.40434Y5.38434
G01 X38.30548Y5.49341
G01 X38.2178Y5.61164
G01 X38.14212Y5.7379
G01 X38.07918Y5.87097
G01 X38.02959Y6.00957
G01 X37.99382Y6.15236
G01 X37.97222Y6.29797
G01 X37.965Y6.445
G01 X37.97222Y6.59203
G01 X37.99382Y6.73764
G01 X38.01744Y6.8319
G01 X29.56434Y15.285
G01 X29.03217Y15.285
G01 X28.9822Y15.20164
G01 X28.89452Y15.08341
G01 X28.79566Y14.97434
G01 X28.68659Y14.87548
G01 X28.56836Y14.7878
G01 X28.4421Y14.71212
G01 X28.30903Y14.64918
G01 X28.17043Y14.59959
G01 X28.02764Y14.56382
G01 X27.88203Y14.54222
G01 X27.735Y14.535
G01 X27.58797Y14.54222
G01 X27.44236Y14.56382
G01 X27.29957Y14.59959
G01 X27.16097Y14.64918
G01 X27.0279Y14.71212
G01 X26.90164Y14.7878
G01 X26.78341Y14.87548
G01 X26.67434Y14.97434
G01 X26.57548Y15.08341
G01 X26.4878Y15.20164
G01 X26.41212Y15.3279
G01 X26.34918Y15.46097
G01 X26.29959Y15.59957
G01 X26.26382Y15.74236
G01 X26.24222Y15.88797
G01 X26.235Y16.035
G01 X26.24222Y16.18203
G01 X26.26382Y16.32764
G01 X26.29959Y16.47043
G01 X26.34918Y16.60903
G01 X26.41212Y16.7421
G01 X26.4878Y16.86836
G01 X26.57548Y16.98659
G01 X26.67434Y17.09566
G01 X26.78341Y17.19452
G01 X26.90164Y17.2822
G01 X27.0279Y17.35788
G01 X27.16097Y17.42082
G01 X27.16097Y17.42082
M5
G01 X16.74566Y14.92434
M3
G01 X16.63659Y14.82548
G01 X16.51836Y14.7378
G01 X16.3921Y14.66212
G01 X16.25903Y14.59918
G01 X16.12043Y14.54959
G01 X15.97764Y14.51382
G01 X15.83203Y14.49222
G01 X15.685Y14.485
G01 X15.53797Y14.49222
G01 X15.39236Y14.51382
G01 X15.24957Y14.54959
G01 X15.11097Y14.59918
G01 X14.9779Y14.66212
G01 X14.85164Y14.7378
G01 X14.73341Y14.82548
G01 X14.62434Y14.92434
G01 X14.52548Y15.03341
G01 X14.4378Y15.15164
G01 X14.36212Y15.2779
G01 X14.29918Y15.41097
G01 X14.24959Y15.54957
G01 X14.21382Y15.69236
G01 X14.19222Y15.83797
G01 X14.185Y15.985
G01 X14.19222Y16.13203
G01 X14.21382Y16.27764
G01 X14.24959Y16.42043
G01 X14.29918Y16.55903
G01 X14.36212Y16.6921
G01 X14.4378Y16.81836
G01 X14.52548Y16.93659
G01 X14.62434Y17.04566
G01 X14.73341Y17.14452
G01 X14.85164Y17.2322
G01 X14.9779Y17.30788
G01 X15.11097Y17.37082
G01 X15.24957Y17.42041
G01 X15.39236Y17.45618
G01 X15.53797Y17.47778
G01 X15.685Y17.485
G01 X15.83203Y17.47778
G01 X15.97764Y17.45618
G01 X16.12043Y17.42041
G01 X16.25903Y17.37082
G01 X16.3921Y17.30788
G01 X16.51836Y17.2322
G01 X16.63659Y17.14452
G01 X16.74566Y17.04566
G01 X16.84452Y16.93659
G01 X16.9322Y16.81836
G01 X17.00788Y16.6921
G01 X17.07082Y16.55903
G01 X17.12041Y16.42043
G01 X17.15618Y16.27764
G01 X17.17778Y16.13203
G01 X17.185Y15.985
G01 X17.17778Y15.83797
G01 X17.15618Y15.69236
G01 X17.12041Y15.54957
G01 X17.07082Y15.41097
G01 X17.00788Y15.2779
G01 X16.9322Y15.15164
G01 X16.84452Y15.03341
G01 X16.74566Y14.92434
G01 X16.74566Y14.92434
M5
G01 X1.95381Y34.40413
M3
G01 X1.9559Y34.40857
G01 X1.95843Y34.41278
G01 X1.96135Y34.41672
G01 X1.96464Y34.42036
G01 X1.96828Y34.42365
G01 X1.97222Y34.42657
G01 X1.97643Y34.4291
G01 X1.98087Y34.43119
G01 X1.98549Y34.43285
G01 X1.99025Y34.43404
G01 X1.9951Y34.43476
G01 X2.0Y34.435
G01 X49.625Y34.435
G01 X49.6299Y34.43476
G01 X49.63475Y34.43404
G01 X49.63951Y34.43285
G01 X49.64413Y34.43119
G01 X49.64857Y34.4291
G01 X49.65278Y34.42657
G01 X49.65672Y34.42365
G01 X49.66036Y34.42036
G01 X49.66365Y34.41672
G01 X49.66657Y34.41278
G01 X49.6691Y34.40857
G01 X49.67119Y34.40413
G01 X49.67285Y34.39951
G01 X49.67404Y34.39475
G01 X49.67476Y34.3899
G01 X49.675Y34.385
G01 X49.675Y2.0
G01 X49.67476Y1.9951
G01 X49.67404Y1.99025
G01 X49.67285Y1.98549
G01 X49.67119Y1.98087
G01 X49.6691Y1.97643
G01 X49.66657Y1.97222
G01 X49.66365Y1.96828
G01 X49.66036Y1.96464
G01 X49.65672Y1.96135
G01 X49.65278Y1.95843
G01 X49.64857Y1.9559
G01 X49.64413Y1.95381
G01 X49.63951Y1.95215
G01 X49.63475Y1.95096
G01 X49.6299Y1.95024
G01 X49.625Y1.95
G01 X2.0Y1.95
G01 X1.9951Y1.95024
G01 X1.99025Y1.95096
G01 X1.98549Y1.95215
G01 X1.98087Y1.95381
G01 X1.97643Y1.9559
G01 X1.97222Y1.95843
G01 X1.96828Y1.96135
G01 X1.96464Y1.96464
G01 X1.96135Y1.96828
G01 X1.95843Y1.97222
G01 X1.9559Y1.97643
G01 X1.95381Y1.98087
G01 X1.95215Y1.98549
G01 X1.95096Y1.99025
G01 X1.95024Y1.9951
G01 X1.95Y2.0
G01 X1.95Y17.24
G01 X1.95Y17.875
G01 X1.95Y34.385
G01 X1.95024Y34.3899
G01 X1.95096Y34.39475
G01 X1.95215Y34.39951
G01 X1.95381Y34.40413
G01 X1.95381Y34.40413
M5
G01 X49.575Y34.335
M3
G01 X2.05Y34.335
G01 X2.05Y17.875
G01 X2.05Y17.24
G01 X2.05Y2.05
G01 X49.575Y2.05
G01 X49.575Y34.335
G01 X49.575Y34.335
M5

M5 ; Disable End-Effector Signal

; Returning the Deactivating Tool-1
C0 ; PWM Tool select demultiplexer to select tool zero which is the empty tool slot in multiplexers
#TODO X-0.0Y-0.0Z-0.0 ;  ;Remove tool offset coordinate
G00X165.0Y0.0Z10.5 ; Go to Tool-1 Home Pos
G00X92 ; Enter Female Kinematic Mount Home Pos
A0 ; Latch OFF Kinematic Mount
G4 P5 ; Wait for Kinematic Mount to fully detach
G00X188 ; Exit Female Kinematic Mount Home Pos

; Machine deinitialization Sequence... 
G00X0.0Y0.0Z0.0
B0 ; Turn Machine OFF
