(modified by me to make laser instead of milling)
(G-CODE GENERATED BY FLATCAM v8.994 - www.flatcam.org - Version Date: 2020/11/7)

(Name: PSU controller-B_Cu.gbr_iso_combined_cnc)
(Type: G-code from Geometry)
(Units: MM)

(Created on Saturday, 15 July 2023 at 18:00)

(This preprocessor is the default preprocessor used by FlatCAM.)
(It is made to work with MACH3 compatible motion controllers.)

(TOOL DIAMETER: 0.1 mm)
(Feedrate_XY: 600.0 mm/min)
(Feedrate_Z: 60.0 mm/min)
(Feedrate rapids 1500.0 mm/min)

(Z_Cut: 0.0 mm)
(Z_Move: 2.0 mm)
(Z Start: None mm)
(Z End: 15.0 mm)
(X,Y End: None mm)
(Steps per circle: 64)
(Preprocessor Geometry: default)

(X range:    0.1500 ...   48.1550  mm)
(Y range:    0.1250 ...   32.8900  mm)

(Spindle Speed: 0.0 RPM)
G21
G90
G94

G01 F100
S200
G00 Z16

G00 X3.1695 Y10.2038
M3
G01 X4.6125 Y8.7608
G01 X4.6061 Y8.7346
G01 X4.5940 Y8.6521
G01 X4.5900 Y8.5700
G01 X4.5940 Y8.4879
G01 X4.6069 Y8.4018
G01 X4.6266 Y8.3233
G01 X4.6547 Y8.2447
G01 X4.6904 Y8.1693
G01 X4.7319 Y8.0998
G01 X4.7837 Y8.0298
G01 X4.8390 Y7.9690
G01 X4.8998 Y7.9137
G01 X4.9668 Y7.8639
G01 X4.9898 Y7.8500
G01 X4.9898 Y6.2700
G01 X4.5751 Y6.2698
G01 X4.5667 Y6.2682
G01 X4.5586 Y6.2652
G01 X4.5512 Y6.2609
G01 X4.5446 Y6.2554
G01 X4.5398 Y6.2498
G01 X4.5353 Y6.2425
G01 X4.5322 Y6.2345
G01 X4.5304 Y6.2261
G01 X4.5300 Y6.2200
G01 X4.5300 Y4.5200
G01 X4.5305 Y4.5127
G01 X4.5322 Y4.5055
G01 X4.5343 Y4.4997
G01 X4.5378 Y4.4933
G01 X4.5413 Y4.4883
G01 X4.5455 Y4.4838
G01 X4.5502 Y4.4798
G01 X4.5554 Y4.4765
G01 X4.5609 Y4.4738
G01 X4.5667 Y4.4718
G01 X4.5727 Y4.4705
G01 X4.5788 Y4.4700
G01 X5.6933 Y4.4700
G01 X8.2617 Y1.9017
G01 X8.2944 Y1.8720
G01 X8.3289 Y1.8464
G01 X8.3700 Y1.8219
G01 X8.4077 Y1.8041
G01 X8.4493 Y1.7892
G01 X8.4922 Y1.7785
G01 X8.5334 Y1.7723
G01 X8.5800 Y1.7698
G01 X15.0892 Y1.7698
G01 X15.1358 Y1.7723
G01 X15.1770 Y1.7785
G01 X15.2175 Y1.7885
G01 X15.2615 Y1.8041
G01 X15.3025 Y1.8236
G01 X15.3393 Y1.8457
G01 X15.3729 Y1.8705
G01 X15.4076 Y1.9017
G01 X18.1692 Y4.6633
G01 X18.1980 Y4.6952
G01 X18.2229 Y4.7287
G01 X18.2481 Y4.7708
G01 X18.2659 Y4.8085
G01 X18.2808 Y4.8501
G01 X18.2916 Y4.8930
G01 X18.2977 Y4.9342
G01 X18.3002 Y4.9808
G01 X18.3002 Y22.7750
G01 X18.2980 Y22.8191
G01 X18.2916 Y22.8628
G01 X18.2808 Y22.9057
G01 X18.2659 Y22.9473
G01 X18.2470 Y22.9872
G01 X18.2243 Y23.0251
G01 X18.1980 Y23.0606
G01 X18.1692 Y23.0925
G01 X15.2546 Y26.0071
G01 X15.2765 Y26.0537
G01 X15.3187 Y26.1715
G01 X15.3498 Y26.2952
G01 X15.3687 Y26.4226
G01 X15.3750 Y26.5500
G01 X15.3687 Y26.6774
G01 X15.3498 Y26.8048
G01 X15.3187 Y26.9285
G01 X15.2765 Y27.0463
G01 X15.2546 Y27.0929
G01 X18.3115 Y30.1498
G01 X27.6185 Y30.1498
G01 X30.6754 Y27.0929
G01 X30.6535 Y27.0463
G01 X30.6113 Y26.9285
G01 X30.5802 Y26.8048
G01 X30.5613 Y26.6774
G01 X30.5550 Y26.5488
G01 X30.5616 Y26.4201
G01 X30.5800 Y26.2964
G01 X30.6103 Y26.1750
G01 X30.6540 Y26.0525
G01 X30.7079 Y25.9383
G01 X30.7741 Y25.8278
G01 X30.8501 Y25.7253
G01 X30.9358 Y25.6308
G01 X31.0322 Y25.5436
G01 X31.1348 Y25.4678
G01 X31.2422 Y25.4035
G01 X31.3553 Y25.3500
G01 X31.4776 Y25.3060
G01 X31.6014 Y25.2750
G01 X31.7276 Y25.2563
G01 X31.8525 Y25.2501
G01 X31.9824 Y25.2563
G01 X32.1086 Y25.2750
G01 X32.2300 Y25.3053
G01 X32.3525 Y25.3490
G01 X32.4678 Y25.4035
G01 X32.5752 Y25.4678
G01 X32.6797 Y25.5451
G01 X32.7759 Y25.6325
G01 X32.8599 Y25.7253
G01 X32.9345 Y25.8258
G01 X33.0026 Y25.9394
G01 X33.0560 Y26.0525
G01 X33.0983 Y26.1703
G01 X33.1300 Y26.2964
G01 X33.1489 Y26.4250
G01 X33.1550 Y26.5500
G01 X33.1489 Y26.6750
G01 X33.1300 Y26.8036
G01 X33.0990 Y26.9274
G01 X33.0569 Y27.0452
G01 X33.0009 Y27.1639
G01 X32.9359 Y27.2722
G01 X32.8599 Y27.3747
G01 X32.7742 Y27.4692
G01 X32.6797 Y27.5549
G01 X32.5772 Y27.6309
G01 X32.4678 Y27.6965
G01 X32.3525 Y27.7510
G01 X32.2335 Y27.7937
G01 X32.1086 Y27.8250
G01 X31.9824 Y27.8437
G01 X31.8550 Y27.8500
G01 X31.7288 Y27.8438
G01 X31.6014 Y27.8250
G01 X31.4788 Y27.7944
G01 X31.3587 Y27.7515
G01 X31.3121 Y27.7296
G01 X28.1225 Y30.9192
G01 X28.0906 Y30.9480
G01 X28.0551 Y30.9743
G01 X28.0172 Y30.9970
G01 X27.9773 Y31.0159
G01 X27.9357 Y31.0308
G01 X27.8928 Y31.0415
G01 X27.8491 Y31.0480
G01 X27.8050 Y31.0502
G01 X18.1250 Y31.0502
G01 X18.0784 Y31.0477
G01 X18.0372 Y31.0415
G01 X17.9967 Y31.0315
G01 X17.9527 Y31.0159
G01 X17.9106 Y30.9958
G01 X17.8749 Y30.9743
G01 X17.8413 Y30.9495
G01 X17.8067 Y30.9183
G01 X14.6179 Y27.7296
G01 X14.5713 Y27.7515
G01 X14.4512 Y27.7944
G01 X14.3286 Y27.8250
G01 X14.2012 Y27.8438
G01 X14.0750 Y27.8500
G01 X13.9476 Y27.8437
G01 X13.8214 Y27.8250
G01 X13.6988 Y27.7944
G01 X13.5775 Y27.7510
G01 X13.4644 Y27.6976
G01 X13.3508 Y27.6295
G01 X13.2503 Y27.5549
G01 X13.1558 Y27.4692
G01 X13.0701 Y27.3747
G01 X12.9955 Y27.2742
G01 X12.9285 Y27.1628
G01 X12.8750 Y27.0497
G01 X12.8303 Y26.9250
G01 X12.8000 Y26.8036
G01 X12.7813 Y26.6774
G01 X12.7750 Y26.5500
G01 X12.7813 Y26.4226
G01 X12.8000 Y26.2964
G01 X12.8303 Y26.1750
G01 X12.8750 Y26.0503
G01 X12.9285 Y25.9372
G01 X12.9941 Y25.8278
G01 X13.0701 Y25.7253
G01 X13.1549 Y25.6316
G01 X13.2522 Y25.5436
G01 X13.3528 Y25.4691
G01 X13.4622 Y25.4035
G01 X13.5775 Y25.3490
G01 X13.6953 Y25.3067
G01 X13.8226 Y25.2748
G01 X13.9476 Y25.2563
G01 X14.0725 Y25.2501
G01 X14.2036 Y25.2564
G01 X14.3286 Y25.2750
G01 X14.4512 Y25.3056
G01 X14.5713 Y25.3485
G01 X14.6179 Y25.3704
G01 X17.3998 Y22.5885
G01 X17.3998 Y5.1673
G01 X14.9027 Y2.6702
G01 X8.7665 Y2.6702
G01 X6.3300 Y5.1067
G01 X6.3300 Y6.2200
G01 X6.3290 Y6.2298
G01 X6.3266 Y6.2380
G01 X6.3235 Y6.2446
G01 X6.3194 Y6.2508
G01 X6.3154 Y6.2554
G01 X6.3098 Y6.2602
G01 X6.3036 Y6.2641
G01 X6.2968 Y6.2671
G01 X6.2910 Y6.2688
G01 X6.2837 Y6.2699
G01 X5.8902 Y6.2700
G01 X5.8902 Y7.8500
G01 X5.9132 Y7.8639
G01 X5.9802 Y7.9137
G01 X6.0410 Y7.9690
G01 X6.0963 Y8.0298
G01 X6.1481 Y8.0998
G01 X6.1896 Y8.1693
G01 X6.2253 Y8.2447
G01 X6.2534 Y8.3233
G01 X6.2731 Y8.4018
G01 X6.2860 Y8.4879
G01 X6.2900 Y8.5700
G01 X6.2860 Y8.6521
G01 X6.2739 Y8.7346
G01 X6.2675 Y8.7608
G01 X7.6442 Y10.1375
G01 X7.6730 Y10.1694
G01 X7.6993 Y10.2049
G01 X7.7220 Y10.2428
G01 X7.7414 Y10.2839
G01 X7.7558 Y10.3243
G01 X7.7665 Y10.3672
G01 X7.7730 Y10.4109
G01 X7.7752 Y10.4538
G01 X7.7752 Y12.1650
G01 X8.1299 Y12.1652
G01 X8.1371 Y12.1665
G01 X8.1441 Y12.1688
G01 X8.1517 Y12.1728
G01 X8.1577 Y12.1771
G01 X8.1629 Y12.1823
G01 X8.1672 Y12.1883
G01 X8.1707 Y12.1947
G01 X8.1735 Y12.2029
G01 X8.1746 Y12.2089
G01 X8.1750 Y12.2150
G01 X8.1750 Y13.8150
G01 X8.1743 Y13.8235
G01 X8.1716 Y13.8330
G01 X8.1672 Y13.8417
G01 X8.1620 Y13.8486
G01 X8.1558 Y13.8544
G01 X8.1475 Y13.8597
G01 X8.1395 Y13.8628
G01 X8.1311 Y13.8646
G01 X8.1250 Y13.8650
G01 X7.7752 Y13.8650
G01 X7.7752 Y14.9150
G01 X7.7732 Y14.9567
G01 X7.7665 Y15.0028
G01 X7.7550 Y15.0480
G01 X7.7409 Y15.0873
G01 X7.7231 Y15.1250
G01 X7.6986 Y15.1661
G01 X7.6730 Y15.2006
G01 X7.6433 Y15.2333
G01 X6.2200 Y16.6567
G01 X6.2200 Y17.5712
G01 X6.2193 Y17.5785
G01 X6.2175 Y17.5857
G01 X6.2147 Y17.5925
G01 X6.2109 Y17.5988
G01 X6.2062 Y17.6045
G01 X6.2017 Y17.6087
G01 X6.1957 Y17.6129
G01 X6.1891 Y17.6162
G01 X6.1798 Y17.6190
G01 X6.1700 Y17.6200
G01 X4.6700 Y17.6200
G01 X4.6602 Y17.6190
G01 X4.6509 Y17.6162
G01 X4.6422 Y17.6116
G01 X4.6346 Y17.6054
G01 X4.6284 Y17.5978
G01 X4.6238 Y17.5891
G01 X4.6210 Y17.5798
G01 X4.6200 Y17.5700
G01 X4.6202 Y16.0651
G01 X4.6218 Y16.0567
G01 X4.6248 Y16.0486
G01 X4.6298 Y16.0402
G01 X4.6355 Y16.0338
G01 X4.6433 Y16.0278
G01 X4.6509 Y16.0238
G01 X4.6590 Y16.0212
G01 X4.6675 Y16.0201
G01 X5.5833 Y16.0200
G01 X6.8748 Y14.7285
G01 X6.8748 Y13.8650
G01 X6.5201 Y13.8648
G01 X6.5117 Y13.8632
G01 X6.5036 Y13.8602
G01 X6.4962 Y13.8559
G01 X6.4905 Y13.8512
G01 X6.4848 Y13.8448
G01 X6.4803 Y13.8375
G01 X6.4775 Y13.8307
G01 X6.4755 Y13.8223
G01 X6.4750 Y13.8150
G01 X6.4750 Y12.2150
G01 X6.4757 Y12.2065
G01 X6.4784 Y12.1970
G01 X6.4828 Y12.1883
G01 X6.4880 Y12.1814
G01 X6.4952 Y12.1748
G01 X6.5025 Y12.1703
G01 X6.5105 Y12.1672
G01 X6.5189 Y12.1654
G01 X6.5250 Y12.1650
G01 X6.8748 Y12.1650
G01 X6.8748 Y10.6415
G01 X5.6308 Y9.3975
G01 X5.6046 Y9.4039
G01 X5.5245 Y9.4158
G01 X5.4400 Y9.4200
G01 X5.3555 Y9.4158
G01 X5.2754 Y9.4039
G01 X5.2492 Y9.3975
G01 X3.8804 Y10.7663
G01 X3.8856 Y10.7777
G01 X3.9167 Y10.8656
G01 X3.9387 Y10.9537
G01 X3.9524 Y11.0459
G01 X3.9569 Y11.1415
G01 X3.9524 Y11.2321
G01 X3.9387 Y11.3243
G01 X3.9161 Y11.4148
G01 X3.8856 Y11.5003
G01 X3.8448 Y11.5868
G01 X3.7955 Y11.6688
G01 X3.7414 Y11.7417
G01 X3.6804 Y11.8090
G01 X3.6097 Y11.8734
G01 X3.5327 Y11.9302
G01 X3.4548 Y11.9768
G01 X3.3728 Y12.0157
G01 X3.2828 Y12.0481
G01 X3.1923 Y12.0707
G01 X3.0977 Y12.0846
G01 X3.0070 Y12.0890
G01 X2.9163 Y12.0846
G01 X2.8229 Y12.0710
G01 X2.7312 Y12.0481
G01 X2.6435 Y12.0167
G01 X2.5592 Y11.9768
G01 X2.4792 Y11.9289
G01 X2.4043 Y11.8734
G01 X2.3352 Y11.8108
G01 X2.2726 Y11.7417
G01 X2.2171 Y11.6668
G01 X2.1692 Y11.5868
G01 X2.1293 Y11.5025
G01 X2.0979 Y11.4148
G01 X2.0753 Y11.3243
G01 X2.0616 Y11.2321
G01 X2.0570 Y11.1390
G01 X2.0616 Y11.0459
G01 X2.0750 Y10.9549
G01 X2.0979 Y10.8632
G01 X2.1293 Y10.7755
G01 X2.1692 Y10.6912
G01 X2.2171 Y10.6112
G01 X2.2726 Y10.5363
G01 X2.3352 Y10.4672
G01 X2.4043 Y10.4046
G01 X2.4782 Y10.3498
G01 X2.5592 Y10.3012
G01 X2.6435 Y10.2613
G01 X2.7312 Y10.2299
G01 X2.8217 Y10.2073
G01 X2.9139 Y10.1936
G01 X3.0070 Y10.1890
G01 X3.1001 Y10.1936
G01 X3.1695 Y10.2038
M5
G00 X3.9070 Y12.7290
M3
G01 X3.9155 Y12.7297
G01 X3.9250 Y12.7324
G01 X3.9337 Y12.7368
G01 X3.9415 Y12.7428
G01 X3.9479 Y12.7502
G01 X3.9527 Y12.7587
G01 X3.9558 Y12.7680
G01 X3.9570 Y12.7778
G01 X3.9570 Y14.5790
G01 X3.9565 Y14.5863
G01 X3.9548 Y14.5935
G01 X3.9522 Y14.6004
G01 X3.9479 Y14.6078
G01 X3.9432 Y14.6135
G01 X3.9378 Y14.6184
G01 X3.9316 Y14.6225
G01 X3.9250 Y14.6256
G01 X3.9180 Y14.6278
G01 X3.9095 Y14.6289
G01 X3.3302 Y14.6290
G01 X3.3302 Y16.1050
G01 X3.3532 Y16.1189
G01 X3.4202 Y16.1687
G01 X3.4810 Y16.2240
G01 X3.5363 Y16.2848
G01 X3.5867 Y16.3528
G01 X3.6284 Y16.4222
G01 X3.6658 Y16.5009
G01 X3.6934 Y16.5783
G01 X3.7131 Y16.6568
G01 X3.7261 Y16.7441
G01 X3.7300 Y16.8250
G01 X3.7259 Y16.9083
G01 X3.7137 Y16.9908
G01 X3.6941 Y17.0694
G01 X3.6653 Y17.1503
G01 X3.6296 Y17.2257
G01 X3.5867 Y17.2972
G01 X3.5371 Y17.3642
G01 X3.4810 Y17.4260
G01 X3.4192 Y17.4821
G01 X3.3522 Y17.5317
G01 X3.2807 Y17.5746
G01 X3.2053 Y17.6103
G01 X3.1267 Y17.6384
G01 X3.0458 Y17.6587
G01 X2.9633 Y17.6709
G01 X2.8800 Y17.6750
G01 X2.7967 Y17.6709
G01 X2.7142 Y17.6587
G01 X2.6356 Y17.6391
G01 X2.5525 Y17.6093
G01 X2.4793 Y17.5746
G01 X2.4078 Y17.5317
G01 X2.3389 Y17.4805
G01 X2.2790 Y17.4260
G01 X2.2229 Y17.3642
G01 X2.1733 Y17.2972
G01 X2.1316 Y17.2278
G01 X2.0947 Y17.1503
G01 X2.0659 Y17.0694
G01 X2.0463 Y16.9908
G01 X2.0342 Y16.9095
G01 X2.0301 Y16.8225
G01 X2.0341 Y16.7417
G01 X2.0463 Y16.6592
G01 X2.0674 Y16.5759
G01 X2.0947 Y16.4997
G01 X2.1298 Y16.4254
G01 X2.1747 Y16.3508
G01 X2.2229 Y16.2858
G01 X2.2781 Y16.2248
G01 X2.3417 Y16.1672
G01 X2.4068 Y16.1189
G01 X2.4298 Y16.1050
G01 X2.4298 Y14.6290
G01 X2.1070 Y14.6290
G01 X2.1009 Y14.6286
G01 X2.0937 Y14.6272
G01 X2.0856 Y14.6242
G01 X2.0782 Y14.6199
G01 X2.0716 Y14.6144
G01 X2.0661 Y14.6078
G01 X2.0618 Y14.6004
G01 X2.0588 Y14.5923
G01 X2.0574 Y14.5851
G01 X2.0570 Y14.5790
G01 X2.0570 Y12.7790
G01 X2.0574 Y12.7729
G01 X2.0585 Y12.7669
G01 X2.0613 Y12.7587
G01 X2.0654 Y12.7512
G01 X2.0708 Y12.7445
G01 X2.0762 Y12.7396
G01 X2.0824 Y12.7355
G01 X2.0902 Y12.7319
G01 X2.0972 Y12.7300
G01 X2.1058 Y12.7290
G01 X3.9070 Y12.7290
M5
G00 X2.3398 Y16.0565
M3
G01 X2.3398 Y14.7190
G01 X2.1036 Y14.7190
G01 X2.0933 Y14.7183
G01 X2.0831 Y14.7169
G01 X2.0730 Y14.7148
G01 X2.0631 Y14.7119
G01 X2.0534 Y14.7083
G01 X2.0441 Y14.7041
G01 X2.0350 Y14.6991
G01 X2.0264 Y14.6935
G01 X2.0182 Y14.6872
G01 X2.0105 Y14.6804
G01 X2.0033 Y14.6730
G01 X1.9966 Y14.6651
G01 X1.9906 Y14.6568
G01 X1.9852 Y14.6480
G01 X1.9804 Y14.6389
G01 X1.9764 Y14.6294
G01 X1.9741 Y14.6229
G01 X1.9712 Y14.6130
G01 X1.9691 Y14.6029
G01 X1.9677 Y14.5927
G01 X1.9670 Y14.5790
G01 X1.9670 Y12.7790
G01 X1.9677 Y12.7653
G01 X1.9685 Y12.7585
G01 X1.9704 Y12.7483
G01 X1.9721 Y12.7417
G01 X1.9752 Y12.7318
G01 X1.9804 Y12.7191
G01 X1.9835 Y12.7130
G01 X1.9887 Y12.7041
G01 X1.9946 Y12.6956
G01 X2.0010 Y12.6876
G01 X2.0080 Y12.6800
G01 X2.0156 Y12.6730
G01 X2.0236 Y12.6666
G01 X2.0321 Y12.6607
G01 X2.0410 Y12.6555
G01 X2.0503 Y12.6510
G01 X2.0566 Y12.6484
G01 X2.0664 Y12.6450
G01 X2.0730 Y12.6432
G01 X2.0831 Y12.6411
G01 X2.0933 Y12.6397
G01 X2.1036 Y12.6390
G01 X3.9070 Y12.6390
G01 X3.9207 Y12.6397
G01 X3.9275 Y12.6405
G01 X3.9377 Y12.6424
G01 X3.9509 Y12.6461
G01 X3.9606 Y12.6497
G01 X3.9669 Y12.6524
G01 X3.9760 Y12.6572
G01 X3.9819 Y12.6607
G01 X3.9904 Y12.6666
G01 X3.9984 Y12.6730
G01 X4.0035 Y12.6776
G01 X4.0107 Y12.6850
G01 X4.0174 Y12.6929
G01 X4.0234 Y12.7012
G01 X4.0288 Y12.7100
G01 X4.0321 Y12.7161
G01 X4.0363 Y12.7254
G01 X4.0399 Y12.7351
G01 X4.0428 Y12.7450
G01 X4.0449 Y12.7551
G01 X4.0463 Y12.7653
G01 X4.0468 Y12.7721
G01 X4.0470 Y14.5790
G01 X4.0468 Y14.5859
G01 X4.0459 Y14.5961
G01 X4.0443 Y14.6063
G01 X4.0419 Y14.6163
G01 X4.0388 Y14.6262
G01 X4.0350 Y14.6357
G01 X4.0305 Y14.6450
G01 X4.0253 Y14.6539
G01 X4.0194 Y14.6624
G01 X4.0130 Y14.6704
G01 X4.0060 Y14.6780
G01 X4.0010 Y14.6827
G01 X3.9931 Y14.6894
G01 X3.9848 Y14.6954
G01 X3.9760 Y14.7008
G01 X3.9699 Y14.7041
G01 X3.9606 Y14.7083
G01 X3.9509 Y14.7119
G01 X3.9410 Y14.7148
G01 X3.9309 Y14.7169
G01 X3.9207 Y14.7183
G01 X3.9070 Y14.7190
G01 X3.4202 Y14.7190
G01 X3.4202 Y16.0565
G01 X3.4763 Y16.0984
G01 X3.5397 Y16.1556
G01 X3.5494 Y16.1653
G01 X3.6066 Y16.2287
G01 X3.6576 Y16.2971
G01 X3.6653 Y16.3086
G01 X3.7090 Y16.3819
G01 X3.7471 Y16.4621
G01 X3.7509 Y16.4717
G01 X3.7774 Y16.5456
G01 X3.7814 Y16.5588
G01 X3.8019 Y16.6416
G01 X3.8146 Y16.7260
G01 X3.8160 Y16.7397
G01 X3.8200 Y16.8250
G01 X3.8160 Y16.9103
G01 X3.8151 Y16.9206
G01 X3.8019 Y17.0084
G01 X3.7795 Y17.0979
G01 X3.7484 Y17.1847
G01 X3.7121 Y17.2620
G01 X3.7056 Y17.2741
G01 X3.6616 Y17.3472
G01 X3.6109 Y17.4159
G01 X3.6021 Y17.4265
G01 X3.5494 Y17.4847
G01 X3.5397 Y17.4944
G01 X3.4763 Y17.5516
G01 X3.4051 Y17.6046
G01 X3.3964 Y17.6103
G01 X3.3231 Y17.6540
G01 X3.2397 Y17.6934
G01 X3.1529 Y17.7245
G01 X3.0634 Y17.7469
G01 X2.9721 Y17.7605
G01 X2.8800 Y17.7650
G01 X2.7879 Y17.7605
G01 X2.6966 Y17.7469
G01 X2.6071 Y17.7245
G01 X2.5203 Y17.6934
G01 X2.4369 Y17.6540
G01 X2.3578 Y17.6066
G01 X2.2837 Y17.5516
G01 X2.2153 Y17.4897
G01 X2.1534 Y17.4213
G01 X2.1004 Y17.3501
G01 X2.0947 Y17.3414
G01 X2.0510 Y17.2681
G01 X2.0116 Y17.1847
G01 X1.9805 Y17.0979
G01 X1.9581 Y17.0084
G01 X1.9445 Y16.9171
G01 X1.9400 Y16.8250
G01 X1.9445 Y16.7329
G01 X1.9574 Y16.6450
G01 X1.9596 Y16.6349
G01 X1.9805 Y16.5521
G01 X2.0116 Y16.4653
G01 X2.0510 Y16.3819
G01 X2.0965 Y16.3056
G01 X2.1024 Y16.2971
G01 X2.1534 Y16.2287
G01 X2.2153 Y16.1603
G01 X2.2837 Y16.0984
G01 X2.3398 Y16.0565
M5
G00 X8.1214 Y15.8996
M3
G01 X10.5948 Y13.4262
G01 X10.5948 Y9.2050
G01 X10.5969 Y9.1589
G01 X10.5982 Y9.1452
G01 X10.6052 Y9.0996
G01 X10.6181 Y9.0482
G01 X10.6359 Y8.9983
G01 X10.6555 Y8.9565
G01 X10.6620 Y8.9444
G01 X10.6858 Y8.9049
G01 X10.7132 Y8.8677
G01 X10.7219 Y8.8571
G01 X10.7506 Y8.8255
G01 X12.5098 Y7.0662
G01 X12.5098 Y6.1992
G01 X12.5029 Y6.1950
G01 X12.4944 Y6.1892
G01 X12.4220 Y6.1353
G01 X12.3500 Y6.0700
G01 X12.2847 Y5.9980
G01 X12.2308 Y5.9256
G01 X12.2232 Y5.9142
G01 X12.1803 Y5.8427
G01 X12.1738 Y5.8305
G01 X12.1354 Y5.7489
G01 X12.1048 Y5.6639
G01 X12.1008 Y5.6508
G01 X12.0790 Y5.5631
G01 X12.0651 Y5.4705
G01 X12.0643 Y5.4602
G01 X12.0600 Y5.3700
G01 X12.0643 Y5.2798
G01 X12.0656 Y5.2661
G01 X12.0778 Y5.1836
G01 X12.0805 Y5.1702
G01 X12.1026 Y5.0826
G01 X12.1354 Y4.9911
G01 X12.1769 Y4.9033
G01 X12.2232 Y4.8258
G01 X12.2308 Y4.8144
G01 X12.2805 Y4.7474
G01 X12.2892 Y4.7367
G01 X12.3500 Y4.6700
G01 X12.4167 Y4.6092
G01 X12.4274 Y4.6005
G01 X12.5000 Y4.5468
G01 X12.5833 Y4.4969
G01 X12.6711 Y4.4554
G01 X12.7626 Y4.4226
G01 X12.8569 Y4.3990
G01 X12.9530 Y4.3848
G01 X13.0500 Y4.3800
G01 X13.1402 Y4.3843
G01 X13.1539 Y4.3856
G01 X13.2431 Y4.3990
G01 X13.3308 Y4.4208
G01 X13.3439 Y4.4248
G01 X13.4224 Y4.4529
G01 X13.4351 Y4.4581
G01 X13.5167 Y4.4969
G01 X13.5942 Y4.5432
G01 X13.6056 Y4.5508
G01 X13.6780 Y4.6047
G01 X13.7451 Y4.6652
G01 X13.7548 Y4.6749
G01 X13.8153 Y4.7420
G01 X13.8732 Y4.8200
G01 X13.9197 Y4.8973
G01 X13.9262 Y4.9095
G01 X13.9646 Y4.9911
G01 X13.9974 Y5.0826
G01 X14.0195 Y5.1702
G01 X14.0222 Y5.1836
G01 X14.0352 Y5.2730
G01 X14.0398 Y5.3631
G01 X14.0398 Y5.3769
G01 X14.0352 Y5.4670
G01 X14.0222 Y5.5564
G01 X14.0195 Y5.5698
G01 X13.9974 Y5.6574
G01 X13.9671 Y5.7424
G01 X13.9619 Y5.7551
G01 X13.9231 Y5.8367
G01 X13.8768 Y5.9142
G01 X13.8692 Y5.9256
G01 X13.8153 Y5.9980
G01 X13.7548 Y6.0651
G01 X13.7451 Y6.0748
G01 X13.6780 Y6.1353
G01 X13.6056 Y6.1892
G01 X13.5971 Y6.1950
G01 X13.5902 Y6.1992
G01 X13.5902 Y7.2934
G01 X13.5876 Y7.3429
G01 X13.5810 Y7.3886
G01 X13.5791 Y7.3987
G01 X13.5688 Y7.4402
G01 X13.5648 Y7.4533
G01 X13.5491 Y7.4967
G01 X13.5295 Y7.5385
G01 X13.5248 Y7.5477
G01 X13.5028 Y7.5843
G01 X13.4952 Y7.5957
G01 X13.4676 Y7.6327
G01 X13.4344 Y7.6695
G01 X11.6752 Y9.4288
G01 X11.6752 Y13.6500
G01 X11.6726 Y13.7029
G01 X11.6648 Y13.7554
G01 X11.6519 Y13.8068
G01 X11.6366 Y13.8503
G01 X11.6313 Y13.8630
G01 X11.6114 Y13.9046
G01 X11.5842 Y13.9501
G01 X11.5526 Y13.9927
G01 X11.5170 Y14.0320
G01 X8.8854 Y16.6636
G01 X8.8955 Y16.7329
G01 X8.8998 Y16.8181
G01 X8.8998 Y16.8319
G01 X8.8960 Y16.9103
G01 X8.8946 Y16.9240
G01 X8.8819 Y17.0084
G01 X8.8595 Y17.0979
G01 X8.8284 Y17.1847
G01 X8.7921 Y17.2620
G01 X8.7856 Y17.2741
G01 X8.7416 Y17.3472
G01 X8.6909 Y17.4159
G01 X8.6821 Y17.4265
G01 X8.6247 Y17.4897
G01 X8.5615 Y17.5471
G01 X8.5509 Y17.5559
G01 X8.4822 Y17.6066
G01 X8.4091 Y17.6506
G01 X8.3970 Y17.6571
G01 X8.3197 Y17.6934
G01 X8.2329 Y17.7245
G01 X8.1434 Y17.7469
G01 X8.0590 Y17.7596
G01 X8.0453 Y17.7610
G01 X7.9600 Y17.7650
G01 X7.8747 Y17.7610
G01 X7.8610 Y17.7596
G01 X7.7800 Y17.7476
G01 X7.7699 Y17.7454
G01 X7.6871 Y17.7245
G01 X7.6003 Y17.6934
G01 X7.5169 Y17.6540
G01 X7.4378 Y17.6066
G01 X7.3637 Y17.5516
G01 X7.2953 Y17.4897
G01 X7.2334 Y17.4213
G01 X7.1784 Y17.3472
G01 X7.1310 Y17.2681
G01 X7.0916 Y17.1847
G01 X7.0605 Y17.0979
G01 X7.0381 Y17.0084
G01 X7.0245 Y16.9171
G01 X7.0200 Y16.8250
G01 X7.0245 Y16.7329
G01 X7.0374 Y16.6450
G01 X7.0396 Y16.6349
G01 X7.0605 Y16.5521
G01 X7.0916 Y16.4653
G01 X7.1310 Y16.3819
G01 X7.1784 Y16.3028
G01 X7.2334 Y16.2287
G01 X7.2953 Y16.1603
G01 X7.3637 Y16.0984
G01 X7.4349 Y16.0454
G01 X7.4436 Y16.0397
G01 X7.5169 Y15.9960
G01 X7.6003 Y15.9566
G01 X7.6871 Y15.9255
G01 X7.7733 Y15.9038
G01 X7.7834 Y15.9019
G01 X7.8679 Y15.8895
G01 X7.9600 Y15.8850
G01 X8.0521 Y15.8895
G01 X8.1214 Y15.8996
M5
G00 X12.3852 Y14.3069
M3
G01 X12.3852 Y14.2931
G01 X12.3929 Y14.1393
G01 X12.4165 Y13.9801
G01 X12.4556 Y13.8239
G01 X12.5098 Y13.6724
G01 X12.5786 Y13.5269
G01 X12.6614 Y13.3889
G01 X12.7573 Y13.2596
G01 X12.8653 Y13.1403
G01 X12.9846 Y13.0323
G01 X13.1139 Y12.9364
G01 X13.2519 Y12.8536
G01 X13.3974 Y12.7848
G01 X13.5489 Y12.7306
G01 X13.7051 Y12.6915
G01 X13.8643 Y12.6679
G01 X14.0250 Y12.6600
G01 X14.1857 Y12.6679
G01 X14.3449 Y12.6915
G01 X14.5011 Y12.7306
G01 X14.6526 Y12.7848
G01 X14.7981 Y12.8536
G01 X14.9361 Y12.9364
G01 X15.0654 Y13.0323
G01 X15.1847 Y13.1403
G01 X15.2927 Y13.2596
G01 X15.3886 Y13.3889
G01 X15.4714 Y13.5269
G01 X15.5402 Y13.6724
G01 X15.5944 Y13.8239
G01 X15.6335 Y13.9801
G01 X15.6571 Y14.1393
G01 X15.6650 Y14.3000
G01 X15.6571 Y14.4607
G01 X15.6335 Y14.6199
G01 X15.5944 Y14.7761
G01 X15.5402 Y14.9276
G01 X15.4714 Y15.0731
G01 X15.3886 Y15.2111
G01 X15.2927 Y15.3404
G01 X15.1847 Y15.4597
G01 X15.0654 Y15.5677
G01 X14.9361 Y15.6636
G01 X14.7981 Y15.7464
G01 X14.6526 Y15.8152
G01 X14.5011 Y15.8694
G01 X14.3449 Y15.9085
G01 X14.1857 Y15.9321
G01 X14.0250 Y15.9400
G01 X13.8643 Y15.9321
G01 X13.7051 Y15.9085
G01 X13.5489 Y15.8694
G01 X13.3974 Y15.8152
G01 X13.2519 Y15.7464
G01 X13.1139 Y15.6636
G01 X12.9846 Y15.5677
G01 X12.8653 Y15.4597
G01 X12.7573 Y15.3404
G01 X12.6614 Y15.2111
G01 X12.5786 Y15.0731
G01 X12.5098 Y14.9276
G01 X12.4556 Y14.7761
G01 X12.4165 Y14.6199
G01 X12.3929 Y14.4607
G01 X12.3852 Y14.3069
M5
G00 X12.4751 Y14.3025
M3
G01 X12.4825 Y14.1481
G01 X12.5048 Y13.9976
G01 X12.5417 Y13.8501
G01 X12.5930 Y13.7068
G01 X12.6580 Y13.5693
G01 X12.7362 Y13.4389
G01 X12.8268 Y13.3167
G01 X12.9290 Y13.2040
G01 X13.0417 Y13.1018
G01 X13.1639 Y13.0112
G01 X13.2943 Y12.9330
G01 X13.4318 Y12.8680
G01 X13.5751 Y12.8167
G01 X13.7226 Y12.7798
G01 X13.8731 Y12.7575
G01 X14.0250 Y12.7500
G01 X14.1769 Y12.7575
G01 X14.3274 Y12.7798
G01 X14.4749 Y12.8167
G01 X14.6182 Y12.8680
G01 X14.7557 Y12.9330
G01 X14.8861 Y13.0112
G01 X15.0083 Y13.1018
G01 X15.1210 Y13.2040
G01 X15.2232 Y13.3167
G01 X15.3138 Y13.4389
G01 X15.3920 Y13.5693
G01 X15.4570 Y13.7068
G01 X15.5083 Y13.8501
G01 X15.5452 Y13.9976
G01 X15.5675 Y14.1481
G01 X15.5750 Y14.3000
G01 X15.5675 Y14.4519
G01 X15.5452 Y14.6024
G01 X15.5083 Y14.7499
G01 X15.4570 Y14.8932
G01 X15.3920 Y15.0307
G01 X15.3138 Y15.1611
G01 X15.2232 Y15.2833
G01 X15.1210 Y15.3960
G01 X15.0083 Y15.4982
G01 X14.8861 Y15.5888
G01 X14.7557 Y15.6670
G01 X14.6182 Y15.7320
G01 X14.4749 Y15.7833
G01 X14.3274 Y15.8202
G01 X14.1769 Y15.8425
G01 X14.0250 Y15.8500
G01 X13.8731 Y15.8425
G01 X13.7226 Y15.8202
G01 X13.5751 Y15.7833
G01 X13.4318 Y15.7320
G01 X13.2943 Y15.6670
G01 X13.1639 Y15.5888
G01 X13.0417 Y15.4982
G01 X12.9290 Y15.3960
G01 X12.8268 Y15.2833
G01 X12.7362 Y15.1611
G01 X12.6580 Y15.0307
G01 X12.5930 Y14.8932
G01 X12.5417 Y14.7499
G01 X12.5048 Y14.6024
G01 X12.4825 Y14.4519
G01 X12.4751 Y14.3025
M5
G00 X7.5198 Y7.8320
M3
G01 X7.5198 Y6.1482
G01 X7.4700 Y6.1183
G01 X7.4010 Y6.0672
G01 X7.3345 Y6.0073
G01 X7.2743 Y5.9410
G01 X7.2210 Y5.8690
G01 X7.1752 Y5.7921
G01 X7.1385 Y5.7144
G01 X7.1095 Y5.6336
G01 X7.0873 Y5.5456
G01 X7.0742 Y5.4558
G01 X7.0700 Y5.3700
G01 X7.0746 Y5.2793
G01 X7.0873 Y5.1944
G01 X7.1081 Y5.1111
G01 X7.1376 Y5.0279
G01 X7.1763 Y4.9457
G01 X7.2217 Y4.8700
G01 X7.2743 Y4.7990
G01 X7.3336 Y4.7336
G01 X7.3990 Y4.6743
G01 X7.4700 Y4.6217
G01 X7.5457 Y4.5763
G01 X7.6279 Y4.5376
G01 X7.7111 Y4.5081
G01 X7.7944 Y4.4873
G01 X7.8793 Y4.4746
G01 X7.9700 Y4.4700
G01 X8.0570 Y4.4742
G01 X8.1456 Y4.4873
G01 X8.2336 Y4.5095
G01 X8.3144 Y4.5385
G01 X8.3921 Y4.5752
G01 X8.4690 Y4.6210
G01 X8.5410 Y4.6743
G01 X8.6073 Y4.7345
G01 X8.6672 Y4.8010
G01 X8.7183 Y4.8700
G01 X8.7482 Y4.9198
G01 X9.7318 Y4.9198
G01 X9.7617 Y4.8700
G01 X9.8151 Y4.7981
G01 X9.8736 Y4.7336
G01 X9.9381 Y4.6751
G01 X10.0121 Y4.6204
G01 X10.0857 Y4.5763
G01 X10.1656 Y4.5385
G01 X10.2487 Y4.5088
G01 X10.3320 Y4.4878
G01 X10.4230 Y4.4742
G01 X10.5100 Y4.4700
G01 X10.5970 Y4.4742
G01 X10.6856 Y4.4873
G01 X10.7420 Y4.5014
G01 X12.0725 Y3.1708
G01 X12.1063 Y3.1405
G01 X12.1399 Y3.1157
G01 X12.1756 Y3.0942
G01 X12.2177 Y3.0741
G01 X12.2617 Y3.0585
G01 X12.3022 Y3.0485
G01 X12.3434 Y3.0423
G01 X12.3900 Y3.0398
G01 X14.9450 Y3.0398
G01 X14.9891 Y3.0420
G01 X15.0328 Y3.0485
G01 X15.0757 Y3.0592
G01 X15.1184 Y3.0746
G01 X15.1572 Y3.0930
G01 X15.1951 Y3.1157
G01 X15.2306 Y3.1420
G01 X15.2633 Y3.1717
G01 X17.1683 Y5.0767
G01 X17.1995 Y5.1113
G01 X17.2243 Y5.1449
G01 X17.2458 Y5.1806
G01 X17.2659 Y5.2227
G01 X17.2815 Y5.2667
G01 X17.2915 Y5.3072
G01 X17.2977 Y5.3484
G01 X17.3002 Y5.3950
G01 X17.3002 Y19.3650
G01 X17.2980 Y19.4091
G01 X17.2920 Y19.4504
G01 X17.2804 Y19.4969
G01 X17.2649 Y19.5395
G01 X17.2470 Y19.5772
G01 X17.2256 Y19.6130
G01 X17.1980 Y19.6506
G01 X17.1683 Y19.6833
G01 X12.0883 Y24.7633
G01 X12.0575 Y24.7914
G01 X12.0180 Y24.8206
G01 X11.9822 Y24.8420
G01 X11.9423 Y24.8609
G01 X11.8983 Y24.8765
G01 X11.8578 Y24.8865
G01 X11.8153 Y24.8929
G01 X11.7700 Y24.8952
G01 X11.2200 Y24.8952
G01 X11.2061 Y24.9182
G01 X11.1578 Y24.9833
G01 X11.1010 Y25.0460
G01 X11.0383 Y25.1028
G01 X10.9732 Y25.1511
G01 X10.9502 Y25.1650
G01 X10.9502 Y26.4608
G01 X10.9480 Y26.5037
G01 X10.9420 Y26.5450
G01 X10.9304 Y26.5914
G01 X10.9149 Y26.6341
G01 X10.8970 Y26.6718
G01 X10.8756 Y26.7076
G01 X10.8480 Y26.7452
G01 X10.8192 Y26.7770
G01 X9.9146 Y27.6817
G01 X9.9145 Y28.3725
G01 X9.9134 Y28.3810
G01 X9.9108 Y28.3891
G01 X9.9068 Y28.3967
G01 X9.9016 Y28.4036
G01 X9.8953 Y28.4094
G01 X9.8881 Y28.4141
G01 X9.8803 Y28.4175
G01 X9.8707 Y28.4196
G01 X9.8646 Y28.4200
G01 X8.8121 Y28.4199
G01 X8.8036 Y28.4188
G01 X8.7943 Y28.4157
G01 X8.7858 Y28.4109
G01 X8.7784 Y28.4045
G01 X8.7723 Y28.3967
G01 X8.7684 Y28.3891
G01 X8.7655 Y28.3798
G01 X8.7646 Y28.3712
G01 X8.7646 Y26.8700
G01 X8.7651 Y26.8627
G01 X8.7664 Y26.8567
G01 X8.7684 Y26.8509
G01 X8.7717 Y26.8443
G01 X8.7752 Y26.8392
G01 X8.7801 Y26.8338
G01 X8.7848 Y26.8298
G01 X8.7899 Y26.8265
G01 X8.7954 Y26.8238
G01 X8.8012 Y26.8218
G01 X8.8072 Y26.8205
G01 X8.8133 Y26.8200
G01 X9.5029 Y26.8200
G01 X10.0498 Y26.2731
G01 X10.0498 Y25.1650
G01 X10.0268 Y25.1511
G01 X9.9617 Y25.1028
G01 X9.8998 Y25.0469
G01 X9.8429 Y24.9842
G01 X9.7926 Y24.9162
G01 X9.7493 Y24.8435
G01 X9.7147 Y24.7703
G01 X9.6874 Y24.6941
G01 X9.6663 Y24.6108
G01 X9.6542 Y24.5295
G01 X9.6500 Y24.4450
G01 X9.6541 Y24.3617
G01 X9.6663 Y24.2792
G01 X9.6859 Y24.2006
G01 X9.7157 Y24.1175
G01 X9.7504 Y24.0443
G01 X9.7939 Y23.9718
G01 X9.8445 Y23.9039
G01 X9.8990 Y23.8440
G01 X9.9589 Y23.7895
G01 X10.0278 Y23.7383
G01 X10.0993 Y23.6954
G01 X10.1770 Y23.6588
G01 X10.2533 Y23.6316
G01 X10.3318 Y23.6119
G01 X10.4167 Y23.5991
G01 X10.5012 Y23.5950
G01 X10.5858 Y23.5994
G01 X10.6658 Y23.6113
G01 X10.7444 Y23.6309
G01 X10.8253 Y23.6597
G01 X10.9018 Y23.6960
G01 X10.9722 Y23.7383
G01 X11.0373 Y23.7864
G01 X11.1002 Y23.8431
G01 X11.1578 Y23.9067
G01 X11.2061 Y23.9718
G01 X11.2200 Y23.9948
G01 X11.5835 Y23.9948
G01 X16.3998 Y19.1785
G01 X16.3998 Y5.5815
G01 X14.7585 Y3.9402
G01 X12.5765 Y3.9402
G01 X11.3786 Y5.1380
G01 X11.3927 Y5.1944
G01 X11.4058 Y5.2830
G01 X11.4100 Y5.3700
G01 X11.4058 Y5.4570
G01 X11.3927 Y5.5456
G01 X11.3719 Y5.6289
G01 X11.3410 Y5.7155
G01 X11.3037 Y5.7943
G01 X11.2583 Y5.8700
G01 X11.2057 Y5.9410
G01 X11.1481 Y6.0046
G01 X11.0790 Y6.0672
G01 X11.0100 Y6.1183
G01 X10.9343 Y6.1637
G01 X10.8544 Y6.2015
G01 X10.7713 Y6.2312
G01 X10.6856 Y6.2527
G01 X10.5982 Y6.2657
G01 X10.5100 Y6.2700
G01 X10.4218 Y6.2657
G01 X10.3344 Y6.2527
G01 X10.2499 Y6.2316
G01 X10.1656 Y6.2015
G01 X10.0857 Y6.1637
G01 X10.0100 Y6.1183
G01 X9.9400 Y6.0665
G01 X9.8736 Y6.0064
G01 X9.8151 Y5.9419
G01 X9.7617 Y5.8700
G01 X9.7318 Y5.8202
G01 X8.7482 Y5.8202
G01 X8.7183 Y5.8700
G01 X8.6665 Y5.9400
G01 X8.6064 Y6.0064
G01 X8.5400 Y6.0665
G01 X8.4700 Y6.1183
G01 X8.4202 Y6.1482
G01 X8.4202 Y7.8691
G01 X8.4792 Y7.9129
G01 X8.5393 Y7.9673
G01 X8.5971 Y8.0308
G01 X8.6467 Y8.0978
G01 X8.6884 Y8.1672
G01 X8.7258 Y8.2459
G01 X8.7534 Y8.3233
G01 X8.7731 Y8.4018
G01 X8.7860 Y8.4879
G01 X8.7900 Y8.5700
G01 X8.7860 Y8.6521
G01 X8.7739 Y8.7346
G01 X8.7675 Y8.7608
G01 X9.6433 Y9.6367
G01 X9.6714 Y9.6675
G01 X9.6993 Y9.7049
G01 X9.7231 Y9.7450
G01 X9.7409 Y9.7827
G01 X9.7550 Y9.8220
G01 X9.7670 Y9.8696
G01 X9.7730 Y9.9109
G01 X9.7752 Y9.9550
G01 X9.7752 Y12.2950
G01 X9.7982 Y12.3089
G01 X9.8633 Y12.3572
G01 X9.9269 Y12.4148
G01 X9.9821 Y12.4758
G01 X10.0303 Y12.5408
G01 X10.0752 Y12.6154
G01 X10.1103 Y12.6897
G01 X10.1376 Y12.7659
G01 X10.1587 Y12.8492
G01 X10.1711 Y12.9341
G01 X10.1750 Y13.0150
G01 X10.1711 Y13.0959
G01 X10.1581 Y13.1832
G01 X10.1384 Y13.2617
G01 X10.1103 Y13.3403
G01 X10.0734 Y13.4178
G01 X10.0317 Y13.4872
G01 X9.9821 Y13.5542
G01 X9.9260 Y13.6160
G01 X9.8661 Y13.6705
G01 X9.7972 Y13.7217
G01 X9.7257 Y13.7646
G01 X9.6525 Y13.7993
G01 X9.5694 Y13.8291
G01 X9.4908 Y13.8487
G01 X9.4083 Y13.8609
G01 X9.3250 Y13.8650
G01 X9.2417 Y13.8609
G01 X9.1592 Y13.8487
G01 X9.0783 Y13.8284
G01 X8.9997 Y13.8003
G01 X8.9243 Y13.7646
G01 X8.8528 Y13.7217
G01 X8.7858 Y13.6721
G01 X8.7240 Y13.6160
G01 X8.6679 Y13.5542
G01 X8.6183 Y13.4872
G01 X8.5754 Y13.4157
G01 X8.5397 Y13.3403
G01 X8.5120 Y13.2629
G01 X8.4913 Y13.1808
G01 X8.4794 Y13.1008
G01 X8.4751 Y13.0125
G01 X8.4791 Y12.9317
G01 X8.4913 Y12.8492
G01 X8.5116 Y12.7683
G01 X8.5392 Y12.6909
G01 X8.5766 Y12.6122
G01 X8.6183 Y12.5428
G01 X8.6687 Y12.4748
G01 X8.7240 Y12.4140
G01 X8.7848 Y12.3587
G01 X8.8518 Y12.3089
G01 X8.8748 Y12.2950
G01 X8.8748 Y10.1415
G01 X8.1308 Y9.3975
G01 X8.1046 Y9.4039
G01 X8.0221 Y9.4160
G01 X7.9400 Y9.4200
G01 X7.8579 Y9.4160
G01 X7.7742 Y9.4037
G01 X7.6956 Y9.3841
G01 X7.6136 Y9.3548
G01 X7.5393 Y9.3196
G01 X7.4698 Y9.2781
G01 X7.3989 Y9.2255
G01 X7.3390 Y9.1710
G01 X7.2829 Y9.1092
G01 X7.2333 Y9.0422
G01 X7.1916 Y8.9728
G01 X7.1547 Y8.8953
G01 X7.1266 Y8.8167
G01 X7.1063 Y8.7358
G01 X7.0941 Y8.6533
G01 X7.0900 Y8.5700
G01 X7.0941 Y8.4867
G01 X7.1063 Y8.4042
G01 X7.1263 Y8.3244
G01 X7.1547 Y8.2447
G01 X7.1904 Y8.1693
G01 X7.2333 Y8.0978
G01 X7.2822 Y8.0317
G01 X7.3390 Y7.9690
G01 X7.4008 Y7.9129
G01 X7.4678 Y7.8633
G01 X7.5198 Y7.8320
M5
G00 X7.4298 Y7.7810
M3
G01 X7.4298 Y6.1992
G01 X7.4229 Y6.1950
G01 X7.4144 Y6.1892
G01 X7.3420 Y6.1353
G01 X7.2749 Y6.0748
G01 X7.2652 Y6.0651
G01 X7.2047 Y5.9980
G01 X7.1508 Y5.9256
G01 X7.1432 Y5.9142
G01 X7.0969 Y5.8367
G01 X7.0554 Y5.7489
G01 X7.0248 Y5.6639
G01 X7.0208 Y5.6508
G01 X6.9990 Y5.5631
G01 X6.9856 Y5.4739
G01 X6.9843 Y5.4602
G01 X6.9800 Y5.3700
G01 X6.9843 Y5.2798
G01 X6.9856 Y5.2661
G01 X6.9990 Y5.1769
G01 X7.0208 Y5.0892
G01 X7.0248 Y5.0761
G01 X7.0554 Y4.9911
G01 X7.0969 Y4.9033
G01 X7.1432 Y4.8258
G01 X7.1508 Y4.8144
G01 X7.2047 Y4.7420
G01 X7.2652 Y4.6749
G01 X7.2749 Y4.6652
G01 X7.3420 Y4.6047
G01 X7.4144 Y4.5508
G01 X7.4229 Y4.5450
G01 X7.5033 Y4.4969
G01 X7.5911 Y4.4554
G01 X7.6826 Y4.4226
G01 X7.7702 Y4.4005
G01 X7.7836 Y4.3978
G01 X7.8661 Y4.3856
G01 X7.8798 Y4.3843
G01 X7.9700 Y4.3800
G01 X8.0602 Y4.3843
G01 X8.0705 Y4.3851
G01 X8.1631 Y4.3990
G01 X8.2508 Y4.4208
G01 X8.2639 Y4.4248
G01 X8.3489 Y4.4554
G01 X8.4305 Y4.4938
G01 X8.4427 Y4.5003
G01 X8.5142 Y4.5432
G01 X8.5256 Y4.5508
G01 X8.5980 Y4.6047
G01 X8.6700 Y4.6700
G01 X8.7353 Y4.7420
G01 X8.7892 Y4.8144
G01 X8.7990 Y4.8293
G01 X9.6808 Y4.8298
G01 X9.6850 Y4.8229
G01 X9.6908 Y4.8144
G01 X9.7405 Y4.7474
G01 X9.7492 Y4.7367
G01 X9.8100 Y4.6700
G01 X9.8820 Y4.6047
G01 X9.9544 Y4.5508
G01 X9.9658 Y4.5432
G01 X10.0433 Y4.4969
G01 X10.1311 Y4.4554
G01 X10.2161 Y4.4248
G01 X10.2292 Y4.4208
G01 X10.3169 Y4.3990
G01 X10.4130 Y4.3848
G01 X10.5100 Y4.3800
G01 X10.6002 Y4.3843
G01 X10.6139 Y4.3856
G01 X10.6964 Y4.3978
G01 X10.7138 Y4.4015
G01 X12.0105 Y3.1056
G01 X12.0473 Y3.0724
G01 X12.0843 Y3.0448
G01 X12.0957 Y3.0372
G01 X12.1323 Y3.0152
G01 X12.1415 Y3.0105
G01 X12.1833 Y2.9909
G01 X12.2267 Y2.9752
G01 X12.2398 Y2.9712
G01 X12.2813 Y2.9609
G01 X12.2914 Y2.9590
G01 X12.3371 Y2.9524
G01 X12.3900 Y2.9498
G01 X14.9450 Y2.9498
G01 X14.9911 Y2.9519
G01 X15.0014 Y2.9528
G01 X15.0470 Y2.9596
G01 X15.0702 Y2.9650
G01 X14.8655 Y2.7602
G01 X8.8038 Y2.7602
G01 X6.4200 Y5.1440
G01 X6.4200 Y6.2200
G01 X6.4193 Y6.2337
G01 X6.4179 Y6.2439
G01 X6.4158 Y6.2540
G01 X6.4118 Y6.2672
G01 X6.4080 Y6.2767
G01 X6.4051 Y6.2829
G01 X6.4001 Y6.2920
G01 X6.3945 Y6.3006
G01 X6.3882 Y6.3088
G01 X6.3837 Y6.3140
G01 X6.3790 Y6.3190
G01 X6.3714 Y6.3260
G01 X6.3661 Y6.3304
G01 X6.3578 Y6.3364
G01 X6.3520 Y6.3401
G01 X6.3429 Y6.3451
G01 X6.3367 Y6.3480
G01 X6.3272 Y6.3518
G01 X6.3206 Y6.3540
G01 X6.3107 Y6.3566
G01 X6.3005 Y6.3585
G01 X6.2937 Y6.3593
G01 X6.2800 Y6.3600
G01 X5.9802 Y6.3600
G01 X5.9802 Y7.8015
G01 X6.0363 Y7.8434
G01 X6.0997 Y7.9006
G01 X6.1094 Y7.9103
G01 X6.1666 Y7.9737
G01 X6.2216 Y8.0478
G01 X6.2656 Y8.1209
G01 X6.2721 Y8.1330
G01 X6.3084 Y8.2103
G01 X6.3374 Y8.2906
G01 X6.3414 Y8.3038
G01 X6.3619 Y8.3866
G01 X6.3755 Y8.4779
G01 X6.3798 Y8.5631
G01 X6.3798 Y8.5769
G01 X6.3755 Y8.6621
G01 X6.3654 Y8.7314
G01 X7.7094 Y10.0755
G01 X7.7426 Y10.1123
G01 X7.7742 Y10.1549
G01 X7.8014 Y10.2004
G01 X7.8213 Y10.2420
G01 X7.8254 Y10.2515
G01 X7.8419 Y10.2982
G01 X7.8548 Y10.3496
G01 X7.8626 Y10.4021
G01 X7.8652 Y10.4516
G01 X7.8652 Y12.0750
G01 X8.1284 Y12.0750
G01 X8.1387 Y12.0757
G01 X8.1489 Y12.0771
G01 X8.1590 Y12.0792
G01 X8.1656 Y12.0810
G01 X8.1754 Y12.0844
G01 X8.1849 Y12.0884
G01 X8.1940 Y12.0932
G01 X8.2028 Y12.0986
G01 X8.2111 Y12.1046
G01 X8.2190 Y12.1113
G01 X8.2264 Y12.1185
G01 X8.2332 Y12.1262
G01 X8.2395 Y12.1344
G01 X8.2433 Y12.1401
G01 X8.2485 Y12.1490
G01 X8.2530 Y12.1583
G01 X8.2568 Y12.1678
G01 X8.2599 Y12.1777
G01 X8.2623 Y12.1877
G01 X8.2639 Y12.1979
G01 X8.2648 Y12.2081
G01 X8.2650 Y12.2150
G01 X8.2650 Y13.8150
G01 X8.2646 Y13.8253
G01 X8.2635 Y13.8355
G01 X8.2616 Y13.8457
G01 X8.2590 Y13.8556
G01 X8.2568 Y13.8622
G01 X8.2530 Y13.8717
G01 X8.2485 Y13.8810
G01 X8.2433 Y13.8899
G01 X8.2374 Y13.8984
G01 X8.2310 Y13.9064
G01 X8.2240 Y13.9140
G01 X8.2164 Y13.9210
G01 X8.2084 Y13.9274
G01 X8.1999 Y13.9333
G01 X8.1940 Y13.9368
G01 X8.1849 Y13.9416
G01 X8.1754 Y13.9456
G01 X8.1656 Y13.9490
G01 X8.1557 Y13.9516
G01 X8.1455 Y13.9535
G01 X8.1387 Y13.9543
G01 X8.1284 Y13.9550
G01 X7.8652 Y13.9550
G01 X7.8652 Y14.9150
G01 X7.8629 Y14.9645
G01 X7.8618 Y14.9748
G01 X7.8548 Y15.0204
G01 X7.8438 Y15.0652
G01 X7.8398 Y15.0783
G01 X7.8241 Y15.1217
G01 X7.8045 Y15.1635
G01 X7.7980 Y15.1756
G01 X7.7742 Y15.2151
G01 X7.7426 Y15.2577
G01 X7.7070 Y15.2970
G01 X6.3100 Y16.6940
G01 X6.3098 Y17.5769
G01 X6.3089 Y17.5871
G01 X6.3066 Y17.6007
G01 X6.3040 Y17.6106
G01 X6.2993 Y17.6236
G01 X6.2935 Y17.6360
G01 X6.2864 Y17.6478
G01 X6.2804 Y17.6561
G01 X6.2714 Y17.6665
G01 X6.2614 Y17.6760
G01 X6.2506 Y17.6845
G01 X6.2390 Y17.6918
G01 X6.2267 Y17.6980
G01 X6.2139 Y17.7029
G01 X6.2007 Y17.7066
G01 X6.1871 Y17.7089
G01 X6.1734 Y17.7100
G01 X4.6700 Y17.7100
G01 X4.6597 Y17.7096
G01 X4.6495 Y17.7085
G01 X4.6393 Y17.7066
G01 X4.6327 Y17.7049
G01 X4.6228 Y17.7018
G01 X4.6133 Y17.6980
G01 X4.6040 Y17.6935
G01 X4.5951 Y17.6883
G01 X4.5866 Y17.6824
G01 X4.5786 Y17.6760
G01 X4.5686 Y17.6665
G01 X4.5618 Y17.6588
G01 X4.5555 Y17.6506
G01 X4.5482 Y17.6390
G01 X4.5434 Y17.6299
G01 X4.5394 Y17.6204
G01 X4.5360 Y17.6106
G01 X4.5334 Y17.6007
G01 X4.5315 Y17.5905
G01 X4.5302 Y17.5769
G01 X4.5300 Y16.0666
G01 X4.5307 Y16.0563
G01 X4.5321 Y16.0461
G01 X4.5342 Y16.0360
G01 X4.5371 Y16.0261
G01 X4.5407 Y16.0164
G01 X4.5449 Y16.0071
G01 X4.5499 Y15.9980
G01 X4.5555 Y15.9894
G01 X4.5596 Y15.9839
G01 X4.5663 Y15.9760
G01 X4.5760 Y15.9663
G01 X4.5812 Y15.9618
G01 X4.5894 Y15.9555
G01 X4.6010 Y15.9482
G01 X4.6101 Y15.9434
G01 X4.6164 Y15.9407
G01 X4.6294 Y15.9360
G01 X4.6360 Y15.9342
G01 X4.6461 Y15.9321
G01 X4.6563 Y15.9307
G01 X4.6631 Y15.9302
G01 X5.5460 Y15.9300
G01 X6.7848 Y14.6912
G01 X6.7848 Y13.9550
G01 X6.5216 Y13.9550
G01 X6.5113 Y13.9543
G01 X6.5011 Y13.9529
G01 X6.4910 Y13.9508
G01 X6.4844 Y13.9490
G01 X6.4746 Y13.9456
G01 X6.4651 Y13.9416
G01 X6.4560 Y13.9368
G01 X6.4472 Y13.9314
G01 X6.4389 Y13.9254
G01 X6.4336 Y13.9210
G01 X6.4260 Y13.9140
G01 X6.4190 Y13.9064
G01 X6.4126 Y13.8984
G01 X6.4067 Y13.8899
G01 X6.4015 Y13.8810
G01 X6.3984 Y13.8749
G01 X6.3944 Y13.8654
G01 X6.3910 Y13.8556
G01 X6.3884 Y13.8457
G01 X6.3871 Y13.8389
G01 X6.3857 Y13.8287
G01 X6.3850 Y13.8150
G01 X6.3850 Y12.2150
G01 X6.3854 Y12.2047
G01 X6.3865 Y12.1945
G01 X6.3884 Y12.1843
G01 X6.3910 Y12.1744
G01 X6.3944 Y12.1646
G01 X6.3999 Y12.1521
G01 X6.4049 Y12.1430
G01 X6.4105 Y12.1344
G01 X6.4168 Y12.1262
G01 X6.4260 Y12.1160
G01 X6.4336 Y12.1090
G01 X6.4416 Y12.1026
G01 X6.4501 Y12.0967
G01 X6.4590 Y12.0915
G01 X6.4683 Y12.0870
G01 X6.4778 Y12.0832
G01 X6.4877 Y12.0801
G01 X6.4977 Y12.0777
G01 X6.5113 Y12.0757
G01 X6.5216 Y12.0750
G01 X6.7848 Y12.0750
G01 X6.7848 Y10.6788
G01 X5.6014 Y9.4954
G01 X5.5321 Y9.5055
G01 X5.4400 Y9.5100
G01 X5.3479 Y9.5055
G01 X5.2786 Y9.4954
G01 X3.9851 Y10.7888
G01 X4.0001 Y10.8306
G01 X4.0032 Y10.8404
G01 X4.0255 Y10.9294
G01 X4.0276 Y10.9395
G01 X4.0420 Y11.0371
G01 X4.0468 Y11.1321
G01 X4.0470 Y11.1424
G01 X4.0420 Y11.2409
G01 X4.0270 Y11.3419
G01 X4.0022 Y11.4409
G01 X3.9691 Y11.5338
G01 X3.9650 Y11.5433
G01 X3.9242 Y11.6293
G01 X3.8717 Y11.7168
G01 X3.8109 Y11.7988
G01 X3.7471 Y11.8694
G01 X3.7374 Y11.8791
G01 X3.6720 Y11.9384
G01 X3.6614 Y11.9472
G01 X3.5848 Y12.0037
G01 X3.5032 Y12.0528
G01 X3.4942 Y12.0578
G01 X3.4113 Y12.0970
G01 X3.3986 Y12.1023
G01 X3.3089 Y12.1342
G01 X3.2166 Y12.1575
G01 X3.2031 Y12.1602
G01 X3.1089 Y12.1740
G01 X3.0139 Y12.1788
G01 X3.0001 Y12.1788
G01 X2.9051 Y12.1740
G01 X2.8109 Y12.1602
G01 X2.7974 Y12.1575
G01 X2.7051 Y12.1342
G01 X2.6154 Y12.1023
G01 X2.6027 Y12.0970
G01 X2.5167 Y12.0562
G01 X2.4350 Y12.0074
G01 X2.4236 Y11.9998
G01 X2.3472 Y11.9429
G01 X2.2766 Y11.8791
G01 X2.2669 Y11.8694
G01 X2.2031 Y11.7988
G01 X2.1462 Y11.7224
G01 X2.1386 Y11.7110
G01 X2.0898 Y11.6293
G01 X2.0462 Y11.5370
G01 X2.0139 Y11.4474
G01 X2.0099 Y11.4343
G01 X1.9870 Y11.3419
G01 X1.9728 Y11.2478
G01 X1.9715 Y11.2341
G01 X1.9670 Y11.1390
G01 X1.9720 Y11.0371
G01 X1.9870 Y10.9361
G01 X2.0118 Y10.8371
G01 X2.0462 Y10.7410
G01 X2.0898 Y10.6487
G01 X2.1423 Y10.5612
G01 X2.2031 Y10.4792
G01 X2.2669 Y10.4086
G01 X2.2741 Y10.4012
G01 X2.3472 Y10.3351
G01 X2.4236 Y10.2782
G01 X2.4350 Y10.2706
G01 X2.5167 Y10.2218
G01 X2.6027 Y10.1810
G01 X2.6154 Y10.1757
G01 X2.7018 Y10.1448
G01 X2.7117 Y10.1419
G01 X2.8041 Y10.1190
G01 X2.8982 Y10.1048
G01 X2.9085 Y10.1037
G01 X3.0001 Y10.0992
G01 X3.0104 Y10.0990
G01 X3.1055 Y10.1037
G01 X3.1158 Y10.1048
G01 X3.1379 Y10.1081
G01 X4.5146 Y8.7314
G01 X4.5045 Y8.6621
G01 X4.5002 Y8.5769
G01 X4.5002 Y8.5631
G01 X4.5045 Y8.4779
G01 X4.5181 Y8.3866
G01 X4.5386 Y8.3038
G01 X4.5426 Y8.2906
G01 X4.5716 Y8.2103
G01 X4.6079 Y8.1330
G01 X4.6144 Y8.1209
G01 X4.6584 Y8.0478
G01 X4.7134 Y7.9737
G01 X4.7706 Y7.9103
G01 X4.7803 Y7.9006
G01 X4.8437 Y7.8434
G01 X4.8998 Y7.8015
G01 X4.8998 Y6.3600
G01 X4.5766 Y6.3600
G01 X4.5697 Y6.3596
G01 X4.5595 Y6.3585
G01 X4.5527 Y6.3573
G01 X4.5427 Y6.3549
G01 X4.5328 Y6.3518
G01 X4.5233 Y6.3480
G01 X4.5140 Y6.3435
G01 X4.5051 Y6.3383
G01 X4.4966 Y6.3324
G01 X4.4886 Y6.3260
G01 X4.4810 Y6.3190
G01 X4.4740 Y6.3114
G01 X4.4676 Y6.3034
G01 X4.4617 Y6.2949
G01 X4.4565 Y6.2860
G01 X4.4520 Y6.2767
G01 X4.4482 Y6.2672
G01 X4.4451 Y6.2573
G01 X4.4427 Y6.2473
G01 X4.4411 Y6.2371
G01 X4.4404 Y6.2303
G01 X4.4400 Y6.2200
G01 X4.4400 Y4.5166
G01 X4.4411 Y4.5029
G01 X4.4434 Y4.4893
G01 X4.4471 Y4.4761
G01 X4.4520 Y4.4633
G01 X4.4582 Y4.4510
G01 X4.4655 Y4.4394
G01 X4.4740 Y4.4286
G01 X4.4835 Y4.4186
G01 X4.4912 Y4.4118
G01 X4.5022 Y4.4036
G01 X4.5140 Y4.3965
G01 X4.5264 Y4.3907
G01 X4.5394 Y4.3860
G01 X4.5527 Y4.3827
G01 X4.5663 Y4.3807
G01 X4.5766 Y4.3800
G01 X5.6560 Y4.3800
G01 X8.2005 Y1.8356
G01 X8.2321 Y1.8069
G01 X8.2427 Y1.7982
G01 X8.2799 Y1.7708
G01 X8.3194 Y1.7470
G01 X8.3315 Y1.7405
G01 X8.3733 Y1.7209
G01 X8.4167 Y1.7052
G01 X8.4298 Y1.7012
G01 X8.4746 Y1.6902
G01 X8.5202 Y1.6832
G01 X8.5339 Y1.6819
G01 X8.5800 Y1.6798
G01 X15.0926 Y1.6798
G01 X15.1422 Y1.6824
G01 X15.1946 Y1.6902
G01 X15.2460 Y1.7031
G01 X15.2959 Y1.7209
G01 X15.3439 Y1.7436
G01 X15.3893 Y1.7708
G01 X15.4319 Y1.8024
G01 X15.4687 Y1.8356
G01 X18.2320 Y4.5988
G01 X18.2676 Y4.6381
G01 X18.2952 Y4.6750
G01 X18.3028 Y4.6865
G01 X18.3230 Y4.7202
G01 X18.3280 Y4.7292
G01 X18.3463 Y4.7678
G01 X18.3516 Y4.7805
G01 X18.3669 Y4.8240
G01 X18.3783 Y4.8687
G01 X18.3810 Y4.8822
G01 X18.3876 Y4.9278
G01 X18.3902 Y4.9808
G01 X18.3902 Y22.7750
G01 X18.3881 Y22.8211
G01 X18.3872 Y22.8314
G01 X18.3798 Y22.8804
G01 X18.3669 Y22.9318
G01 X18.3491 Y22.9817
G01 X18.3295 Y23.0235
G01 X18.3230 Y23.0356
G01 X18.3010 Y23.0722
G01 X18.2952 Y23.0807
G01 X18.2676 Y23.1177
G01 X18.2344 Y23.1545
G01 X15.3624 Y26.0266
G01 X15.4051 Y26.1465
G01 X15.4383 Y26.2788
G01 X15.4583 Y26.4138
G01 X15.4650 Y26.5500
G01 X15.4583 Y26.6862
G01 X15.4383 Y26.8212
G01 X15.4051 Y26.9535
G01 X15.3624 Y27.0734
G01 X18.3488 Y30.0598
G01 X19.5217 Y30.0598
G01 X19.3974 Y30.0152
G01 X19.2519 Y29.9464
G01 X19.1139 Y29.8636
G01 X18.9900 Y29.7720
G01 X18.9794 Y29.7632
G01 X18.8703 Y29.6644
G01 X18.8606 Y29.6547
G01 X18.7573 Y29.5404
G01 X18.6653 Y29.4168
G01 X18.6577 Y29.4053
G01 X18.5820 Y29.2791
G01 X18.5756 Y29.2670
G01 X18.5098 Y29.1276
G01 X18.4556 Y28.9761
G01 X18.4180 Y28.8267
G01 X18.4153 Y28.8132
G01 X18.3929 Y28.6607
G01 X18.3850 Y28.5034
G01 X18.3852 Y28.4931
G01 X18.3929 Y28.3393
G01 X18.4153 Y28.1868
G01 X18.4180 Y28.1733
G01 X18.4556 Y28.0239
G01 X18.5074 Y27.8788
G01 X18.5126 Y27.8661
G01 X18.5786 Y27.7269
G01 X18.6577 Y27.5947
G01 X18.6653 Y27.5832
G01 X18.7573 Y27.4596
G01 X18.8606 Y27.3453
G01 X18.8703 Y27.3356
G01 X18.9846 Y27.2323
G01 X19.1082 Y27.1403
G01 X19.1167 Y27.1345
G01 X19.1346 Y27.1238
G01 X19.1346 Y11.7450
G01 X19.1384 Y11.6646
G01 X19.1398 Y11.6509
G01 X19.1517 Y11.5713
G01 X19.1720 Y11.4898
G01 X19.1751 Y11.4800
G01 X19.2024 Y11.4043
G01 X19.2367 Y11.3314
G01 X19.2431 Y11.3193
G01 X19.2847 Y11.2503
G01 X19.3325 Y11.1856
G01 X19.3412 Y11.1749
G01 X19.3954 Y11.1154
G01 X25.3700 Y5.1408
G01 X25.3700 Y3.2600
G01 X25.3704 Y3.2497
G01 X25.3721 Y3.2361
G01 X25.3742 Y3.2260
G01 X25.3782 Y3.2128
G01 X25.3820 Y3.2033
G01 X25.3882 Y3.1910
G01 X25.3936 Y3.1822
G01 X25.4018 Y3.1712
G01 X25.4086 Y3.1635
G01 X25.4160 Y3.1563
G01 X25.4266 Y3.1476
G01 X25.4351 Y3.1417
G01 X25.4471 Y3.1349
G01 X25.4564 Y3.1307
G01 X25.4694 Y3.1260
G01 X25.4827 Y3.1227
G01 X25.4963 Y3.1207
G01 X25.5100 Y3.1200
G01 X28.5134 Y3.1200
G01 X28.5271 Y3.1211
G01 X28.5407 Y3.1234
G01 X28.5539 Y3.1271
G01 X28.5667 Y3.1320
G01 X28.5790 Y3.1382
G01 X28.5878 Y3.1436
G01 X28.5988 Y3.1518
G01 X28.6090 Y3.1610
G01 X28.6160 Y3.1686
G01 X28.6245 Y3.1794
G01 X28.6318 Y3.1910
G01 X28.6380 Y3.2033
G01 X28.6429 Y3.2161
G01 X28.6466 Y3.2293
G01 X28.6489 Y3.2429
G01 X28.6500 Y3.2566
G01 X28.6500 Y6.2600
G01 X28.6493 Y6.2737
G01 X28.6479 Y6.2839
G01 X28.6449 Y6.2973
G01 X28.6418 Y6.3072
G01 X28.6366 Y6.3199
G01 X28.6318 Y6.3290
G01 X28.6264 Y6.3378
G01 X28.6204 Y6.3461
G01 X28.6114 Y6.3565
G01 X28.6040 Y6.3637
G01 X28.5961 Y6.3704
G01 X28.5849 Y6.3783
G01 X28.5760 Y6.3835
G01 X28.5636 Y6.3893
G01 X28.5506 Y6.3940
G01 X28.5407 Y6.3966
G01 X28.5305 Y6.3985
G01 X28.5169 Y6.3998
G01 X26.6292 Y6.4000
G01 X20.9154 Y12.1138
G01 X20.9154 Y27.1238
G01 X20.9333 Y27.1345
G01 X20.9418 Y27.1403
G01 X21.0654 Y27.2323
G01 X21.1797 Y27.3356
G01 X21.1894 Y27.3453
G01 X21.2927 Y27.4596
G01 X21.3847 Y27.5832
G01 X21.3923 Y27.5947
G01 X21.4714 Y27.7269
G01 X21.5374 Y27.8661
G01 X21.5426 Y27.8788
G01 X21.5944 Y28.0239
G01 X21.6320 Y28.1733
G01 X21.6347 Y28.1868
G01 X21.6571 Y28.3393
G01 X21.6648 Y28.4931
G01 X21.6650 Y28.5034
G01 X21.6571 Y28.6607
G01 X21.6347 Y28.8132
G01 X21.6320 Y28.8267
G01 X21.5944 Y28.9761
G01 X21.5402 Y29.1276
G01 X21.4744 Y29.2670
G01 X21.4680 Y29.2791
G01 X21.3923 Y29.4053
G01 X21.3847 Y29.4168
G01 X21.2927 Y29.5404
G01 X21.1894 Y29.6547
G01 X21.1797 Y29.6644
G01 X21.0706 Y29.7632
G01 X21.0600 Y29.7720
G01 X20.9361 Y29.8636
G01 X20.7981 Y29.9464
G01 X20.6526 Y30.0152
G01 X20.5283 Y30.0598
G01 X27.5812 Y30.0598
G01 X30.5676 Y27.0734
G01 X30.5249 Y26.9535
G01 X30.4932 Y26.8279
G01 X30.4905 Y26.8144
G01 X30.4717 Y26.6862
G01 X30.4652 Y26.5569
G01 X30.4652 Y26.5431
G01 X30.4717 Y26.4138
G01 X30.4917 Y26.2788
G01 X30.5230 Y26.1531
G01 X30.5270 Y26.1400
G01 X30.5708 Y26.0181
G01 X30.6291 Y25.8948
G01 X30.6956 Y25.7836
G01 X30.7032 Y25.7721
G01 X30.7805 Y25.6682
G01 X30.8721 Y25.5671
G01 X30.9732 Y25.4755
G01 X31.0771 Y25.3982
G01 X31.0886 Y25.3906
G01 X31.1998 Y25.3241
G01 X31.3231 Y25.2658
G01 X31.4450 Y25.2220
G01 X31.4581 Y25.2180
G01 X31.5771 Y25.1882
G01 X31.5872 Y25.1861
G01 X31.7188 Y25.1667
G01 X31.8481 Y25.1602
G01 X31.8619 Y25.1602
G01 X31.9844 Y25.1662
G01 X31.9947 Y25.1671
G01 X32.1262 Y25.1867
G01 X32.2552 Y25.2189
G01 X32.2650 Y25.2220
G01 X32.3837 Y25.2645
G01 X32.3932 Y25.2686
G01 X32.4553 Y25.2980
G01 X32.1425 Y24.9852
G01 X28.4038 Y24.9852
G01 X27.3624 Y26.0266
G01 X27.4051 Y26.1465
G01 X27.4383 Y26.2788
G01 X27.4583 Y26.4138
G01 X27.4648 Y26.5431
G01 X27.4648 Y26.5569
G01 X27.4588 Y26.6794
G01 X27.4575 Y26.6931
G01 X27.4383 Y26.8212
G01 X27.4070 Y26.9469
G01 X27.4030 Y26.9600
G01 X27.3617 Y27.0755
G01 X27.3564 Y27.0882
G01 X27.3009 Y27.2052
G01 X27.2307 Y27.3222
G01 X27.1495 Y27.4318
G01 X27.0626 Y27.5279
G01 X27.0529 Y27.5376
G01 X26.9568 Y27.6245
G01 X26.8472 Y27.7057
G01 X26.7302 Y27.7759
G01 X26.6069 Y27.8342
G01 X26.4850 Y27.8780
G01 X26.4719 Y27.8820
G01 X26.3529 Y27.9118
G01 X26.3394 Y27.9145
G01 X26.2112 Y27.9333
G01 X26.0750 Y27.9400
G01 X25.9388 Y27.9333
G01 X25.8106 Y27.9145
G01 X25.7971 Y27.9118
G01 X25.6781 Y27.8820
G01 X25.6650 Y27.8780
G01 X25.5431 Y27.8342
G01 X25.4198 Y27.7759
G01 X25.3028 Y27.7057
G01 X25.1959 Y27.6266
G01 X25.1880 Y27.6200
G01 X25.0921 Y27.5329
G01 X25.0005 Y27.4318
G01 X24.9193 Y27.3222
G01 X24.8491 Y27.2052
G01 X24.7908 Y27.0819
G01 X24.7449 Y26.9535
G01 X24.7117 Y26.8212
G01 X24.6917 Y26.6862
G01 X24.6850 Y26.5500
G01 X24.6917 Y26.4138
G01 X24.7117 Y26.2788
G01 X24.7449 Y26.1465
G01 X24.7908 Y26.0181
G01 X24.8491 Y25.8948
G01 X24.9193 Y25.7778
G01 X24.9984 Y25.6709
G01 X25.0050 Y25.6630
G01 X25.0874 Y25.5721
G01 X25.0971 Y25.5624
G01 X25.1932 Y25.4755
G01 X25.3028 Y25.3943
G01 X25.4198 Y25.3241
G01 X25.5368 Y25.2686
G01 X25.5495 Y25.2633
G01 X25.6650 Y25.2220
G01 X25.6781 Y25.2180
G01 X25.8038 Y25.1867
G01 X25.9319 Y25.1675
G01 X25.9456 Y25.1662
G01 X26.0681 Y25.1602
G01 X26.0819 Y25.1602
G01 X26.2112 Y25.1667
G01 X26.3462 Y25.1867
G01 X26.4785 Y25.2199
G01 X26.5984 Y25.2626
G01 X27.7980 Y24.0630
G01 X27.8321 Y24.0319
G01 X27.8427 Y24.0232
G01 X27.8770 Y23.9978
G01 X27.8857 Y23.9922
G01 X27.9254 Y23.9686
G01 X27.9733 Y23.9459
G01 X28.0167 Y23.9302
G01 X28.0298 Y23.9262
G01 X28.0746 Y23.9152
G01 X28.1236 Y23.9078
G01 X28.1339 Y23.9069
G01 X28.1800 Y23.9048
G01 X32.3663 Y23.9048
G01 X32.4124 Y23.9069
G01 X32.4261 Y23.9082
G01 X32.4717 Y23.9152
G01 X32.5165 Y23.9262
G01 X32.5296 Y23.9302
G01 X32.5730 Y23.9459
G01 X32.6148 Y23.9655
G01 X32.6269 Y23.9720
G01 X32.6664 Y23.9958
G01 X32.7036 Y24.0232
G01 X32.7142 Y24.0319
G01 X32.7458 Y24.0606
G01 X34.0870 Y25.4017
G01 X34.1226 Y25.4410
G01 X34.1522 Y25.4808
G01 X34.1578 Y25.4894
G01 X34.1780 Y25.5231
G01 X34.1845 Y25.5352
G01 X34.2041 Y25.5770
G01 X34.2219 Y25.6269
G01 X34.2333 Y25.6716
G01 X34.2360 Y25.6851
G01 X34.2426 Y25.7308
G01 X34.2452 Y25.7803
G01 X34.2452 Y29.8150
G01 X34.2426 Y29.8679
G01 X34.2354 Y29.9170
G01 X34.2333 Y29.9271
G01 X34.2238 Y29.9652
G01 X34.2198 Y29.9783
G01 X34.2041 Y30.0217
G01 X34.1845 Y30.0635
G01 X34.1780 Y30.0756
G01 X34.1542 Y30.1151
G01 X34.1268 Y30.1523
G01 X34.1181 Y30.1629
G01 X34.0870 Y30.1970
G01 X33.2242 Y31.0598
G01 X38.5812 Y31.0598
G01 X42.5676 Y27.0734
G01 X42.5249 Y26.9535
G01 X42.4932 Y26.8279
G01 X42.4905 Y26.8144
G01 X42.4725 Y26.6931
G01 X42.4712 Y26.6794
G01 X42.4650 Y26.5500
G01 X42.4712 Y26.4206
G01 X42.4725 Y26.4069
G01 X42.4917 Y26.2788
G01 X42.5249 Y26.1465
G01 X42.5708 Y26.0181
G01 X42.6260 Y25.9009
G01 X42.6325 Y25.8888
G01 X42.6993 Y25.7778
G01 X42.7805 Y25.6682
G01 X42.8721 Y25.5671
G01 X42.9732 Y25.4755
G01 X43.0828 Y25.3943
G01 X43.1998 Y25.3241
G01 X43.3231 Y25.2658
G01 X43.4482 Y25.2209
G01 X43.4581 Y25.2180
G01 X43.5771 Y25.1882
G01 X43.5906 Y25.1855
G01 X43.7188 Y25.1667
G01 X43.8550 Y25.1600
G01 X43.9912 Y25.1667
G01 X44.1194 Y25.1855
G01 X44.1329 Y25.1882
G01 X44.2585 Y25.2199
G01 X44.3805 Y25.2633
G01 X44.3932 Y25.2686
G01 X44.5102 Y25.3241
G01 X44.6272 Y25.3943
G01 X44.7368 Y25.4755
G01 X44.8329 Y25.5624
G01 X44.8426 Y25.5721
G01 X44.9295 Y25.6682
G01 X45.0068 Y25.7721
G01 X45.0144 Y25.7836
G01 X45.0809 Y25.8948
G01 X45.1392 Y26.0181
G01 X45.1830 Y26.1400
G01 X45.1870 Y26.1531
G01 X45.2183 Y26.2788
G01 X45.2383 Y26.4138
G01 X45.2448 Y26.5431
G01 X45.2448 Y26.5569
G01 X45.2383 Y26.6862
G01 X45.2183 Y26.8212
G01 X45.1870 Y26.9469
G01 X45.1830 Y26.9600
G01 X45.1392 Y27.0819
G01 X45.0825 Y27.2022
G01 X45.0775 Y27.2112
G01 X45.0107 Y27.3222
G01 X44.9295 Y27.4318
G01 X44.8379 Y27.5329
G01 X44.7420 Y27.6200
G01 X44.7314 Y27.6287
G01 X44.6329 Y27.7018
G01 X44.6214 Y27.7094
G01 X44.5102 Y27.7759
G01 X44.3932 Y27.8314
G01 X44.3805 Y27.8367
G01 X44.2585 Y27.8801
G01 X44.1262 Y27.9133
G01 X43.9912 Y27.9333
G01 X43.8550 Y27.9400
G01 X43.7188 Y27.9333
G01 X43.5838 Y27.9133
G01 X43.4515 Y27.8801
G01 X43.3316 Y27.8374
G01 X39.1845 Y31.9844
G01 X39.1477 Y32.0176
G01 X39.1107 Y32.0452
G01 X39.1022 Y32.0510
G01 X39.0656 Y32.0730
G01 X39.0535 Y32.0795
G01 X39.0117 Y32.0991
G01 X38.9618 Y32.1169
G01 X38.9104 Y32.1298
G01 X38.8614 Y32.1372
G01 X38.8511 Y32.1381
G01 X38.8050 Y32.1402
G01 X9.2296 Y32.1402
G01 X9.1766 Y32.1376
G01 X9.1310 Y32.1310
G01 X9.1175 Y32.1283
G01 X9.0728 Y32.1169
G01 X9.0293 Y32.1016
G01 X9.0166 Y32.0963
G01 X8.9780 Y32.0780
G01 X8.9689 Y32.0730
G01 X8.9353 Y32.0528
G01 X8.9238 Y32.0452
G01 X8.8869 Y32.0176
G01 X8.8476 Y31.9820
G01 X6.4176 Y29.5520
G01 X6.3820 Y29.5127
G01 X6.3504 Y29.4701
G01 X6.3232 Y29.4246
G01 X6.3019 Y29.3799
G01 X6.2980 Y29.3703
G01 X6.2826 Y29.3268
G01 X6.2698 Y29.2754
G01 X6.2620 Y29.2229
G01 X6.2595 Y29.1769
G01 X6.2594 Y28.2319
G01 X6.2448 Y28.2116
G01 X6.2165 Y28.1645
G01 X6.2115 Y28.1554
G01 X6.1852 Y28.0995
G01 X6.1642 Y28.0413
G01 X6.1614 Y28.0314
G01 X6.1489 Y27.9814
G01 X6.1462 Y27.9680
G01 X6.1378 Y27.9102
G01 X6.1346 Y27.8484
G01 X6.1346 Y27.3916
G01 X6.1378 Y27.3298
G01 X6.1462 Y27.2720
G01 X6.1489 Y27.2586
G01 X6.1632 Y27.2020
G01 X6.1827 Y27.1469
G01 X6.1865 Y27.1374
G01 X6.2100 Y27.0877
G01 X6.2148 Y27.0785
G01 X6.2448 Y27.0284
G01 X6.2594 Y27.0081
G01 X6.2594 Y26.0433
G01 X5.5374 Y25.3214
G01 X5.5141 Y25.3249
G01 X5.5038 Y25.3260
G01 X5.4234 Y25.3300
G01 X5.4131 Y25.3298
G01 X5.3396 Y25.3262
G01 X5.3293 Y25.3253
G01 X5.2464 Y25.3129
G01 X5.1683 Y25.2935
G01 X5.1551 Y25.2895
G01 X5.0794 Y25.2623
G01 X5.0066 Y25.2280
G01 X4.9945 Y25.2215
G01 X4.9255 Y25.1800
G01 X4.8581 Y25.1301
G01 X4.8502 Y25.1235
G01 X4.7957 Y25.0741
G01 X4.7883 Y25.0669
G01 X4.7342 Y25.0072
G01 X4.7278 Y24.9992
G01 X4.7137 Y24.9802
G01 X3.6522 Y24.9802
G01 X3.6066 Y25.0413
G01 X3.5447 Y25.1097
G01 X3.4763 Y25.1716
G01 X3.4079 Y25.2226
G01 X3.3964 Y25.2303
G01 X3.3291 Y25.2706
G01 X3.3170 Y25.2771
G01 X3.2397 Y25.3134
G01 X3.1529 Y25.3445
G01 X3.0634 Y25.3669
G01 X2.9721 Y25.3805
G01 X2.8800 Y25.3850
G01 X2.7947 Y25.3810
G01 X2.7810 Y25.3796
G01 X2.7034 Y25.3681
G01 X2.6899 Y25.3654
G01 X2.6071 Y25.3445
G01 X2.5267 Y25.3159
G01 X2.5171 Y25.3121
G01 X2.4369 Y25.2740
G01 X2.3578 Y25.2266
G01 X2.2837 Y25.1716
G01 X2.2203 Y25.1144
G01 X2.2106 Y25.1047
G01 X2.1579 Y25.0465
G01 X2.1491 Y25.0359
G01 X2.0984 Y24.9672
G01 X2.0544 Y24.8941
G01 X2.0479 Y24.8820
G01 X2.0116 Y24.8047
G01 X1.9805 Y24.7179
G01 X1.9581 Y24.6284
G01 X1.9445 Y24.5371
G01 X1.9400 Y24.4450
G01 X1.9445 Y24.3529
G01 X1.9581 Y24.2616
G01 X1.9795 Y24.1754
G01 X1.9826 Y24.1656
G01 X2.0091 Y24.0917
G01 X2.0143 Y24.0790
G01 X2.0510 Y24.0019
G01 X2.0984 Y23.9228
G01 X2.1491 Y23.8541
G01 X2.1579 Y23.8435
G01 X2.2153 Y23.7803
G01 X2.2837 Y23.7184
G01 X2.3578 Y23.6634
G01 X2.4309 Y23.6194
G01 X2.4430 Y23.6129
G01 X2.5203 Y23.5766
G01 X2.6006 Y23.5476
G01 X2.6138 Y23.5436
G01 X2.6966 Y23.5231
G01 X2.7844 Y23.5099
G01 X2.7947 Y23.5090
G01 X2.8800 Y23.5050
G01 X2.9653 Y23.5090
G01 X2.9790 Y23.5104
G01 X3.0634 Y23.5231
G01 X3.1462 Y23.5436
G01 X3.1594 Y23.5476
G01 X3.2333 Y23.5741
G01 X3.2429 Y23.5779
G01 X3.3231 Y23.6160
G01 X3.3964 Y23.6597
G01 X3.4079 Y23.6674
G01 X3.4763 Y23.7184
G01 X3.5397 Y23.7756
G01 X3.5494 Y23.7853
G01 X3.6066 Y23.8487
G01 X3.6448 Y23.8998
G01 X4.7137 Y23.8998
G01 X4.7278 Y23.8808
G01 X4.7342 Y23.8728
G01 X4.7883 Y23.8131
G01 X4.7957 Y23.8059
G01 X4.8528 Y23.7542
G01 X4.8608 Y23.7478
G01 X4.9255 Y23.7000
G01 X4.9974 Y23.6567
G01 X5.0066 Y23.6520
G01 X5.0794 Y23.6177
G01 X5.1616 Y23.5883
G01 X5.2464 Y23.5671
G01 X5.3293 Y23.5547
G01 X5.3396 Y23.5538
G01 X5.4131 Y23.5502
G01 X5.4269 Y23.5502
G01 X5.5072 Y23.5543
G01 X5.5936 Y23.5671
G01 X5.6784 Y23.5883
G01 X5.7542 Y23.6153
G01 X5.7669 Y23.6205
G01 X5.8395 Y23.6551
G01 X5.9087 Y23.6963
G01 X5.9201 Y23.7039
G01 X5.9846 Y23.7520
G01 X6.0493 Y23.8107
G01 X6.1080 Y23.8754
G01 X6.1561 Y23.9399
G01 X6.1637 Y23.9513
G01 X6.2015 Y24.0145
G01 X6.2065 Y24.0235
G01 X6.2423 Y24.0994
G01 X6.2695 Y24.1751
G01 X6.2735 Y24.1883
G01 X6.2914 Y24.2597
G01 X6.2935 Y24.2697
G01 X6.3057 Y24.3528
G01 X6.3100 Y24.4366
G01 X6.3098 Y24.4469
G01 X6.3060 Y24.5238
G01 X6.3049 Y24.5341
G01 X6.3014 Y24.5574
G01 X7.1840 Y25.4401
G01 X7.2172 Y25.4769
G01 X7.2487 Y25.5195
G01 X7.2760 Y25.5649
G01 X7.2973 Y25.6097
G01 X7.3011 Y25.6193
G01 X7.3165 Y25.6628
G01 X7.3294 Y25.7142
G01 X7.3372 Y25.7666
G01 X7.3397 Y25.8161
G01 X7.3398 Y27.0081
G01 X7.3544 Y27.0284
G01 X7.3861 Y27.0815
G01 X7.4126 Y27.1374
G01 X7.4198 Y27.1563
G01 X7.4198 Y25.2135
G01 X7.3637 Y25.1716
G01 X7.2953 Y25.1097
G01 X7.2334 Y25.0413
G01 X7.1804 Y24.9701
G01 X7.1747 Y24.9614
G01 X7.1344 Y24.8941
G01 X7.1279 Y24.8820
G01 X7.0916 Y24.8047
G01 X7.0626 Y24.7244
G01 X7.0595 Y24.7146
G01 X7.0381 Y24.6284
G01 X7.0245 Y24.5371
G01 X7.0200 Y24.4450
G01 X7.0240 Y24.3597
G01 X7.0254 Y24.3460
G01 X7.0381 Y24.2616
G01 X7.0586 Y24.1788
G01 X7.0626 Y24.1656
G01 X7.0891 Y24.0917
G01 X7.0943 Y24.0790
G01 X7.1310 Y24.0019
G01 X7.1784 Y23.9228
G01 X7.2334 Y23.8487
G01 X7.2906 Y23.7853
G01 X7.3003 Y23.7756
G01 X7.3585 Y23.7229
G01 X7.3691 Y23.7141
G01 X7.4378 Y23.6634
G01 X7.5169 Y23.6160
G01 X7.6003 Y23.5766
G01 X7.6806 Y23.5476
G01 X7.6938 Y23.5436
G01 X7.7699 Y23.5246
G01 X7.7834 Y23.5219
G01 X7.8679 Y23.5095
G01 X7.9600 Y23.5050
G01 X8.0521 Y23.5095
G01 X8.1214 Y23.5196
G01 X9.9598 Y21.6812
G01 X9.9598 Y17.5935
G01 X9.9037 Y17.5516
G01 X9.8403 Y17.4944
G01 X9.8306 Y17.4847
G01 X9.7756 Y17.4240
G01 X9.7691 Y17.4159
G01 X9.7184 Y17.3472
G01 X9.6744 Y17.2741
G01 X9.6694 Y17.2651
G01 X9.6343 Y17.1910
G01 X9.6291 Y17.1783
G01 X9.6005 Y17.0979
G01 X9.5796 Y17.0151
G01 X9.5769 Y17.0016
G01 X9.5645 Y16.9171
G01 X9.5602 Y16.8319
G01 X9.5602 Y16.8181
G01 X9.5645 Y16.7329
G01 X9.5769 Y16.6484
G01 X9.5796 Y16.6349
G01 X9.5986 Y16.5588
G01 X9.6026 Y16.5456
G01 X9.6316 Y16.4653
G01 X9.6710 Y16.3819
G01 X9.7184 Y16.3028
G01 X9.7691 Y16.2341
G01 X9.7779 Y16.2235
G01 X9.8306 Y16.1653
G01 X9.8403 Y16.1556
G01 X9.9037 Y16.0984
G01 X9.9778 Y16.0434
G01 X10.0509 Y15.9994
G01 X10.0630 Y15.9929
G01 X10.1403 Y15.9566
G01 X10.2206 Y15.9276
G01 X10.2338 Y15.9236
G01 X10.3166 Y15.9031
G01 X10.4079 Y15.8895
G01 X10.5000 Y15.8850
G01 X10.5853 Y15.8890
G01 X10.5990 Y15.8904
G01 X10.6834 Y15.9031
G01 X10.7662 Y15.9236
G01 X10.7794 Y15.9276
G01 X10.8533 Y15.9541
G01 X10.8660 Y15.9593
G01 X10.9431 Y15.9960
G01 X11.0222 Y16.0434
G01 X11.0963 Y16.0984
G01 X11.1647 Y16.1603
G01 X11.2266 Y16.2287
G01 X11.2776 Y16.2971
G01 X11.2853 Y16.3086
G01 X11.3256 Y16.3759
G01 X11.3321 Y16.3880
G01 X11.3684 Y16.4653
G01 X11.3974 Y16.5456
G01 X11.4014 Y16.5588
G01 X11.4219 Y16.6416
G01 X11.4351 Y16.7294
G01 X11.4360 Y16.7397
G01 X11.4400 Y16.8250
G01 X11.4360 Y16.9103
G01 X11.4346 Y16.9240
G01 X11.4219 Y17.0084
G01 X11.4014 Y17.0912
G01 X11.3974 Y17.1044
G01 X11.3709 Y17.1783
G01 X11.3671 Y17.1879
G01 X11.3290 Y17.2681
G01 X11.2853 Y17.3414
G01 X11.2776 Y17.3529
G01 X11.2266 Y17.4213
G01 X11.1694 Y17.4847
G01 X11.1597 Y17.4944
G01 X11.0963 Y17.5516
G01 X11.0402 Y17.5935
G01 X11.0402 Y21.9050
G01 X11.0381 Y21.9511
G01 X11.0368 Y21.9648
G01 X11.0298 Y22.0104
G01 X11.0169 Y22.0618
G01 X10.9991 Y22.1117
G01 X10.9795 Y22.1535
G01 X10.9730 Y22.1656
G01 X10.9528 Y22.1993
G01 X10.9472 Y22.2080
G01 X10.9176 Y22.2477
G01 X10.8867 Y22.2820
G01 X8.8854 Y24.2836
G01 X8.8955 Y24.3529
G01 X8.8998 Y24.4381
G01 X8.8998 Y24.4519
G01 X8.8955 Y24.5371
G01 X8.8819 Y24.6284
G01 X8.8614 Y24.7112
G01 X8.8574 Y24.7244
G01 X8.8284 Y24.8047
G01 X8.7921 Y24.8820
G01 X8.7856 Y24.8941
G01 X8.7416 Y24.9672
G01 X8.6866 Y25.0413
G01 X8.6294 Y25.1047
G01 X8.6197 Y25.1144
G01 X8.5563 Y25.1716
G01 X8.5002 Y25.2135
G01 X8.5002 Y26.8887
G01 X8.5348 Y26.9200
G01 X8.5422 Y26.9272
G01 X8.5791 Y26.9679
G01 X8.5879 Y26.9785
G01 X8.6185 Y27.0199
G01 X8.6262 Y27.0314
G01 X8.6561 Y27.0815
G01 X8.6746 Y27.1203
G01 X8.6746 Y26.8700
G01 X8.6750 Y26.8597
G01 X8.6766 Y26.8461
G01 X8.6796 Y26.8327
G01 X8.6840 Y26.8196
G01 X8.6895 Y26.8071
G01 X8.6963 Y26.7951
G01 X8.7042 Y26.7839
G01 X8.7132 Y26.7735
G01 X8.7231 Y26.7640
G01 X8.7340 Y26.7555
G01 X8.7426 Y26.7499
G01 X8.7516 Y26.7449
G01 X8.7610 Y26.7407
G01 X8.7707 Y26.7371
G01 X8.7806 Y26.7342
G01 X8.7906 Y26.7321
G01 X8.8009 Y26.7307
G01 X8.8111 Y26.7300
G01 X9.4656 Y26.7300
G01 X9.9598 Y26.2358
G01 X9.9598 Y25.2135
G01 X9.9037 Y25.1716
G01 X9.8403 Y25.1144
G01 X9.8306 Y25.1047
G01 X9.7779 Y25.0465
G01 X9.7691 Y25.0359
G01 X9.7184 Y24.9672
G01 X9.6727 Y24.8911
G01 X9.6679 Y24.8820
G01 X9.6316 Y24.8047
G01 X9.6005 Y24.7179
G01 X9.5781 Y24.6284
G01 X9.5654 Y24.5440
G01 X9.5640 Y24.5303
G01 X9.5600 Y24.4450
G01 X9.5640 Y24.3597
G01 X9.5654 Y24.3460
G01 X9.5781 Y24.2616
G01 X9.5986 Y24.1788
G01 X9.6026 Y24.1656
G01 X9.6291 Y24.0917
G01 X9.6343 Y24.0790
G01 X9.6710 Y24.0019
G01 X9.7184 Y23.9228
G01 X9.7734 Y23.8487
G01 X9.8329 Y23.7828
G01 X9.8403 Y23.7756
G01 X9.9037 Y23.7184
G01 X9.9778 Y23.6634
G01 X10.0569 Y23.6160
G01 X10.1340 Y23.5793
G01 X10.1467 Y23.5741
G01 X10.2206 Y23.5476
G01 X10.2338 Y23.5436
G01 X10.3166 Y23.5231
G01 X10.4010 Y23.5104
G01 X10.4147 Y23.5090
G01 X10.5000 Y23.5050
G01 X10.5887 Y23.5092
G01 X10.5990 Y23.5104
G01 X10.6834 Y23.5231
G01 X10.7729 Y23.5455
G01 X10.8597 Y23.5766
G01 X10.9370 Y23.6129
G01 X10.9461 Y23.6177
G01 X11.0222 Y23.6634
G01 X11.0909 Y23.7141
G01 X11.1015 Y23.7229
G01 X11.1597 Y23.7756
G01 X11.1694 Y23.7853
G01 X11.2266 Y23.8487
G01 X11.2685 Y23.9048
G01 X11.5462 Y23.9048
G01 X16.3098 Y19.1412
G01 X16.3098 Y5.6188
G01 X14.7212 Y4.0302
G01 X12.6138 Y4.0302
G01 X11.4783 Y5.1656
G01 X11.4803 Y5.1735
G01 X11.4822 Y5.1836
G01 X11.4944 Y5.2661
G01 X11.4957 Y5.2798
G01 X11.5000 Y5.3700
G01 X11.4952 Y5.4670
G01 X11.4810 Y5.5631
G01 X11.4592 Y5.6508
G01 X11.4552 Y5.6639
G01 X11.4271 Y5.7424
G01 X11.4219 Y5.7551
G01 X11.3831 Y5.8367
G01 X11.3332 Y5.9200
G01 X11.2753 Y5.9980
G01 X11.2148 Y6.0651
G01 X11.2051 Y6.0748
G01 X11.1433 Y6.1308
G01 X11.1326 Y6.1395
G01 X11.0600 Y6.1932
G01 X10.9767 Y6.2431
G01 X10.8889 Y6.2846
G01 X10.7974 Y6.3174
G01 X10.7031 Y6.3410
G01 X10.6070 Y6.3552
G01 X10.5100 Y6.3600
G01 X10.4130 Y6.3552
G01 X10.3169 Y6.3410
G01 X10.2292 Y6.3192
G01 X10.2161 Y6.3152
G01 X10.1311 Y6.2846
G01 X10.0433 Y6.2431
G01 X9.9600 Y6.1932
G01 X9.8874 Y6.1395
G01 X9.8767 Y6.1308
G01 X9.8100 Y6.0700
G01 X9.7492 Y6.0033
G01 X9.7405 Y5.9926
G01 X9.6908 Y5.9256
G01 X9.6810 Y5.9107
G01 X8.7992 Y5.9102
G01 X8.7950 Y5.9171
G01 X8.7892 Y5.9256
G01 X8.7353 Y5.9980
G01 X8.6700 Y6.0700
G01 X8.5980 Y6.1353
G01 X8.5256 Y6.1892
G01 X8.5107 Y6.1990
G01 X8.5102 Y7.8238
G01 X8.5309 Y7.8391
G01 X8.5390 Y7.8456
G01 X8.6022 Y7.9029
G01 X8.6094 Y7.9103
G01 X8.6621 Y7.9685
G01 X8.6688 Y7.9764
G01 X8.7216 Y8.0478
G01 X8.7656 Y8.1209
G01 X8.7721 Y8.1330
G01 X8.8057 Y8.2040
G01 X8.8097 Y8.2135
G01 X8.8395 Y8.2971
G01 X8.8604 Y8.3799
G01 X8.8631 Y8.3934
G01 X8.8755 Y8.4779
G01 X8.8798 Y8.5631
G01 X8.8798 Y8.5769
G01 X8.8755 Y8.6621
G01 X8.8654 Y8.7314
G01 X9.7117 Y9.5780
G01 X9.7404 Y9.6097
G01 X9.7468 Y9.6177
G01 X9.7742 Y9.6549
G01 X9.7980 Y9.6944
G01 X9.8045 Y9.7065
G01 X9.8241 Y9.7483
G01 X9.8409 Y9.7949
G01 X9.8438 Y9.8048
G01 X9.8533 Y9.8429
G01 X9.8560 Y9.8564
G01 X9.8626 Y9.9021
G01 X9.8652 Y9.9550
G01 X9.8652 Y12.2465
G01 X9.9213 Y12.2884
G01 X9.9847 Y12.3456
G01 X9.9944 Y12.3553
G01 X10.0471 Y12.4135
G01 X10.0559 Y12.4241
G01 X10.1066 Y12.4928
G01 X10.1506 Y12.5659
G01 X10.1571 Y12.5780
G01 X10.1934 Y12.6553
G01 X10.2245 Y12.7421
G01 X10.2469 Y12.8316
G01 X10.2601 Y12.9194
G01 X10.2610 Y12.9297
G01 X10.2650 Y13.0150
G01 X10.2605 Y13.1071
G01 X10.2469 Y13.1984
G01 X10.2264 Y13.2812
G01 X10.2224 Y13.2944
G01 X10.1934 Y13.3747
G01 X10.1571 Y13.4520
G01 X10.1506 Y13.4641
G01 X10.1103 Y13.5314
G01 X10.1026 Y13.5429
G01 X10.0516 Y13.6113
G01 X9.9897 Y13.6797
G01 X9.9213 Y13.7416
G01 X9.8472 Y13.7966
G01 X9.7681 Y13.8440
G01 X9.6847 Y13.8834
G01 X9.5979 Y13.9145
G01 X9.5151 Y13.9354
G01 X9.5016 Y13.9381
G01 X9.4171 Y13.9505
G01 X9.3250 Y13.9550
G01 X9.2329 Y13.9505
G01 X9.1484 Y13.9381
G01 X9.1349 Y13.9354
G01 X9.0588 Y13.9164
G01 X9.0456 Y13.9124
G01 X8.9653 Y13.8834
G01 X8.8880 Y13.8471
G01 X8.8759 Y13.8406
G01 X8.8028 Y13.7966
G01 X8.7287 Y13.7416
G01 X8.6603 Y13.6797
G01 X8.5984 Y13.6113
G01 X8.5434 Y13.5372
G01 X8.4960 Y13.4581
G01 X8.4566 Y13.3747
G01 X8.4265 Y13.2911
G01 X8.4236 Y13.2812
G01 X8.4046 Y13.2051
G01 X8.4019 Y13.1916
G01 X8.3895 Y13.1071
G01 X8.3850 Y13.0150
G01 X8.3895 Y12.9229
G01 X8.4019 Y12.8384
G01 X8.4046 Y12.8249
G01 X8.4236 Y12.7488
G01 X8.4265 Y12.7389
G01 X8.4566 Y12.6553
G01 X8.4929 Y12.5780
G01 X8.4994 Y12.5659
G01 X8.5397 Y12.4986
G01 X8.5474 Y12.4871
G01 X8.5984 Y12.4187
G01 X8.6603 Y12.3503
G01 X8.7287 Y12.2884
G01 X8.7848 Y12.2465
G01 X8.7848 Y10.1788
G01 X8.1014 Y9.4954
G01 X8.0321 Y9.5055
G01 X7.9400 Y9.5100
G01 X7.8479 Y9.5055
G01 X7.7634 Y9.4931
G01 X7.7499 Y9.4904
G01 X7.6738 Y9.4714
G01 X7.6606 Y9.4674
G01 X7.5803 Y9.4384
G01 X7.5030 Y9.4021
G01 X7.4909 Y9.3956
G01 X7.4236 Y9.3553
G01 X7.4121 Y9.3476
G01 X7.3437 Y9.2966
G01 X7.2753 Y9.2347
G01 X7.2179 Y9.1715
G01 X7.2091 Y9.1609
G01 X7.1584 Y9.0922
G01 X7.1127 Y9.0161
G01 X7.1079 Y9.0070
G01 X7.0716 Y8.9297
G01 X7.0405 Y8.8429
G01 X7.0181 Y8.7534
G01 X7.0045 Y8.6621
G01 X7.0000 Y8.5700
G01 X7.0045 Y8.4779
G01 X7.0181 Y8.3866
G01 X7.0386 Y8.3038
G01 X7.0426 Y8.2906
G01 X7.0716 Y8.2103
G01 X7.1110 Y8.1269
G01 X7.1584 Y8.0478
G01 X7.2091 Y7.9791
G01 X7.2179 Y7.9685
G01 X7.2753 Y7.9053
G01 X7.3385 Y7.8479
G01 X7.3491 Y7.8391
G01 X7.4121 Y7.7924
G01 X7.4206 Y7.7865
G01 X7.4298 Y7.7810
M5
G00 X12.5998 Y6.1482
M3
G01 X12.5500 Y6.1183
G01 X12.4781 Y6.0649
G01 X12.4136 Y6.0064
G01 X12.3535 Y5.9400
G01 X12.3017 Y5.8700
G01 X12.2563 Y5.7943
G01 X12.2185 Y5.7144
G01 X12.1884 Y5.6301
G01 X12.1673 Y5.5456
G01 X12.1543 Y5.4582
G01 X12.1500 Y5.3700
G01 X12.1543 Y5.2818
G01 X12.1673 Y5.1944
G01 X12.1888 Y5.1087
G01 X12.2185 Y5.0256
G01 X12.2569 Y4.9447
G01 X12.3017 Y4.8700
G01 X12.3543 Y4.7990
G01 X12.4136 Y4.7336
G01 X12.4790 Y4.6743
G01 X12.5500 Y4.6217
G01 X12.6257 Y4.5763
G01 X12.7056 Y4.5385
G01 X12.7887 Y4.5088
G01 X12.8744 Y4.4873
G01 X12.9618 Y4.4743
G01 X13.0500 Y4.4700
G01 X13.1382 Y4.4743
G01 X13.2256 Y4.4873
G01 X13.3113 Y4.5088
G01 X13.3944 Y4.5385
G01 X13.4753 Y4.5769
G01 X13.5500 Y4.6217
G01 X13.6190 Y4.6728
G01 X13.6864 Y4.7336
G01 X13.7472 Y4.8010
G01 X13.7983 Y4.8700
G01 X13.8425 Y4.9436
G01 X13.8815 Y5.0256
G01 X13.9119 Y5.1111
G01 X13.9327 Y5.1944
G01 X13.9454 Y5.2793
G01 X13.9500 Y5.3700
G01 X13.9454 Y5.4607
G01 X13.9327 Y5.5456
G01 X13.9119 Y5.6289
G01 X13.8815 Y5.7144
G01 X13.8431 Y5.7953
G01 X13.7969 Y5.8720
G01 X13.7457 Y5.9410
G01 X13.6873 Y6.0055
G01 X13.6200 Y6.0665
G01 X13.5500 Y6.1183
G01 X13.5002 Y6.1482
G01 X13.5002 Y7.2912
G01 X13.4980 Y7.3341
G01 X13.4915 Y7.3778
G01 X13.4808 Y7.4207
G01 X13.4664 Y7.4611
G01 X13.4470 Y7.5022
G01 X13.4243 Y7.5401
G01 X13.3980 Y7.5756
G01 X13.3692 Y7.6075
G01 X11.5852 Y9.3915
G01 X11.5852 Y13.6500
G01 X11.5830 Y13.6941
G01 X11.5765 Y13.7378
G01 X11.5658 Y13.7807
G01 X11.5504 Y13.8234
G01 X11.5320 Y13.8622
G01 X11.5093 Y13.9001
G01 X11.4830 Y13.9356
G01 X11.4533 Y13.9683
G01 X8.7875 Y16.6342
G01 X8.7939 Y16.6604
G01 X8.8058 Y16.7405
G01 X8.8100 Y16.8262
G01 X8.8059 Y16.9083
G01 X8.7941 Y16.9884
G01 X8.7737 Y17.0706
G01 X8.7453 Y17.1503
G01 X8.7084 Y17.2278
G01 X8.6667 Y17.2972
G01 X8.6186 Y17.3623
G01 X8.5602 Y17.4269
G01 X8.4992 Y17.4821
G01 X8.4342 Y17.5303
G01 X8.3607 Y17.5746
G01 X8.2853 Y17.6103
G01 X8.2091 Y17.6376
G01 X8.1258 Y17.6587
G01 X8.0433 Y17.6709
G01 X7.9625 Y17.6749
G01 X7.8767 Y17.6709
G01 X7.7942 Y17.6587
G01 X7.7156 Y17.6391
G01 X7.6336 Y17.6098
G01 X7.5593 Y17.5746
G01 X7.4858 Y17.5303
G01 X7.4189 Y17.4805
G01 X7.3590 Y17.4260
G01 X7.3045 Y17.3661
G01 X7.2533 Y17.2972
G01 X7.2104 Y17.2257
G01 X7.1747 Y17.1503
G01 X7.1466 Y17.0717
G01 X7.1263 Y16.9908
G01 X7.1139 Y16.9059
G01 X7.1101 Y16.8225
G01 X7.1141 Y16.7417
G01 X7.1259 Y16.6616
G01 X7.1466 Y16.5783
G01 X7.1747 Y16.4997
G01 X7.2104 Y16.4243
G01 X7.2547 Y16.3508
G01 X7.3029 Y16.2858
G01 X7.3573 Y16.2257
G01 X7.4208 Y16.1679
G01 X7.4878 Y16.1183
G01 X7.5572 Y16.0766
G01 X7.6359 Y16.0392
G01 X7.7133 Y16.0116
G01 X7.7918 Y15.9919
G01 X7.8779 Y15.9790
G01 X7.9600 Y15.9750
G01 X8.0421 Y15.9790
G01 X8.1246 Y15.9911
G01 X8.1508 Y15.9975
G01 X10.6848 Y13.4635
G01 X10.6848 Y9.2050
G01 X10.6873 Y9.1584
G01 X10.6935 Y9.1172
G01 X10.7035 Y9.0767
G01 X10.7191 Y9.0327
G01 X10.7392 Y8.9906
G01 X10.7607 Y8.9549
G01 X10.7855 Y8.9213
G01 X10.8158 Y8.8875
G01 X12.5998 Y7.1035
G01 X12.5998 Y6.1482
M5
G00 X28.5100 Y3.2100
M3
G01 X28.5198 Y3.2110
G01 X28.5291 Y3.2138
G01 X28.5378 Y3.2184
G01 X28.5445 Y3.2238
G01 X28.5509 Y3.2312
G01 X28.5557 Y3.2397
G01 X28.5588 Y3.2490
G01 X28.5600 Y3.2588
G01 X28.5600 Y6.2600
G01 X28.5593 Y6.2685
G01 X28.5566 Y6.2780
G01 X28.5529 Y6.2857
G01 X28.5479 Y6.2927
G01 X28.5436 Y6.2970
G01 X28.5398 Y6.3002
G01 X28.5346 Y6.3035
G01 X28.5303 Y6.3057
G01 X28.5245 Y6.3078
G01 X28.5198 Y6.3090
G01 X28.5100 Y6.3100
G01 X26.5919 Y6.3100
G01 X20.8254 Y12.0765
G01 X20.8254 Y27.1747
G01 X20.8871 Y27.2119
G01 X21.0074 Y27.3011
G01 X21.1219 Y27.4049
G01 X21.2232 Y27.5167
G01 X21.3124 Y27.6369
G01 X21.3925 Y27.7704
G01 X21.4570 Y27.9068
G01 X21.5075 Y28.0477
G01 X21.5452 Y28.1976
G01 X21.5677 Y28.3505
G01 X21.5750 Y28.5000
G01 X21.5676 Y28.6507
G01 X21.5452 Y28.8024
G01 X21.5083 Y28.9499
G01 X21.4570 Y29.0932
G01 X21.3908 Y29.2328
G01 X21.3124 Y29.3631
G01 X21.2232 Y29.4833
G01 X21.1227 Y29.5942
G01 X21.0083 Y29.6982
G01 X20.8861 Y29.7888
G01 X20.7557 Y29.8670
G01 X20.6159 Y29.9329
G01 X20.4726 Y29.9839
G01 X20.3274 Y30.0202
G01 X20.1794 Y30.0422
G01 X20.0250 Y30.0500
G01 X19.8731 Y30.0425
G01 X19.7226 Y30.0202
G01 X19.5739 Y29.9829
G01 X19.4318 Y29.9320
G01 X19.2965 Y29.8681
G01 X19.1619 Y29.7874
G01 X19.0417 Y29.6982
G01 X18.9290 Y29.5960
G01 X18.8268 Y29.4833
G01 X18.7376 Y29.3631
G01 X18.6569 Y29.2285
G01 X18.5930 Y29.0932
G01 X18.5417 Y28.9499
G01 X18.5044 Y28.8000
G01 X18.4825 Y28.6519
G01 X18.4750 Y28.5012
G01 X18.4828 Y28.3456
G01 X18.5048 Y28.1976
G01 X18.5411 Y28.0524
G01 X18.5930 Y27.9068
G01 X18.6586 Y27.7683
G01 X18.7376 Y27.6369
G01 X18.8268 Y27.5167
G01 X18.9281 Y27.4049
G01 X19.0426 Y27.3011
G01 X19.1629 Y27.2119
G01 X19.2246 Y27.1747
G01 X19.2246 Y11.7450
G01 X19.2285 Y11.6665
G01 X19.2396 Y11.5913
G01 X19.2595 Y11.5115
G01 X19.2865 Y11.4365
G01 X19.3191 Y11.3677
G01 X19.3582 Y11.3024
G01 X19.4063 Y11.2372
G01 X19.4590 Y11.1790
G01 X25.4600 Y5.1781
G01 X25.4600 Y3.2600
G01 X25.4610 Y3.2502
G01 X25.4625 Y3.2443
G01 X25.4643 Y3.2397
G01 X25.4691 Y3.2312
G01 X25.4730 Y3.2264
G01 X25.4764 Y3.2230
G01 X25.4843 Y3.2171
G01 X25.4920 Y3.2134
G01 X25.5015 Y3.2107
G01 X25.5100 Y3.2100
G01 X28.5100 Y3.2100
M5
G00 X37.4338 Y6.2631
M3
G01 X28.7810 Y14.9160
G01 X28.7228 Y14.9687
G01 X28.6607 Y15.0148
G01 X28.5923 Y15.0559
G01 X28.5190 Y15.0903
G01 X28.4473 Y15.1159
G01 X28.3735 Y15.1345
G01 X28.2935 Y15.1465
G01 X28.2150 Y15.1504
G01 X27.4003 Y15.1504
G01 X27.3631 Y15.2121
G01 X27.2739 Y15.3324
G01 X27.1719 Y15.4451
G01 X27.0583 Y15.5482
G01 X26.9351 Y15.6394
G01 X26.8035 Y15.7181
G01 X26.6682 Y15.7820
G01 X26.5273 Y15.8325
G01 X26.3774 Y15.8702
G01 X26.2245 Y15.8927
G01 X26.0750 Y15.9000
G01 X25.9255 Y15.8927
G01 X25.7726 Y15.8702
G01 X25.6227 Y15.8325
G01 X25.4818 Y15.7820
G01 X25.3465 Y15.7181
G01 X25.2139 Y15.6388
G01 X25.0898 Y15.5466
G01 X24.9790 Y15.4460
G01 X24.8784 Y15.3352
G01 X24.7869 Y15.2121
G01 X24.7080 Y15.0807
G01 X24.6430 Y14.9432
G01 X24.5917 Y14.7999
G01 X24.5553 Y14.6548
G01 X24.5325 Y14.5019
G01 X24.5251 Y14.3525
G01 X24.5328 Y14.1956
G01 X24.5548 Y14.0476
G01 X24.5917 Y13.9001
G01 X24.6430 Y13.7568
G01 X24.7080 Y13.6193
G01 X24.7862 Y13.4889
G01 X24.8768 Y13.3667
G01 X24.9790 Y13.2540
G01 X25.0898 Y13.1534
G01 X25.2139 Y13.0612
G01 X25.3443 Y12.9830
G01 X25.4818 Y12.9180
G01 X25.6251 Y12.8667
G01 X25.7726 Y12.8298
G01 X25.9231 Y12.8075
G01 X26.0750 Y12.8000
G01 X26.2294 Y12.8078
G01 X26.3798 Y12.8303
G01 X26.5249 Y12.8667
G01 X26.6659 Y12.9171
G01 X26.8057 Y12.9830
G01 X26.9351 Y13.0606
G01 X27.0583 Y13.1518
G01 X27.1719 Y13.2549
G01 X27.2739 Y13.3676
G01 X27.3631 Y13.4879
G01 X27.4003 Y13.5496
G01 X27.8835 Y13.5496
G01 X36.3019 Y5.1312
G01 X36.2846 Y5.0612
G01 X36.2626 Y4.9131
G01 X36.2550 Y4.7588
G01 X36.2625 Y4.6081
G01 X36.2844 Y4.4600
G01 X36.3214 Y4.3112
G01 X36.3730 Y4.1668
G01 X36.4392 Y4.0272
G01 X36.5162 Y3.8989
G01 X36.6053 Y3.7786
G01 X36.7090 Y3.6640
G01 X36.8217 Y3.5618
G01 X36.9459 Y3.4699
G01 X37.0743 Y3.3930
G01 X37.2096 Y3.3290
G01 X37.3551 Y3.2767
G01 X37.5050 Y3.2394
G01 X37.6531 Y3.2175
G01 X37.8025 Y3.2101
G01 X37.9569 Y3.2175
G01 X38.1086 Y3.2400
G01 X38.2549 Y3.2767
G01 X38.3982 Y3.3280
G01 X38.5357 Y3.3930
G01 X38.6661 Y3.4712
G01 X38.7883 Y3.5618
G01 X38.9010 Y3.6640
G01 X39.0032 Y3.7767
G01 X39.0938 Y3.8989
G01 X39.1720 Y4.0293
G01 X39.2370 Y4.1668
G01 X39.2883 Y4.3101
G01 X39.3252 Y4.4576
G01 X39.3475 Y4.6081
G01 X39.3550 Y4.7600
G01 X39.3475 Y4.9119
G01 X39.3250 Y5.0636
G01 X39.2883 Y5.2099
G01 X39.2370 Y5.3532
G01 X39.1720 Y5.4907
G01 X39.0938 Y5.6211
G01 X39.0032 Y5.7433
G01 X38.9010 Y5.8560
G01 X38.7883 Y5.9582
G01 X38.6651 Y6.0494
G01 X38.5357 Y6.1270
G01 X38.3982 Y6.1920
G01 X38.2549 Y6.2433
G01 X38.1062 Y6.2804
G01 X37.9569 Y6.3025
G01 X37.8038 Y6.3100
G01 X37.6519 Y6.3024
G01 X37.5038 Y6.2804
G01 X37.4338 Y6.2631
M5
G00 X41.2583 Y3.2004
M3
G01 X38.3088 Y3.2004
G01 X38.4326 Y3.2448
G01 X38.5720 Y3.3106
G01 X38.5841 Y3.3170
G01 X38.7103 Y3.3927
G01 X38.7218 Y3.4003
G01 X38.8454 Y3.4923
G01 X38.9647 Y3.6003
G01 X39.0727 Y3.7196
G01 X39.1647 Y3.8432
G01 X39.1723 Y3.8547
G01 X39.2514 Y3.9869
G01 X39.3174 Y4.1261
G01 X39.3226 Y4.1388
G01 X39.3744 Y4.2839
G01 X39.4120 Y4.4333
G01 X39.4147 Y4.4468
G01 X39.4371 Y4.5993
G01 X39.4448 Y4.7531
G01 X39.4448 Y4.7669
G01 X39.4371 Y4.9207
G01 X39.4135 Y5.0799
G01 X39.3744 Y5.2361
G01 X39.3226 Y5.3812
G01 X39.3174 Y5.3939
G01 X39.2514 Y5.5331
G01 X39.1723 Y5.6653
G01 X39.1647 Y5.6768
G01 X39.0749 Y5.7977
G01 X39.0682 Y5.8056
G01 X38.9694 Y5.9147
G01 X38.9597 Y5.9244
G01 X38.8454 Y6.0277
G01 X38.7161 Y6.1236
G01 X38.5841 Y6.2030
G01 X38.5720 Y6.2094
G01 X38.4326 Y6.2752
G01 X38.2876 Y6.3272
G01 X38.2744 Y6.3312
G01 X38.1317 Y6.3670
G01 X38.1182 Y6.3697
G01 X37.9657 Y6.3921
G01 X37.8119 Y6.3998
G01 X37.7981 Y6.3998
G01 X37.6443 Y6.3921
G01 X37.4918 Y6.3697
G01 X37.4817 Y6.3678
G01 X37.4614 Y6.3627
G01 X30.8712 Y12.9530
G01 X30.8882 Y12.9403
G01 X30.8967 Y12.9345
G01 X31.0319 Y12.8536
G01 X31.1774 Y12.7848
G01 X31.3289 Y12.7306
G01 X31.4851 Y12.6915
G01 X31.6443 Y12.6679
G01 X31.8050 Y12.6600
G01 X31.9657 Y12.6679
G01 X32.1249 Y12.6915
G01 X32.2811 Y12.7306
G01 X32.4326 Y12.7848
G01 X32.5781 Y12.8536
G01 X32.7161 Y12.9364
G01 X32.8454 Y13.0323
G01 X32.9647 Y13.1403
G01 X33.0727 Y13.2596
G01 X33.1686 Y13.3889
G01 X33.2514 Y13.5269
G01 X33.3202 Y13.6724
G01 X33.3744 Y13.8239
G01 X33.4135 Y13.9801
G01 X33.4371 Y14.1393
G01 X33.4450 Y14.3000
G01 X33.4371 Y14.4607
G01 X33.4135 Y14.6199
G01 X33.3744 Y14.7761
G01 X33.3202 Y14.9276
G01 X33.2514 Y15.0731
G01 X33.1686 Y15.2111
G01 X33.0727 Y15.3404
G01 X32.9647 Y15.4597
G01 X32.8454 Y15.5677
G01 X32.7161 Y15.6636
G01 X32.5781 Y15.7464
G01 X32.4389 Y15.8124
G01 X32.4262 Y15.8176
G01 X32.2876 Y15.8672
G01 X32.2744 Y15.8712
G01 X32.1249 Y15.9085
G01 X31.9657 Y15.9321
G01 X31.8050 Y15.9400
G01 X31.6443 Y15.9321
G01 X31.4851 Y15.9085
G01 X31.3356 Y15.8712
G01 X31.3224 Y15.8672
G01 X31.1838 Y15.8176
G01 X31.1711 Y15.8124
G01 X31.0319 Y15.7464
G01 X30.8939 Y15.6636
G01 X30.7646 Y15.5677
G01 X30.6453 Y15.4597
G01 X30.5373 Y15.3404
G01 X30.4414 Y15.2111
G01 X30.3586 Y15.0731
G01 X30.2926 Y14.9339
G01 X30.2874 Y14.9212
G01 X30.2378 Y14.7826
G01 X30.2338 Y14.7694
G01 X30.1965 Y14.6199
G01 X30.1729 Y14.4607
G01 X30.1650 Y14.3000
G01 X30.1729 Y14.1393
G01 X30.1965 Y13.9801
G01 X30.2338 Y13.8306
G01 X30.2378 Y13.8174
G01 X30.2898 Y13.6724
G01 X30.3556 Y13.5330
G01 X30.3620 Y13.5209
G01 X30.4377 Y13.3947
G01 X30.4433 Y13.3860
G01 X30.4580 Y13.3662
G01 X28.8446 Y14.9796
G01 X28.7798 Y15.0383
G01 X28.7153 Y15.0864
G01 X28.7068 Y15.0922
G01 X28.6407 Y15.1319
G01 X28.6286 Y15.1383
G01 X28.5557 Y15.1726
G01 X28.4800 Y15.1999
G01 X28.4668 Y15.2039
G01 X28.3887 Y15.2233
G01 X28.3057 Y15.2357
G01 X28.2954 Y15.2366
G01 X28.2150 Y15.2404
G01 X27.4512 Y15.2404
G01 X27.4405 Y15.2583
G01 X27.4347 Y15.2668
G01 X27.3427 Y15.3904
G01 X27.2347 Y15.5097
G01 X27.1154 Y15.6177
G01 X26.9918 Y15.7097
G01 X26.9803 Y15.7173
G01 X26.8481 Y15.7964
G01 X26.7089 Y15.8624
G01 X26.6962 Y15.8676
G01 X26.5576 Y15.9172
G01 X26.5444 Y15.9212
G01 X26.3949 Y15.9585
G01 X26.2426 Y15.9813
G01 X26.2289 Y15.9826
G01 X26.0750 Y15.9900
G01 X25.9143 Y15.9821
G01 X25.7551 Y15.9585
G01 X25.6056 Y15.9212
G01 X25.5924 Y15.9172
G01 X25.4538 Y15.8676
G01 X25.4411 Y15.8624
G01 X25.3019 Y15.7964
G01 X25.1697 Y15.7173
G01 X25.1582 Y15.7097
G01 X25.0346 Y15.6177
G01 X24.9153 Y15.5097
G01 X24.8073 Y15.3904
G01 X24.7153 Y15.2668
G01 X24.7077 Y15.2553
G01 X24.6286 Y15.1231
G01 X24.5626 Y14.9839
G01 X24.5574 Y14.9712
G01 X24.5078 Y14.8326
G01 X24.5038 Y14.8194
G01 X24.4665 Y14.6699
G01 X24.4429 Y14.5107
G01 X24.4350 Y14.3500
G01 X24.4424 Y14.1961
G01 X24.4433 Y14.1858
G01 X24.4665 Y14.0301
G01 X24.5038 Y13.8806
G01 X24.5078 Y13.8674
G01 X24.5574 Y13.7288
G01 X24.5626 Y13.7161
G01 X24.6286 Y13.5769
G01 X24.7114 Y13.4389
G01 X24.8073 Y13.3096
G01 X24.9106 Y13.1953
G01 X24.9203 Y13.1856
G01 X25.0294 Y13.0868
G01 X25.0400 Y13.0780
G01 X25.1639 Y12.9864
G01 X25.3019 Y12.9036
G01 X25.4411 Y12.8376
G01 X25.4538 Y12.8324
G01 X25.5989 Y12.7806
G01 X25.7517 Y12.7422
G01 X25.7618 Y12.7403
G01 X25.9143 Y12.7179
G01 X26.0681 Y12.7102
G01 X26.0819 Y12.7102
G01 X26.2357 Y12.7179
G01 X26.3882 Y12.7403
G01 X26.4017 Y12.7430
G01 X26.5444 Y12.7788
G01 X26.5543 Y12.7817
G01 X26.7026 Y12.8348
G01 X26.8481 Y12.9036
G01 X26.9861 Y12.9864
G01 X27.1100 Y13.0780
G01 X27.1206 Y13.0868
G01 X27.2347 Y13.1903
G01 X27.3382 Y13.3044
G01 X27.3470 Y13.3150
G01 X27.4347 Y13.4332
G01 X27.4405 Y13.4417
G01 X27.4512 Y13.4596
G01 X27.8462 Y13.4596
G01 X36.2023 Y5.1036
G01 X36.1972 Y5.0833
G01 X36.1953 Y5.0732
G01 X36.1737 Y4.9276
G01 X36.1724 Y4.9139
G01 X36.1650 Y4.7600
G01 X36.1724 Y4.6061
G01 X36.1737 Y4.5924
G01 X36.1965 Y4.4401
G01 X36.2356 Y4.2839
G01 X36.2898 Y4.1324
G01 X36.3556 Y3.9930
G01 X36.3603 Y3.9839
G01 X36.4414 Y3.8489
G01 X36.5373 Y3.7196
G01 X36.6453 Y3.6003
G01 X36.7646 Y3.4923
G01 X36.8939 Y3.3964
G01 X37.0319 Y3.3136
G01 X37.1774 Y3.2448
G01 X37.3012 Y3.2004
G01 X34.9088 Y3.2004
G01 X33.6927 Y4.4164
G01 X33.6978 Y4.4367
G01 X33.6997 Y4.4468
G01 X33.7221 Y4.5993
G01 X33.7300 Y4.7600
G01 X33.7221 Y4.9207
G01 X33.6997 Y5.0732
G01 X33.6970 Y5.0867
G01 X33.6594 Y5.2361
G01 X33.6076 Y5.3812
G01 X33.6024 Y5.3939
G01 X33.5364 Y5.5331
G01 X33.4573 Y5.6653
G01 X33.4497 Y5.6768
G01 X33.3620 Y5.7950
G01 X33.3532 Y5.8056
G01 X33.2544 Y5.9147
G01 X33.2447 Y5.9244
G01 X33.1304 Y6.0277
G01 X33.0011 Y6.1236
G01 X32.8691 Y6.2030
G01 X32.8570 Y6.2094
G01 X32.7176 Y6.2752
G01 X32.5726 Y6.3272
G01 X32.5594 Y6.3312
G01 X32.4099 Y6.3685
G01 X32.2576 Y6.3913
G01 X32.2439 Y6.3926
G01 X32.0969 Y6.3998
G01 X32.0831 Y6.3998
G01 X31.9293 Y6.3921
G01 X31.7701 Y6.3685
G01 X31.6139 Y6.3294
G01 X31.4624 Y6.2752
G01 X31.3169 Y6.2064
G01 X31.1847 Y6.1273
G01 X31.1732 Y6.1197
G01 X31.0550 Y6.0320
G01 X31.0444 Y6.0232
G01 X30.9303 Y5.9197
G01 X30.8223 Y5.8004
G01 X30.7264 Y5.6711
G01 X30.6453 Y5.5361
G01 X30.6406 Y5.5270
G01 X30.5776 Y5.3939
G01 X30.5724 Y5.3812
G01 X30.5206 Y5.2361
G01 X30.4815 Y5.0799
G01 X30.4579 Y4.9207
G01 X30.4502 Y4.7669
G01 X30.4502 Y4.7531
G01 X30.4579 Y4.5993
G01 X30.4803 Y4.4468
G01 X30.4830 Y4.4333
G01 X30.5206 Y4.2839
G01 X30.5748 Y4.1324
G01 X30.6436 Y3.9869
G01 X30.7227 Y3.8547
G01 X30.7303 Y3.8432
G01 X30.8180 Y3.7250
G01 X30.8245 Y3.7170
G01 X30.9303 Y3.6003
G01 X31.0444 Y3.4968
G01 X31.0550 Y3.4880
G01 X31.1789 Y3.3964
G01 X31.3109 Y3.3170
G01 X31.3230 Y3.3106
G01 X31.4624 Y3.2448
G01 X31.6074 Y3.1928
G01 X31.6206 Y3.1888
G01 X31.7633 Y3.1530
G01 X31.7768 Y3.1503
G01 X31.9293 Y3.1279
G01 X32.0831 Y3.1202
G01 X32.0969 Y3.1202
G01 X32.2507 Y3.1279
G01 X32.4032 Y3.1503
G01 X32.4133 Y3.1522
G01 X32.4336 Y3.1573
G01 X33.9129 Y1.6780
G01 X33.9752 Y1.6217
G01 X34.0397 Y1.5736
G01 X34.0511 Y1.5660
G01 X34.1143 Y1.5281
G01 X34.1233 Y1.5232
G01 X34.1930 Y1.4902
G01 X34.2057 Y1.4849
G01 X34.2815 Y1.4580
G01 X34.3596 Y1.4382
G01 X34.3731 Y1.4356
G01 X34.4527 Y1.4239
G01 X34.5400 Y1.4196
G01 X44.8800 Y1.4196
G01 X44.9604 Y1.4234
G01 X44.9707 Y1.4243
G01 X45.0537 Y1.4367
G01 X45.1318 Y1.4561
G01 X45.1450 Y1.4601
G01 X45.2207 Y1.4874
G01 X45.2997 Y1.5248
G01 X45.3689 Y1.5660
G01 X45.3803 Y1.5736
G01 X45.4394 Y1.6175
G01 X45.4475 Y1.6239
G01 X45.5096 Y1.6804
G01 X46.9346 Y3.1054
G01 X46.9933 Y3.1702
G01 X47.0453 Y3.2403
G01 X47.0902 Y3.3153
G01 X47.1276 Y3.3943
G01 X47.1549 Y3.4700
G01 X47.1589 Y3.4832
G01 X47.1768 Y3.5546
G01 X47.1794 Y3.5681
G01 X47.1911 Y3.6477
G01 X47.1954 Y3.7350
G01 X47.1954 Y20.0000
G01 X47.1911 Y20.0873
G01 X47.1794 Y20.1669
G01 X47.1768 Y20.1804
G01 X47.1589 Y20.2518
G01 X47.1549 Y20.2650
G01 X47.1276 Y20.3407
G01 X47.0933 Y20.4136
G01 X47.0869 Y20.4257
G01 X47.0490 Y20.4889
G01 X47.0414 Y20.5003
G01 X46.9933 Y20.5648
G01 X46.9346 Y20.6296
G01 X39.4077 Y28.1564
G01 X39.4128 Y28.1767
G01 X39.4147 Y28.1868
G01 X39.4371 Y28.3393
G01 X39.4448 Y28.4931
G01 X39.4448 Y28.5069
G01 X39.4371 Y28.6607
G01 X39.4147 Y28.8132
G01 X39.4120 Y28.8267
G01 X39.3744 Y28.9761
G01 X39.3202 Y29.1276
G01 X39.2544 Y29.2670
G01 X39.2480 Y29.2791
G01 X39.1686 Y29.4111
G01 X39.0770 Y29.5350
G01 X39.0682 Y29.5456
G01 X38.9671 Y29.6572
G01 X38.9597 Y29.6644
G01 X38.8454 Y29.7677
G01 X38.7218 Y29.8597
G01 X38.7103 Y29.8673
G01 X38.5781 Y29.9464
G01 X38.4389 Y30.0124
G01 X38.4262 Y30.0176
G01 X38.2876 Y30.0672
G01 X38.2744 Y30.0712
G01 X38.1249 Y30.1085
G01 X37.9657 Y30.1321
G01 X37.8050 Y30.1400
G01 X37.6511 Y30.1326
G01 X37.6408 Y30.1317
G01 X37.4918 Y30.1097
G01 X37.4783 Y30.1070
G01 X37.3289 Y30.0694
G01 X37.1838 Y30.0176
G01 X37.1711 Y30.0124
G01 X37.0319 Y29.9464
G01 X36.8997 Y29.8673
G01 X36.8882 Y29.8597
G01 X36.7646 Y29.7677
G01 X36.6503 Y29.6644
G01 X36.6406 Y29.6547
G01 X36.5373 Y29.5404
G01 X36.4453 Y29.4168
G01 X36.4377 Y29.4053
G01 X36.3586 Y29.2731
G01 X36.2926 Y29.1339
G01 X36.2874 Y29.1212
G01 X36.2356 Y28.9761
G01 X36.1980 Y28.8267
G01 X36.1953 Y28.8132
G01 X36.1729 Y28.6607
G01 X36.1652 Y28.5069
G01 X36.1652 Y28.4931
G01 X36.1729 Y28.3393
G01 X36.1953 Y28.1868
G01 X36.1980 Y28.1733
G01 X36.2356 Y28.0239
G01 X36.2874 Y27.8788
G01 X36.2926 Y27.8661
G01 X36.3586 Y27.7269
G01 X36.4377 Y27.5947
G01 X36.4453 Y27.5832
G01 X36.5373 Y27.4596
G01 X36.6406 Y27.3453
G01 X36.6503 Y27.3356
G01 X36.7646 Y27.2323
G01 X36.8882 Y27.1403
G01 X36.8997 Y27.1327
G01 X37.0319 Y27.0536
G01 X37.1774 Y26.9848
G01 X37.3224 Y26.9328
G01 X37.3356 Y26.9288
G01 X37.4851 Y26.8915
G01 X37.6443 Y26.8679
G01 X37.8050 Y26.8600
G01 X37.9589 Y26.8674
G01 X37.9726 Y26.8687
G01 X38.1182 Y26.8903
G01 X38.1283 Y26.8922
G01 X38.1486 Y26.8973
G01 X45.4146 Y19.6312
G01 X45.4146 Y14.8538
G01 X45.3702 Y14.9776
G01 X45.3014 Y15.1231
G01 X45.2186 Y15.2611
G01 X45.1270 Y15.3850
G01 X45.1182 Y15.3956
G01 X45.0194 Y15.5047
G01 X45.0097 Y15.5144
G01 X44.8954 Y15.6177
G01 X44.7718 Y15.7097
G01 X44.7603 Y15.7173
G01 X44.6341 Y15.7930
G01 X44.6220 Y15.7994
G01 X44.4826 Y15.8652
G01 X44.3311 Y15.9194
G01 X44.1749 Y15.9585
G01 X44.0226 Y15.9813
G01 X44.0089 Y15.9826
G01 X43.8550 Y15.9900
G01 X43.6943 Y15.9821
G01 X43.5418 Y15.9597
G01 X43.5283 Y15.9570
G01 X43.3856 Y15.9212
G01 X43.3724 Y15.9172
G01 X43.2274 Y15.8652
G01 X43.0819 Y15.7964
G01 X42.9439 Y15.7136
G01 X42.8200 Y15.6220
G01 X42.8094 Y15.6132
G01 X42.7003 Y15.5144
G01 X42.6906 Y15.5047
G01 X42.5873 Y15.3904
G01 X42.4914 Y15.2611
G01 X42.4086 Y15.1231
G01 X42.3426 Y14.9839
G01 X42.3374 Y14.9712
G01 X42.2878 Y14.8326
G01 X42.2838 Y14.8194
G01 X42.2465 Y14.6699
G01 X42.2237 Y14.5176
G01 X42.2224 Y14.5039
G01 X42.2152 Y14.3569
G01 X42.2152 Y14.3431
G01 X42.2229 Y14.1893
G01 X42.2465 Y14.0301
G01 X42.2856 Y13.8739
G01 X42.3374 Y13.7288
G01 X42.3426 Y13.7161
G01 X42.4056 Y13.5830
G01 X42.4120 Y13.5709
G01 X42.4914 Y13.4389
G01 X42.5873 Y13.3096
G01 X42.6953 Y13.1903
G01 X42.8094 Y13.0868
G01 X42.8200 Y13.0780
G01 X42.9382 Y12.9903
G01 X42.9467 Y12.9845
G01 X42.9646 Y12.9738
G01 X42.9646 Y6.4000
G01 X41.3781 Y6.3998
G01 X41.3679 Y6.3989
G01 X41.3577 Y6.3973
G01 X41.3510 Y6.3958
G01 X41.3411 Y6.3929
G01 X41.3346 Y6.3906
G01 X41.3251 Y6.3866
G01 X41.3190 Y6.3835
G01 X41.3101 Y6.3783
G01 X41.3016 Y6.3724
G01 X41.2962 Y6.3682
G01 X41.2910 Y6.3637
G01 X41.2836 Y6.3565
G01 X41.2768 Y6.3488
G01 X41.2726 Y6.3434
G01 X41.2667 Y6.3349
G01 X41.2615 Y6.3260
G01 X41.2584 Y6.3199
G01 X41.2544 Y6.3104
G01 X41.2521 Y6.3039
G01 X41.2492 Y6.2940
G01 X41.2477 Y6.2873
G01 X41.2461 Y6.2771
G01 X41.2452 Y6.2669
G01 X41.2450 Y6.2600
G01 X41.2450 Y3.2600
G01 X41.2457 Y3.2463
G01 X41.2465 Y3.2395
G01 X41.2484 Y3.2293
G01 X41.2521 Y3.2161
G01 X41.2583 Y3.2004
M5
G00 X44.4350 Y5.1795
M3
G01 X44.4737 Y5.2222
G01 X44.5205 Y5.2853
G01 X44.5609 Y5.3527
G01 X44.5945 Y5.4237
G01 X44.6209 Y5.4977
G01 X44.6400 Y5.5739
G01 X44.6515 Y5.6515
G01 X44.6554 Y5.7288
G01 X44.6554 Y13.0247
G01 X44.7171 Y13.0619
G01 X44.8374 Y13.1511
G01 X44.9519 Y13.2549
G01 X45.0532 Y13.3667
G01 X45.1424 Y13.4869
G01 X45.2225 Y13.6204
G01 X45.2870 Y13.7568
G01 X45.3375 Y13.8977
G01 X45.3752 Y14.0476
G01 X45.3977 Y14.2005
G01 X45.4050 Y14.3500
G01 X45.3976 Y14.5007
G01 X45.3752 Y14.6524
G01 X45.3383 Y14.7999
G01 X45.2870 Y14.9432
G01 X45.2220 Y15.0807
G01 X45.1438 Y15.2111
G01 X45.0532 Y15.3333
G01 X44.9510 Y15.4460
G01 X44.8383 Y15.5482
G01 X44.7161 Y15.6388
G01 X44.5857 Y15.7170
G01 X44.4482 Y15.7820
G01 X44.3049 Y15.8333
G01 X44.1574 Y15.8702
G01 X44.0069 Y15.8925
G01 X43.8550 Y15.9000
G01 X43.7043 Y15.8926
G01 X43.5502 Y15.8697
G01 X43.4051 Y15.8333
G01 X43.2618 Y15.7820
G01 X43.1243 Y15.7170
G01 X42.9959 Y15.6401
G01 X42.8698 Y15.5466
G01 X42.7590 Y15.4460
G01 X42.6568 Y15.3333
G01 X42.5662 Y15.2111
G01 X42.4892 Y15.0828
G01 X42.4221 Y14.9409
G01 X42.3717 Y14.7999
G01 X42.3348 Y14.6524
G01 X42.3125 Y14.5019
G01 X42.3051 Y14.3525
G01 X42.3125 Y14.1981
G01 X42.3348 Y14.0476
G01 X42.3711 Y13.9024
G01 X42.4235 Y13.7557
G01 X42.4880 Y13.6193
G01 X42.5649 Y13.4909
G01 X42.6576 Y13.3658
G01 X42.7590 Y13.2540
G01 X42.8708 Y13.1526
G01 X42.9929 Y13.0619
G01 X43.0546 Y13.0247
G01 X43.0546 Y6.3100
G01 X41.3838 Y6.3100
G01 X41.3777 Y6.3095
G01 X41.3717 Y6.3082
G01 X41.3659 Y6.3062
G01 X41.3593 Y6.3029
G01 X41.3542 Y6.2994
G01 X41.3488 Y6.2945
G01 X41.3448 Y6.2898
G01 X41.3415 Y6.2846
G01 X41.3388 Y6.2791
G01 X41.3365 Y6.2721
G01 X41.3354 Y6.2661
G01 X41.3350 Y6.2600
G01 X41.3350 Y3.2600
G01 X41.3355 Y3.2527
G01 X41.3372 Y3.2455
G01 X41.3398 Y3.2386
G01 X41.3428 Y3.2333
G01 X41.3463 Y3.2283
G01 X41.3505 Y3.2238
G01 X41.3552 Y3.2198
G01 X41.3604 Y3.2165
G01 X41.3670 Y3.2134
G01 X41.3729 Y3.2115
G01 X41.3789 Y3.2104
G01 X41.3850 Y3.2100
G01 X44.3850 Y3.2100
G01 X44.3923 Y3.2105
G01 X44.3995 Y3.2122
G01 X44.4064 Y3.2148
G01 X44.4117 Y3.2178
G01 X44.4167 Y3.2213
G01 X44.4212 Y3.2255
G01 X44.4259 Y3.2312
G01 X44.4291 Y3.2364
G01 X44.4316 Y3.2420
G01 X44.4335 Y3.2479
G01 X44.4346 Y3.2539
G01 X44.4350 Y3.2600
G01 X44.4350 Y5.1795
M5
G00 X44.5250 Y5.1447
M3
G01 X44.5250 Y3.2600
G01 X44.5243 Y3.2463
G01 X44.5229 Y3.2361
G01 X44.5216 Y3.2293
G01 X44.5179 Y3.2161
G01 X44.5121 Y3.2012
G01 X45.4146 Y4.1038
G01 X45.4146 Y13.8462
G01 X45.3702 Y13.7224
G01 X45.3014 Y13.5769
G01 X45.2186 Y13.4389
G01 X45.1249 Y13.3123
G01 X45.1182 Y13.3044
G01 X45.0147 Y13.1903
G01 X44.9006 Y13.0868
G01 X44.8900 Y13.0780
G01 X44.7718 Y12.9903
G01 X44.7633 Y12.9845
G01 X44.7454 Y12.9738
G01 X44.7453 Y5.7266
G01 X44.7411 Y5.6427
G01 X44.7283 Y5.5563
G01 X44.7070 Y5.4715
G01 X44.6789 Y5.3925
G01 X44.6748 Y5.3830
G01 X44.6402 Y5.3103
G01 X44.5972 Y5.2382
G01 X44.5914 Y5.2297
G01 X44.5454 Y5.1678
G01 X44.5411 Y5.1625
G01 X44.5250 Y5.1447
M5
G00 X47.1053 Y3.7325
M3
G01 X47.1054 Y20.0000
G01 X47.1015 Y20.0785
G01 X47.0900 Y20.1561
G01 X47.0709 Y20.2323
G01 X47.0449 Y20.3052
G01 X47.0109 Y20.3773
G01 X46.9705 Y20.4447
G01 X46.9237 Y20.5078
G01 X46.8710 Y20.5660
G01 X39.3081 Y28.1288
G01 X39.3254 Y28.1988
G01 X39.3474 Y28.3469
G01 X39.3550 Y28.5012
G01 X39.3475 Y28.6519
G01 X39.3256 Y28.8000
G01 X39.2886 Y28.9488
G01 X39.2370 Y29.0932
G01 X39.1708 Y29.2328
G01 X39.0938 Y29.3611
G01 X39.0047 Y29.4814
G01 X38.9010 Y29.5960
G01 X38.7883 Y29.6982
G01 X38.6681 Y29.7874
G01 X38.5357 Y29.8670
G01 X38.3959 Y29.9329
G01 X38.2549 Y29.9833
G01 X38.1074 Y30.0202
G01 X37.9569 Y30.0425
G01 X37.8075 Y30.0499
G01 X37.6531 Y30.0425
G01 X37.5002 Y30.0197
G01 X37.3551 Y29.9833
G01 X37.2130 Y29.9325
G01 X37.0743 Y29.8670
G01 X36.9419 Y29.7874
G01 X36.8217 Y29.6982
G01 X36.7108 Y29.5977
G01 X36.6084 Y29.4852
G01 X36.5162 Y29.3611
G01 X36.4380 Y29.2307
G01 X36.3730 Y29.0932
G01 X36.3211 Y28.9476
G01 X36.2848 Y28.8024
G01 X36.2628 Y28.6544
G01 X36.2551 Y28.5025
G01 X36.2625 Y28.3481
G01 X36.2848 Y28.1976
G01 X36.3217 Y28.0501
G01 X36.3740 Y27.9046
G01 X36.4380 Y27.7693
G01 X36.5149 Y27.6409
G01 X36.6068 Y27.5167
G01 X36.7108 Y27.4023
G01 X36.8217 Y27.3018
G01 X36.9439 Y27.2112
G01 X37.0765 Y27.1319
G01 X37.2118 Y27.0680
G01 X37.3539 Y27.0171
G01 X37.5050 Y26.9794
G01 X37.6531 Y26.9575
G01 X37.8038 Y26.9500
G01 X37.9581 Y26.9576
G01 X38.1062 Y26.9796
G01 X38.1762 Y26.9969
G01 X45.5046 Y19.6685
G01 X45.5046 Y4.0665
G01 X44.5485 Y3.1104
G01 X34.8715 Y3.1104
G01 X33.5931 Y4.3888
G01 X33.6104 Y4.4588
G01 X33.6324 Y4.6069
G01 X33.6400 Y4.7588
G01 X33.6325 Y4.9119
G01 X33.6100 Y5.0636
G01 X33.5725 Y5.2123
G01 X33.5220 Y5.3532
G01 X33.4581 Y5.4885
G01 X33.3788 Y5.6211
G01 X33.2874 Y5.7442
G01 X33.1860 Y5.8560
G01 X33.0714 Y5.9597
G01 X32.9491 Y6.0501
G01 X32.8207 Y6.1270
G01 X32.6854 Y6.1910
G01 X32.5399 Y6.2433
G01 X32.3924 Y6.2802
G01 X32.2419 Y6.3025
G01 X32.0900 Y6.3100
G01 X31.9356 Y6.3022
G01 X31.7876 Y6.2802
G01 X31.6424 Y6.2439
G01 X31.4968 Y6.1920
G01 X31.3593 Y6.1270
G01 X31.2269 Y6.0474
G01 X31.1067 Y5.9582
G01 X30.9958 Y5.8577
G01 X30.8918 Y5.7433
G01 X30.8012 Y5.6211
G01 X30.7219 Y5.4885
G01 X30.6580 Y5.3532
G01 X30.6075 Y5.2123
G01 X30.5698 Y5.0624
G01 X30.5475 Y4.9119
G01 X30.5400 Y4.7600
G01 X30.5478 Y4.6056
G01 X30.5698 Y4.4576
G01 X30.6061 Y4.3124
G01 X30.6575 Y4.1680
G01 X30.7230 Y4.0293
G01 X30.8012 Y3.8989
G01 X30.8918 Y3.7767
G01 X30.9923 Y3.6658
G01 X31.1086 Y3.5603
G01 X31.2289 Y3.4712
G01 X31.3604 Y3.3925
G01 X31.4968 Y3.3280
G01 X31.6401 Y3.2767
G01 X31.7876 Y3.2398
G01 X31.9369 Y3.2176
G01 X32.0900 Y3.2100
G01 X32.2407 Y3.2174
G01 X32.3912 Y3.2396
G01 X32.4612 Y3.2569
G01 X33.9740 Y1.7440
G01 X34.0322 Y1.6913
G01 X34.0953 Y1.6445
G01 X34.1606 Y1.6053
G01 X34.2360 Y1.5697
G01 X34.3077 Y1.5441
G01 X34.3839 Y1.5250
G01 X34.4615 Y1.5135
G01 X34.5388 Y1.5096
G01 X44.8800 Y1.5096
G01 X44.9585 Y1.5135
G01 X45.0349 Y1.5248
G01 X45.1147 Y1.5449
G01 X45.1863 Y1.5705
G01 X45.2551 Y1.6030
G01 X45.3247 Y1.6445
G01 X45.3896 Y1.6929
G01 X45.4460 Y1.7440
G01 X46.8718 Y3.1699
G01 X46.9237 Y3.2272
G01 X46.9705 Y3.2903
G01 X47.0109 Y3.3577
G01 X47.0445 Y3.4287
G01 X47.0709 Y3.5027
G01 X47.0900 Y3.5789
G01 X47.1015 Y3.6565
G01 X47.1053 Y3.7325
M5
G00 X47.7750 Y0.5050
M3
G01 X47.7750 Y32.5100
G01 X0.5300 Y32.5100
G01 X0.5300 Y0.5050
G01 X47.7750 Y0.5050
M5
G00 X47.8650 Y0.4150
M3
G01 X47.8650 Y32.6000
G01 X0.4400 Y32.6000
G01 X0.4400 Y0.4150
G01 X47.8650 Y0.4150
M5
G00 X48.0650 Y0.3125
M3
G01 X48.0650 Y32.7000
G01 X48.0642 Y32.7122
G01 X48.0631 Y32.7195
G01 X48.0614 Y32.7267
G01 X48.0579 Y32.7371
G01 X48.0532 Y32.7472
G01 X48.0468 Y32.7576
G01 X48.0423 Y32.7635
G01 X48.0374 Y32.7690
G01 X48.0294 Y32.7765
G01 X48.0206 Y32.7832
G01 X48.0100 Y32.7893
G01 X48.0033 Y32.7924
G01 X47.9940 Y32.7957
G01 X47.9845 Y32.7981
G01 X47.9772 Y32.7992
G01 X47.9650 Y32.8000
G01 X0.3400 Y32.8000
G01 X0.3278 Y32.7992
G01 X0.3205 Y32.7981
G01 X0.3133 Y32.7964
G01 X0.3029 Y32.7929
G01 X0.2928 Y32.7882
G01 X0.2824 Y32.7818
G01 X0.2765 Y32.7773
G01 X0.2710 Y32.7724
G01 X0.2635 Y32.7644
G01 X0.2568 Y32.7556
G01 X0.2507 Y32.7450
G01 X0.2476 Y32.7383
G01 X0.2443 Y32.7290
G01 X0.2419 Y32.7195
G01 X0.2408 Y32.7122
G01 X0.2400 Y32.7000
G01 X0.2400 Y0.3150
G01 X0.2408 Y0.3028
G01 X0.2419 Y0.2955
G01 X0.2436 Y0.2883
G01 X0.2471 Y0.2779
G01 X0.2518 Y0.2678
G01 X0.2582 Y0.2574
G01 X0.2627 Y0.2515
G01 X0.2676 Y0.2460
G01 X0.2756 Y0.2385
G01 X0.2844 Y0.2318
G01 X0.2950 Y0.2257
G01 X0.3017 Y0.2226
G01 X0.3110 Y0.2193
G01 X0.3205 Y0.2169
G01 X0.3278 Y0.2158
G01 X0.3400 Y0.2150
G01 X47.9650 Y0.2150
G01 X47.9748 Y0.2155
G01 X47.9845 Y0.2169
G01 X47.9940 Y0.2193
G01 X48.0033 Y0.2226
G01 X48.0122 Y0.2268
G01 X48.0206 Y0.2318
G01 X48.0285 Y0.2377
G01 X48.0357 Y0.2443
G01 X48.0423 Y0.2515
G01 X48.0482 Y0.2594
G01 X48.0532 Y0.2678
G01 X48.0574 Y0.2767
G01 X48.0607 Y0.2860
G01 X48.0631 Y0.2955
G01 X48.0645 Y0.3052
G01 X48.0650 Y0.3125
M5
G00 X48.1549 Y0.3081
M3
G01 X48.1550 Y32.7000
G01 X48.1546 Y32.7118
G01 X48.1537 Y32.7220
G01 X48.1514 Y32.7371
G01 X48.1487 Y32.7485
G01 X48.1458 Y32.7584
G01 X48.1418 Y32.7695
G01 X48.1378 Y32.7790
G01 X48.1326 Y32.7896
G01 X48.1267 Y32.7998
G01 X48.1211 Y32.8084
G01 X48.1140 Y32.8179
G01 X48.1074 Y32.8258
G01 X48.0994 Y32.8344
G01 X48.0882 Y32.8447
G01 X48.0801 Y32.8511
G01 X48.0706 Y32.8580
G01 X48.0576 Y32.8659
G01 X48.0484 Y32.8707
G01 X48.0345 Y32.8768
G01 X48.0202 Y32.8818
G01 X48.0054 Y32.8857
G01 X47.9904 Y32.8883
G01 X47.9802 Y32.8894
G01 X47.9650 Y32.8900
G01 X0.3400 Y32.8900
G01 X0.3282 Y32.8896
G01 X0.3180 Y32.8887
G01 X0.3029 Y32.8864
G01 X0.2915 Y32.8837
G01 X0.2816 Y32.8808
G01 X0.2705 Y32.8768
G01 X0.2610 Y32.8728
G01 X0.2504 Y32.8676
G01 X0.2402 Y32.8617
G01 X0.2316 Y32.8561
G01 X0.2221 Y32.8490
G01 X0.2142 Y32.8424
G01 X0.2056 Y32.8344
G01 X0.1953 Y32.8232
G01 X0.1889 Y32.8151
G01 X0.1820 Y32.8056
G01 X0.1741 Y32.7926
G01 X0.1693 Y32.7834
G01 X0.1632 Y32.7695
G01 X0.1582 Y32.7552
G01 X0.1543 Y32.7404
G01 X0.1517 Y32.7254
G01 X0.1506 Y32.7152
G01 X0.1500 Y32.7000
G01 X0.1500 Y0.3150
G01 X0.1504 Y0.3032
G01 X0.1513 Y0.2930
G01 X0.1536 Y0.2779
G01 X0.1563 Y0.2665
G01 X0.1592 Y0.2566
G01 X0.1632 Y0.2455
G01 X0.1672 Y0.2360
G01 X0.1724 Y0.2254
G01 X0.1783 Y0.2152
G01 X0.1839 Y0.2066
G01 X0.1910 Y0.1971
G01 X0.1976 Y0.1892
G01 X0.2056 Y0.1806
G01 X0.2168 Y0.1703
G01 X0.2249 Y0.1639
G01 X0.2344 Y0.1570
G01 X0.2474 Y0.1491
G01 X0.2566 Y0.1443
G01 X0.2705 Y0.1382
G01 X0.2848 Y0.1332
G01 X0.2996 Y0.1293
G01 X0.3146 Y0.1267
G01 X0.3248 Y0.1256
G01 X0.3400 Y0.1250
G01 X47.9650 Y0.1250
G01 X47.9836 Y0.1259
G01 X48.0021 Y0.1286
G01 X48.0202 Y0.1332
G01 X48.0377 Y0.1394
G01 X48.0546 Y0.1474
G01 X48.0706 Y0.1570
G01 X48.0856 Y0.1681
G01 X48.0969 Y0.1782
G01 X48.1097 Y0.1918
G01 X48.1211 Y0.2066
G01 X48.1309 Y0.2224
G01 X48.1392 Y0.2391
G01 X48.1458 Y0.2566
G01 X48.1507 Y0.2746
G01 X48.1537 Y0.2930
G01 X48.1549 Y0.3081
M5
G00 X30.2551 Y14.3025
M3
G01 X30.2625 Y14.1481
G01 X30.2848 Y13.9976
G01 X30.3217 Y13.8501
G01 X30.3730 Y13.7068
G01 X30.4380 Y13.5693
G01 X30.5162 Y13.4389
G01 X30.6068 Y13.3167
G01 X30.7090 Y13.2040
G01 X30.8217 Y13.1018
G01 X30.9439 Y13.0112
G01 X31.0743 Y12.9330
G01 X31.2118 Y12.8680
G01 X31.3551 Y12.8167
G01 X31.5026 Y12.7798
G01 X31.6531 Y12.7575
G01 X31.8050 Y12.7500
G01 X31.9569 Y12.7575
G01 X32.1074 Y12.7798
G01 X32.2549 Y12.8167
G01 X32.3982 Y12.8680
G01 X32.5357 Y12.9330
G01 X32.6661 Y13.0112
G01 X32.7883 Y13.1018
G01 X32.9010 Y13.2040
G01 X33.0032 Y13.3167
G01 X33.0938 Y13.4389
G01 X33.1720 Y13.5693
G01 X33.2370 Y13.7068
G01 X33.2883 Y13.8501
G01 X33.3252 Y13.9976
G01 X33.3475 Y14.1481
G01 X33.3550 Y14.3000
G01 X33.3475 Y14.4519
G01 X33.3252 Y14.6024
G01 X33.2883 Y14.7499
G01 X33.2370 Y14.8932
G01 X33.1720 Y15.0307
G01 X33.0938 Y15.1611
G01 X33.0032 Y15.2833
G01 X32.9010 Y15.3960
G01 X32.7883 Y15.4982
G01 X32.6661 Y15.5888
G01 X32.5357 Y15.6670
G01 X32.3982 Y15.7320
G01 X32.2549 Y15.7833
G01 X32.1074 Y15.8202
G01 X31.9569 Y15.8425
G01 X31.8050 Y15.8500
G01 X31.6531 Y15.8425
G01 X31.5026 Y15.8202
G01 X31.3551 Y15.7833
G01 X31.2118 Y15.7320
G01 X31.0743 Y15.6670
G01 X30.9439 Y15.5888
G01 X30.8217 Y15.4982
G01 X30.7090 Y15.3960
G01 X30.6068 Y15.2833
G01 X30.5162 Y15.1611
G01 X30.4380 Y15.0307
G01 X30.3730 Y14.8932
G01 X30.3217 Y14.7499
G01 X30.2848 Y14.6024
G01 X30.2625 Y14.4519
G01 X30.2551 Y14.3025
M5
G00 X33.1648 Y26.0891
M3
G01 X33.1392 Y26.0181
G01 X33.1070 Y25.9497
G01 X33.1648 Y26.0075
G01 X33.1648 Y26.0891
M5
G00 X28.0877 Y31.0598
M3
G01 X28.1080 Y31.0472
G01 X28.1450 Y31.0197
G01 X28.1529 Y31.0131
G01 X28.1870 Y30.9820
G01 X31.3316 Y27.8374
G01 X31.4515 Y27.8801
G01 X31.5838 Y27.9133
G01 X31.7188 Y27.9333
G01 X31.8550 Y27.9400
G01 X31.9912 Y27.9333
G01 X32.1262 Y27.9133
G01 X32.2585 Y27.8801
G01 X32.3805 Y27.8367
G01 X32.3901 Y27.8328
G01 X32.5102 Y27.7759
G01 X32.6272 Y27.7057
G01 X32.7368 Y27.6245
G01 X32.8329 Y27.5376
G01 X32.8403 Y27.5304
G01 X32.9295 Y27.4318
G01 X33.0068 Y27.3279
G01 X33.0126 Y27.3194
G01 X33.0775 Y27.2112
G01 X33.0825 Y27.2022
G01 X33.1378 Y27.0851
G01 X33.1417 Y27.0755
G01 X33.1648 Y27.0109
G01 X33.1648 Y29.5912
G01 X31.6962 Y31.0598
G01 X28.0877 Y31.0598
M5
G00 X8.6746 Y28.1197
M3
G01 X8.6746 Y28.3734
G01 X8.6750 Y28.3803
G01 X8.6761 Y28.3905
G01 X8.6780 Y28.4007
G01 X8.6796 Y28.4073
G01 X8.6828 Y28.4172
G01 X8.6866 Y28.4267
G01 X8.6911 Y28.4360
G01 X8.6945 Y28.4420
G01 X8.7001 Y28.4506
G01 X8.7042 Y28.4561
G01 X8.7086 Y28.4614
G01 X8.7156 Y28.4690
G01 X8.7231 Y28.4760
G01 X8.7284 Y28.4804
G01 X8.7340 Y28.4845
G01 X8.7426 Y28.4901
G01 X8.7516 Y28.4951
G01 X8.7610 Y28.4993
G01 X8.7707 Y28.5029
G01 X8.7772 Y28.5049
G01 X8.7839 Y28.5066
G01 X8.7940 Y28.5085
G01 X8.8043 Y28.5096
G01 X8.8146 Y28.5100
G01 X9.8680 Y28.5100
G01 X9.8817 Y28.5089
G01 X9.8953 Y28.5066
G01 X9.9085 Y28.5029
G01 X9.9213 Y28.4980
G01 X9.9336 Y28.4918
G01 X9.9424 Y28.4864
G01 X9.9534 Y28.4782
G01 X9.9636 Y28.4690
G01 X9.9728 Y28.4588
G01 X9.9810 Y28.4478
G01 X9.9864 Y28.4390
G01 X9.9926 Y28.4267
G01 X9.9975 Y28.4139
G01 X10.0012 Y28.4007
G01 X10.0035 Y28.3871
G01 X10.0044 Y28.3769
G01 X10.0046 Y27.7190
G01 X10.8867 Y26.8366
G01 X10.9154 Y26.8049
G01 X10.9218 Y26.7969
G01 X10.9492 Y26.7597
G01 X10.9730 Y26.7202
G01 X10.9795 Y26.7081
G01 X10.9991 Y26.6663
G01 X11.0159 Y26.6197
G01 X11.0188 Y26.6098
G01 X11.0283 Y26.5717
G01 X11.0310 Y26.5582
G01 X11.0376 Y26.5125
G01 X11.0402 Y26.4630
G01 X11.0402 Y25.2135
G01 X11.0963 Y25.1716
G01 X11.1647 Y25.1097
G01 X11.2266 Y25.0413
G01 X11.2685 Y24.9852
G01 X11.7734 Y24.9852
G01 X11.8229 Y24.9826
G01 X11.8686 Y24.9760
G01 X11.8821 Y24.9733
G01 X11.9202 Y24.9638
G01 X11.9301 Y24.9609
G01 X11.9767 Y24.9441
G01 X12.0185 Y24.9245
G01 X12.0306 Y24.9180
G01 X12.0701 Y24.8942
G01 X12.1073 Y24.8668
G01 X12.1179 Y24.8581
G01 X12.1520 Y24.8270
G01 X17.2320 Y19.7470
G01 X17.2631 Y19.7129
G01 X17.2697 Y19.7050
G01 X17.2972 Y19.6680
G01 X17.3098 Y19.6477
G01 X17.3098 Y22.5512
G01 X14.5984 Y25.2626
G01 X14.4785 Y25.2199
G01 X14.3529 Y25.1882
G01 X14.3394 Y25.1855
G01 X14.2112 Y25.1667
G01 X14.0819 Y25.1602
G01 X14.0681 Y25.1602
G01 X13.9388 Y25.1667
G01 X13.8106 Y25.1855
G01 X13.7971 Y25.1882
G01 X13.6715 Y25.2199
G01 X13.5495 Y25.2633
G01 X13.5368 Y25.2686
G01 X13.4198 Y25.3241
G01 X13.3086 Y25.3906
G01 X13.2971 Y25.3982
G01 X13.1986 Y25.4713
G01 X13.1906 Y25.4777
G01 X13.0921 Y25.5671
G01 X13.0050 Y25.6630
G01 X12.9963 Y25.6736
G01 X12.9232 Y25.7721
G01 X12.9156 Y25.7836
G01 X12.8491 Y25.8948
G01 X12.7936 Y26.0118
G01 X12.7883 Y26.0245
G01 X12.7449 Y26.1465
G01 X12.7117 Y26.2788
G01 X12.6917 Y26.4138
G01 X12.6852 Y26.5431
G01 X12.6852 Y26.5569
G01 X12.6917 Y26.6862
G01 X12.7105 Y26.8144
G01 X12.7132 Y26.8279
G01 X12.7430 Y26.9469
G01 X12.7470 Y26.9600
G01 X12.7908 Y27.0819
G01 X12.8460 Y27.1991
G01 X12.8525 Y27.2112
G01 X12.9193 Y27.3222
G01 X13.0005 Y27.4318
G01 X13.0921 Y27.5329
G01 X13.1906 Y27.6223
G01 X13.1986 Y27.6287
G01 X13.2971 Y27.7018
G01 X13.3086 Y27.7094
G01 X13.4198 Y27.7759
G01 X13.5368 Y27.8314
G01 X13.5495 Y27.8367
G01 X13.6715 Y27.8801
G01 X13.7971 Y27.9118
G01 X13.8106 Y27.9145
