( Modified by me to make it a laser marking gcode not milling )
(G-CODE GENERATED BY FLATCAM v8.994 - www.flatcam.org - Version Date: 2020/11/7)

(Name: PSU controller-B_Cu.gbr_iso_combined_cnc)
(Type: G-code from Geometry)
(Units: MM)

(Created on Saturday, 15 July 2023 at 15:32)

(This preprocessor is the default preprocessor used by FlatCAM.)
(It is made to work with MACH3 compatible motion controllers.)

(TOOL DIAMETER: 0.1 mm)
(Feedrate_XY: 600.0 mm/min)
(Feedrate_Z: 60.0 mm/min)
(Feedrate rapids 1500.0 mm/min)

(Z_Cut: 0.0 mm)
(Z_Move: 2.0 mm)
(Z Start: None mm)
(Z End: 0.0 mm)
(X,Y End: 0.0000, 0.0000 mm)
(Steps per circle: 64)
(Preprocessor Geometry: default)

(X range:    0.2400 ...   48.0650  mm)
(Y range:    0.2150 ...   32.8000  mm)

(Spindle Speed: 0.0 RPM)
G21
G90
G94

G01 F600
S150
G00 Z16

G00 X3.1695 Y10.2038
M3
G01 X4.6125 Y8.7608
G01 X4.6061 Y8.7346
G01 X4.5940 Y8.6521
G01 X4.5900 Y8.5700
G01 X4.5940 Y8.4879
G01 X4.6069 Y8.4018
G01 X4.6266 Y8.3233
G01 X4.6547 Y8.2447
G01 X4.6904 Y8.1693
G01 X4.7319 Y8.0998
G01 X4.7837 Y8.0298
G01 X4.8390 Y7.9690
G01 X4.8998 Y7.9137
G01 X4.9668 Y7.8639
G01 X4.9898 Y7.8500
G01 X4.9898 Y6.2700
G01 X4.5751 Y6.2698
G01 X4.5667 Y6.2682
G01 X4.5586 Y6.2652
G01 X4.5512 Y6.2609
G01 X4.5446 Y6.2554
G01 X4.5398 Y6.2498
G01 X4.5353 Y6.2425
G01 X4.5322 Y6.2345
G01 X4.5304 Y6.2261
G01 X4.5300 Y6.2200
G01 X4.5300 Y4.5200
G01 X4.5305 Y4.5127
G01 X4.5322 Y4.5055
G01 X4.5343 Y4.4997
G01 X4.5378 Y4.4933
G01 X4.5413 Y4.4883
G01 X4.5455 Y4.4838
G01 X4.5502 Y4.4798
G01 X4.5554 Y4.4765
G01 X4.5609 Y4.4738
G01 X4.5667 Y4.4718
G01 X4.5727 Y4.4705
G01 X4.5788 Y4.4700
G01 X5.6933 Y4.4700
G01 X8.2617 Y1.9017
G01 X8.2944 Y1.8720
G01 X8.3289 Y1.8464
G01 X8.3700 Y1.8219
G01 X8.4077 Y1.8041
G01 X8.4493 Y1.7892
G01 X8.4922 Y1.7785
G01 X8.5334 Y1.7723
G01 X8.5800 Y1.7698
G01 X15.0892 Y1.7698
G01 X15.1358 Y1.7723
G01 X15.1770 Y1.7785
G01 X15.2175 Y1.7885
G01 X15.2615 Y1.8041
G01 X15.3025 Y1.8236
G01 X15.3393 Y1.8457
G01 X15.3729 Y1.8705
G01 X15.4076 Y1.9017
G01 X18.1692 Y4.6633
G01 X18.1980 Y4.6952
G01 X18.2229 Y4.7287
G01 X18.2481 Y4.7708
G01 X18.2659 Y4.8085
G01 X18.2808 Y4.8501
G01 X18.2916 Y4.8930
G01 X18.2977 Y4.9342
G01 X18.3002 Y4.9808
G01 X18.3002 Y22.7750
G01 X18.2980 Y22.8191
G01 X18.2916 Y22.8628
G01 X18.2808 Y22.9057
G01 X18.2659 Y22.9473
G01 X18.2470 Y22.9872
G01 X18.2243 Y23.0251
G01 X18.1980 Y23.0606
G01 X18.1692 Y23.0925
G01 X15.2546 Y26.0071
G01 X15.2765 Y26.0537
G01 X15.3187 Y26.1715
G01 X15.3498 Y26.2952
G01 X15.3687 Y26.4226
G01 X15.3750 Y26.5500
G01 X15.3687 Y26.6774
G01 X15.3498 Y26.8048
G01 X15.3187 Y26.9285
G01 X15.2765 Y27.0463
G01 X15.2546 Y27.0929
G01 X18.3115 Y30.1498
G01 X27.6185 Y30.1498
G01 X30.6754 Y27.0929
G01 X30.6535 Y27.0463
G01 X30.6113 Y26.9285
G01 X30.5802 Y26.8048
G01 X30.5613 Y26.6774
G01 X30.5550 Y26.5488
G01 X30.5616 Y26.4201
G01 X30.5800 Y26.2964
G01 X30.6103 Y26.1750
G01 X30.6540 Y26.0525
G01 X30.7079 Y25.9383
G01 X30.7741 Y25.8278
G01 X30.8501 Y25.7253
G01 X30.9358 Y25.6308
G01 X31.0322 Y25.5436
G01 X31.1348 Y25.4678
G01 X31.2422 Y25.4035
G01 X31.3553 Y25.3500
G01 X31.4776 Y25.3060
G01 X31.6014 Y25.2750
G01 X31.7276 Y25.2563
G01 X31.8525 Y25.2501
G01 X31.9824 Y25.2563
G01 X32.1086 Y25.2750
G01 X32.2300 Y25.3053
G01 X32.3525 Y25.3490
G01 X32.4678 Y25.4035
G01 X32.5752 Y25.4678
G01 X32.6797 Y25.5451
G01 X32.7759 Y25.6325
G01 X32.8599 Y25.7253
G01 X32.9345 Y25.8258
G01 X33.0026 Y25.9394
G01 X33.0560 Y26.0525
G01 X33.0983 Y26.1703
G01 X33.1300 Y26.2964
G01 X33.1489 Y26.4250
G01 X33.1550 Y26.5500
G01 X33.1489 Y26.6750
G01 X33.1300 Y26.8036
G01 X33.0990 Y26.9274
G01 X33.0569 Y27.0452
G01 X33.0009 Y27.1639
G01 X32.9359 Y27.2722
G01 X32.8599 Y27.3747
G01 X32.7742 Y27.4692
G01 X32.6797 Y27.5549
G01 X32.5772 Y27.6309
G01 X32.4678 Y27.6965
G01 X32.3525 Y27.7510
G01 X32.2335 Y27.7937
G01 X32.1086 Y27.8250
G01 X31.9824 Y27.8437
G01 X31.8550 Y27.8500
G01 X31.7288 Y27.8438
G01 X31.6014 Y27.8250
G01 X31.4788 Y27.7944
G01 X31.3587 Y27.7515
G01 X31.3121 Y27.7296
G01 X28.1225 Y30.9192
G01 X28.0906 Y30.9480
G01 X28.0551 Y30.9743
G01 X28.0172 Y30.9970
G01 X27.9773 Y31.0159
G01 X27.9357 Y31.0308
G01 X27.8928 Y31.0415
G01 X27.8491 Y31.0480
G01 X27.8050 Y31.0502
G01 X18.1250 Y31.0502
G01 X18.0784 Y31.0477
G01 X18.0372 Y31.0415
G01 X17.9967 Y31.0315
G01 X17.9527 Y31.0159
G01 X17.9106 Y30.9958
G01 X17.8749 Y30.9743
G01 X17.8413 Y30.9495
G01 X17.8067 Y30.9183
G01 X14.6179 Y27.7296
G01 X14.5713 Y27.7515
G01 X14.4512 Y27.7944
G01 X14.3286 Y27.8250
G01 X14.2012 Y27.8438
G01 X14.0750 Y27.8500
G01 X13.9476 Y27.8437
G01 X13.8214 Y27.8250
G01 X13.6988 Y27.7944
G01 X13.5775 Y27.7510
G01 X13.4644 Y27.6976
G01 X13.3508 Y27.6295
G01 X13.2503 Y27.5549
G01 X13.1558 Y27.4692
G01 X13.0701 Y27.3747
G01 X12.9955 Y27.2742
G01 X12.9285 Y27.1628
G01 X12.8750 Y27.0497
G01 X12.8303 Y26.9250
G01 X12.8000 Y26.8036
G01 X12.7813 Y26.6774
G01 X12.7750 Y26.5500
G01 X12.7813 Y26.4226
G01 X12.8000 Y26.2964
G01 X12.8303 Y26.1750
G01 X12.8750 Y26.0503
G01 X12.9285 Y25.9372
G01 X12.9941 Y25.8278
G01 X13.0701 Y25.7253
G01 X13.1549 Y25.6316
G01 X13.2522 Y25.5436
G01 X13.3528 Y25.4691
G01 X13.4622 Y25.4035
G01 X13.5775 Y25.3490
G01 X13.6953 Y25.3067
G01 X13.8226 Y25.2748
G01 X13.9476 Y25.2563
G01 X14.0725 Y25.2501
G01 X14.2036 Y25.2564
G01 X14.3286 Y25.2750
G01 X14.4512 Y25.3056
G01 X14.5713 Y25.3485
G01 X14.6179 Y25.3704
G01 X17.3998 Y22.5885
G01 X17.3998 Y5.1673
G01 X14.9027 Y2.6702
G01 X8.7665 Y2.6702
G01 X6.3300 Y5.1067
G01 X6.3300 Y6.2200
G01 X6.3290 Y6.2298
G01 X6.3266 Y6.2380
G01 X6.3235 Y6.2446
G01 X6.3194 Y6.2508
G01 X6.3154 Y6.2554
G01 X6.3098 Y6.2602
G01 X6.3036 Y6.2641
G01 X6.2968 Y6.2671
G01 X6.2910 Y6.2688
G01 X6.2837 Y6.2699
G01 X5.8902 Y6.2700
G01 X5.8902 Y7.8500
G01 X5.9132 Y7.8639
G01 X5.9802 Y7.9137
G01 X6.0410 Y7.9690
G01 X6.0963 Y8.0298
G01 X6.1481 Y8.0998
G01 X6.1896 Y8.1693
G01 X6.2253 Y8.2447
G01 X6.2534 Y8.3233
G01 X6.2731 Y8.4018
G01 X6.2860 Y8.4879
G01 X6.2900 Y8.5700
G01 X6.2860 Y8.6521
G01 X6.2739 Y8.7346
G01 X6.2675 Y8.7608
G01 X7.6442 Y10.1375
G01 X7.6730 Y10.1694
G01 X7.6993 Y10.2049
G01 X7.7220 Y10.2428
G01 X7.7414 Y10.2839
G01 X7.7558 Y10.3243
G01 X7.7665 Y10.3672
G01 X7.7730 Y10.4109
G01 X7.7752 Y10.4538
G01 X7.7752 Y12.1650
G01 X8.1299 Y12.1652
G01 X8.1371 Y12.1665
G01 X8.1441 Y12.1688
G01 X8.1517 Y12.1728
G01 X8.1577 Y12.1771
G01 X8.1629 Y12.1823
G01 X8.1672 Y12.1883
G01 X8.1707 Y12.1947
G01 X8.1735 Y12.2029
G01 X8.1746 Y12.2089
G01 X8.1750 Y12.2150
G01 X8.1750 Y13.8150
G01 X8.1743 Y13.8235
G01 X8.1716 Y13.8330
G01 X8.1672 Y13.8417
G01 X8.1620 Y13.8486
G01 X8.1558 Y13.8544
G01 X8.1475 Y13.8597
G01 X8.1395 Y13.8628
G01 X8.1311 Y13.8646
G01 X8.1250 Y13.8650
G01 X7.7752 Y13.8650
G01 X7.7752 Y14.9150
G01 X7.7732 Y14.9567
G01 X7.7665 Y15.0028
G01 X7.7550 Y15.0480
G01 X7.7409 Y15.0873
G01 X7.7231 Y15.1250
G01 X7.6986 Y15.1661
G01 X7.6730 Y15.2006
G01 X7.6433 Y15.2333
G01 X6.2200 Y16.6567
G01 X6.2200 Y17.5712
G01 X6.2193 Y17.5785
G01 X6.2175 Y17.5857
G01 X6.2147 Y17.5925
G01 X6.2109 Y17.5988
G01 X6.2062 Y17.6045
G01 X6.2017 Y17.6087
G01 X6.1957 Y17.6129
G01 X6.1891 Y17.6162
G01 X6.1798 Y17.6190
G01 X6.1700 Y17.6200
G01 X4.6700 Y17.6200
G01 X4.6602 Y17.6190
G01 X4.6509 Y17.6162
G01 X4.6422 Y17.6116
G01 X4.6346 Y17.6054
G01 X4.6284 Y17.5978
G01 X4.6238 Y17.5891
G01 X4.6210 Y17.5798
G01 X4.6200 Y17.5700
G01 X4.6202 Y16.0651
G01 X4.6218 Y16.0567
G01 X4.6248 Y16.0486
G01 X4.6298 Y16.0402
G01 X4.6355 Y16.0338
G01 X4.6433 Y16.0278
G01 X4.6509 Y16.0238
G01 X4.6590 Y16.0212
G01 X4.6675 Y16.0201
G01 X5.5833 Y16.0200
G01 X6.8748 Y14.7285
G01 X6.8748 Y13.8650
G01 X6.5201 Y13.8648
G01 X6.5117 Y13.8632
G01 X6.5036 Y13.8602
G01 X6.4962 Y13.8559
G01 X6.4905 Y13.8512
G01 X6.4848 Y13.8448
G01 X6.4803 Y13.8375
G01 X6.4775 Y13.8307
G01 X6.4755 Y13.8223
G01 X6.4750 Y13.8150
G01 X6.4750 Y12.2150
G01 X6.4757 Y12.2065
G01 X6.4784 Y12.1970
G01 X6.4828 Y12.1883
G01 X6.4880 Y12.1814
G01 X6.4952 Y12.1748
G01 X6.5025 Y12.1703
G01 X6.5105 Y12.1672
G01 X6.5189 Y12.1654
G01 X6.5250 Y12.1650
G01 X6.8748 Y12.1650
G01 X6.8748 Y10.6415
G01 X5.6308 Y9.3975
G01 X5.6046 Y9.4039
G01 X5.5245 Y9.4158
G01 X5.4400 Y9.4200
G01 X5.3555 Y9.4158
G01 X5.2754 Y9.4039
G01 X5.2492 Y9.3975
G01 X3.8804 Y10.7663
G01 X3.8856 Y10.7777
G01 X3.9167 Y10.8656
G01 X3.9387 Y10.9537
G01 X3.9524 Y11.0459
G01 X3.9569 Y11.1415
G01 X3.9524 Y11.2321
G01 X3.9387 Y11.3243
G01 X3.9161 Y11.4148
G01 X3.8856 Y11.5003
G01 X3.8448 Y11.5868
G01 X3.7955 Y11.6688
G01 X3.7414 Y11.7417
G01 X3.6804 Y11.8090
G01 X3.6097 Y11.8734
G01 X3.5327 Y11.9302
G01 X3.4548 Y11.9768
G01 X3.3728 Y12.0157
G01 X3.2828 Y12.0481
G01 X3.1923 Y12.0707
G01 X3.0977 Y12.0846
G01 X3.0070 Y12.0890
G01 X2.9163 Y12.0846
G01 X2.8229 Y12.0710
G01 X2.7312 Y12.0481
G01 X2.6435 Y12.0167
G01 X2.5592 Y11.9768
G01 X2.4792 Y11.9289
G01 X2.4043 Y11.8734
G01 X2.3352 Y11.8108
G01 X2.2726 Y11.7417
G01 X2.2171 Y11.6668
G01 X2.1692 Y11.5868
G01 X2.1293 Y11.5025
G01 X2.0979 Y11.4148
G01 X2.0753 Y11.3243
G01 X2.0616 Y11.2321
G01 X2.0570 Y11.1390
G01 X2.0616 Y11.0459
G01 X2.0750 Y10.9549
G01 X2.0979 Y10.8632
G01 X2.1293 Y10.7755
G01 X2.1692 Y10.6912
G01 X2.2171 Y10.6112
G01 X2.2726 Y10.5363
G01 X2.3352 Y10.4672
G01 X2.4043 Y10.4046
G01 X2.4782 Y10.3498
G01 X2.5592 Y10.3012
G01 X2.6435 Y10.2613
G01 X2.7312 Y10.2299
G01 X2.8217 Y10.2073
G01 X2.9139 Y10.1936
G01 X3.0070 Y10.1890
G01 X3.1001 Y10.1936
G01 X3.1695 Y10.2038
M5
G00 X3.9070 Y12.7290
M3
G01 X3.9155 Y12.7297
G01 X3.9250 Y12.7324
G01 X3.9337 Y12.7368
G01 X3.9415 Y12.7428
G01 X3.9479 Y12.7502
G01 X3.9527 Y12.7587
G01 X3.9558 Y12.7680
G01 X3.9570 Y12.7778
G01 X3.9570 Y14.5790
G01 X3.9565 Y14.5863
G01 X3.9548 Y14.5935
G01 X3.9522 Y14.6004
G01 X3.9479 Y14.6078
G01 X3.9432 Y14.6135
G01 X3.9378 Y14.6184
G01 X3.9316 Y14.6225
G01 X3.9250 Y14.6256
G01 X3.9180 Y14.6278
G01 X3.9095 Y14.6289
G01 X3.3302 Y14.6290
G01 X3.3302 Y16.1050
G01 X3.3532 Y16.1189
G01 X3.4202 Y16.1687
G01 X3.4810 Y16.2240
G01 X3.5363 Y16.2848
G01 X3.5867 Y16.3528
G01 X3.6284 Y16.4222
G01 X3.6658 Y16.5009
G01 X3.6934 Y16.5783
G01 X3.7131 Y16.6568
G01 X3.7261 Y16.7441
G01 X3.7300 Y16.8250
G01 X3.7259 Y16.9083
G01 X3.7137 Y16.9908
G01 X3.6941 Y17.0694
G01 X3.6653 Y17.1503
G01 X3.6296 Y17.2257
G01 X3.5867 Y17.2972
G01 X3.5371 Y17.3642
G01 X3.4810 Y17.4260
G01 X3.4192 Y17.4821
G01 X3.3522 Y17.5317
G01 X3.2807 Y17.5746
G01 X3.2053 Y17.6103
G01 X3.1267 Y17.6384
G01 X3.0458 Y17.6587
G01 X2.9633 Y17.6709
G01 X2.8800 Y17.6750
G01 X2.7967 Y17.6709
G01 X2.7142 Y17.6587
G01 X2.6356 Y17.6391
G01 X2.5525 Y17.6093
G01 X2.4793 Y17.5746
G01 X2.4078 Y17.5317
G01 X2.3389 Y17.4805
G01 X2.2790 Y17.4260
G01 X2.2229 Y17.3642
G01 X2.1733 Y17.2972
G01 X2.1316 Y17.2278
G01 X2.0947 Y17.1503
G01 X2.0659 Y17.0694
G01 X2.0463 Y16.9908
G01 X2.0342 Y16.9095
G01 X2.0301 Y16.8225
G01 X2.0341 Y16.7417
G01 X2.0463 Y16.6592
G01 X2.0674 Y16.5759
G01 X2.0947 Y16.4997
G01 X2.1298 Y16.4254
G01 X2.1747 Y16.3508
G01 X2.2229 Y16.2858
G01 X2.2781 Y16.2248
G01 X2.3417 Y16.1672
G01 X2.4068 Y16.1189
G01 X2.4298 Y16.1050
G01 X2.4298 Y14.6290
G01 X2.1070 Y14.6290
G01 X2.1009 Y14.6286
G01 X2.0937 Y14.6272
G01 X2.0856 Y14.6242
G01 X2.0782 Y14.6199
G01 X2.0716 Y14.6144
G01 X2.0661 Y14.6078
G01 X2.0618 Y14.6004
G01 X2.0588 Y14.5923
G01 X2.0574 Y14.5851
G01 X2.0570 Y14.5790
G01 X2.0570 Y12.7790
G01 X2.0574 Y12.7729
G01 X2.0585 Y12.7669
G01 X2.0613 Y12.7587
G01 X2.0654 Y12.7512
G01 X2.0708 Y12.7445
G01 X2.0762 Y12.7396
G01 X2.0824 Y12.7355
G01 X2.0902 Y12.7319
G01 X2.0972 Y12.7300
G01 X2.1058 Y12.7290
G01 X3.9070 Y12.7290
M5
G00 X7.5198 Y7.8320
M3
G01 X7.5198 Y6.1482
G01 X7.4700 Y6.1183
G01 X7.4010 Y6.0672
G01 X7.3345 Y6.0073
G01 X7.2743 Y5.9410
G01 X7.2210 Y5.8690
G01 X7.1752 Y5.7921
G01 X7.1385 Y5.7144
G01 X7.1095 Y5.6336
G01 X7.0873 Y5.5456
G01 X7.0742 Y5.4558
G01 X7.0700 Y5.3700
G01 X7.0746 Y5.2793
G01 X7.0873 Y5.1944
G01 X7.1081 Y5.1111
G01 X7.1376 Y5.0279
G01 X7.1763 Y4.9457
G01 X7.2217 Y4.8700
G01 X7.2743 Y4.7990
G01 X7.3336 Y4.7336
G01 X7.3990 Y4.6743
G01 X7.4700 Y4.6217
G01 X7.5457 Y4.5763
G01 X7.6279 Y4.5376
G01 X7.7111 Y4.5081
G01 X7.7944 Y4.4873
G01 X7.8793 Y4.4746
G01 X7.9700 Y4.4700
G01 X8.0570 Y4.4742
G01 X8.1456 Y4.4873
G01 X8.2336 Y4.5095
G01 X8.3144 Y4.5385
G01 X8.3921 Y4.5752
G01 X8.4690 Y4.6210
G01 X8.5410 Y4.6743
G01 X8.6073 Y4.7345
G01 X8.6672 Y4.8010
G01 X8.7183 Y4.8700
G01 X8.7482 Y4.9198
G01 X9.7318 Y4.9198
G01 X9.7617 Y4.8700
G01 X9.8151 Y4.7981
G01 X9.8736 Y4.7336
G01 X9.9381 Y4.6751
G01 X10.0121 Y4.6204
G01 X10.0857 Y4.5763
G01 X10.1656 Y4.5385
G01 X10.2487 Y4.5088
G01 X10.3320 Y4.4878
G01 X10.4230 Y4.4742
G01 X10.5100 Y4.4700
G01 X10.5970 Y4.4742
G01 X10.6856 Y4.4873
G01 X10.7420 Y4.5014
G01 X12.0725 Y3.1708
G01 X12.1063 Y3.1405
G01 X12.1399 Y3.1157
G01 X12.1756 Y3.0942
G01 X12.2177 Y3.0741
G01 X12.2617 Y3.0585
G01 X12.3022 Y3.0485
G01 X12.3434 Y3.0423
G01 X12.3900 Y3.0398
G01 X14.9450 Y3.0398
G01 X14.9891 Y3.0420
G01 X15.0328 Y3.0485
G01 X15.0757 Y3.0592
G01 X15.1184 Y3.0746
G01 X15.1572 Y3.0930
G01 X15.1951 Y3.1157
G01 X15.2306 Y3.1420
G01 X15.2633 Y3.1717
G01 X17.1683 Y5.0767
G01 X17.1995 Y5.1113
G01 X17.2243 Y5.1449
G01 X17.2458 Y5.1806
G01 X17.2659 Y5.2227
G01 X17.2815 Y5.2667
G01 X17.2915 Y5.3072
G01 X17.2977 Y5.3484
G01 X17.3002 Y5.3950
G01 X17.3002 Y19.3650
G01 X17.2980 Y19.4091
G01 X17.2920 Y19.4504
G01 X17.2804 Y19.4969
G01 X17.2649 Y19.5395
G01 X17.2470 Y19.5772
G01 X17.2256 Y19.6130
G01 X17.1980 Y19.6506
G01 X17.1683 Y19.6833
G01 X12.0883 Y24.7633
G01 X12.0575 Y24.7914
G01 X12.0180 Y24.8206
G01 X11.9822 Y24.8420
G01 X11.9423 Y24.8609
G01 X11.8983 Y24.8765
G01 X11.8578 Y24.8865
G01 X11.8153 Y24.8929
G01 X11.7700 Y24.8952
G01 X11.2200 Y24.8952
G01 X11.2061 Y24.9182
G01 X11.1578 Y24.9833
G01 X11.1010 Y25.0460
G01 X11.0383 Y25.1028
G01 X10.9732 Y25.1511
G01 X10.9502 Y25.1650
G01 X10.9502 Y26.4608
G01 X10.9480 Y26.5037
G01 X10.9420 Y26.5450
G01 X10.9304 Y26.5914
G01 X10.9149 Y26.6341
G01 X10.8970 Y26.6718
G01 X10.8756 Y26.7076
G01 X10.8480 Y26.7452
G01 X10.8192 Y26.7770
G01 X9.9146 Y27.6817
G01 X9.9145 Y28.3725
G01 X9.9134 Y28.3810
G01 X9.9108 Y28.3891
G01 X9.9068 Y28.3967
G01 X9.9016 Y28.4036
G01 X9.8953 Y28.4094
G01 X9.8881 Y28.4141
G01 X9.8803 Y28.4175
G01 X9.8707 Y28.4196
G01 X9.8646 Y28.4200
G01 X8.8121 Y28.4199
G01 X8.8036 Y28.4188
G01 X8.7943 Y28.4157
G01 X8.7858 Y28.4109
G01 X8.7784 Y28.4045
G01 X8.7723 Y28.3967
G01 X8.7684 Y28.3891
G01 X8.7655 Y28.3798
G01 X8.7646 Y28.3712
G01 X8.7646 Y26.8700
G01 X8.7651 Y26.8627
G01 X8.7664 Y26.8567
G01 X8.7684 Y26.8509
G01 X8.7717 Y26.8443
G01 X8.7752 Y26.8392
G01 X8.7801 Y26.8338
G01 X8.7848 Y26.8298
G01 X8.7899 Y26.8265
G01 X8.7954 Y26.8238
G01 X8.8012 Y26.8218
G01 X8.8072 Y26.8205
G01 X8.8133 Y26.8200
G01 X9.5029 Y26.8200
G01 X10.0498 Y26.2731
G01 X10.0498 Y25.1650
G01 X10.0268 Y25.1511
G01 X9.9617 Y25.1028
G01 X9.8998 Y25.0469
G01 X9.8429 Y24.9842
G01 X9.7926 Y24.9162
G01 X9.7493 Y24.8435
G01 X9.7147 Y24.7703
G01 X9.6874 Y24.6941
G01 X9.6663 Y24.6108
G01 X9.6542 Y24.5295
G01 X9.6500 Y24.4450
G01 X9.6541 Y24.3617
G01 X9.6663 Y24.2792
G01 X9.6859 Y24.2006
G01 X9.7157 Y24.1175
G01 X9.7504 Y24.0443
G01 X9.7939 Y23.9718
G01 X9.8445 Y23.9039
G01 X9.8990 Y23.8440
G01 X9.9589 Y23.7895
G01 X10.0278 Y23.7383
G01 X10.0993 Y23.6954
G01 X10.1770 Y23.6588
G01 X10.2533 Y23.6316
G01 X10.3318 Y23.6119
G01 X10.4167 Y23.5991
G01 X10.5012 Y23.5950
G01 X10.5858 Y23.5994
G01 X10.6658 Y23.6113
G01 X10.7444 Y23.6309
G01 X10.8253 Y23.6597
G01 X10.9018 Y23.6960
G01 X10.9722 Y23.7383
G01 X11.0373 Y23.7864
G01 X11.1002 Y23.8431
G01 X11.1578 Y23.9067
G01 X11.2061 Y23.9718
G01 X11.2200 Y23.9948
G01 X11.5835 Y23.9948
G01 X16.3998 Y19.1785
G01 X16.3998 Y5.5815
G01 X14.7585 Y3.9402
G01 X12.5765 Y3.9402
G01 X11.3786 Y5.1380
G01 X11.3927 Y5.1944
G01 X11.4058 Y5.2830
G01 X11.4100 Y5.3700
G01 X11.4058 Y5.4570
G01 X11.3927 Y5.5456
G01 X11.3719 Y5.6289
G01 X11.3410 Y5.7155
G01 X11.3037 Y5.7943
G01 X11.2583 Y5.8700
G01 X11.2057 Y5.9410
G01 X11.1481 Y6.0046
G01 X11.0790 Y6.0672
G01 X11.0100 Y6.1183
G01 X10.9343 Y6.1637
G01 X10.8544 Y6.2015
G01 X10.7713 Y6.2312
G01 X10.6856 Y6.2527
G01 X10.5982 Y6.2657
G01 X10.5100 Y6.2700
G01 X10.4218 Y6.2657
G01 X10.3344 Y6.2527
G01 X10.2499 Y6.2316
G01 X10.1656 Y6.2015
G01 X10.0857 Y6.1637
G01 X10.0100 Y6.1183
G01 X9.9400 Y6.0665
G01 X9.8736 Y6.0064
G01 X9.8151 Y5.9419
G01 X9.7617 Y5.8700
G01 X9.7318 Y5.8202
G01 X8.7482 Y5.8202
G01 X8.7183 Y5.8700
G01 X8.6665 Y5.9400
G01 X8.6064 Y6.0064
G01 X8.5400 Y6.0665
G01 X8.4700 Y6.1183
G01 X8.4202 Y6.1482
G01 X8.4202 Y7.8691
G01 X8.4792 Y7.9129
G01 X8.5393 Y7.9673
G01 X8.5971 Y8.0308
G01 X8.6467 Y8.0978
G01 X8.6884 Y8.1672
G01 X8.7258 Y8.2459
G01 X8.7534 Y8.3233
G01 X8.7731 Y8.4018
G01 X8.7860 Y8.4879
G01 X8.7900 Y8.5700
G01 X8.7860 Y8.6521
G01 X8.7739 Y8.7346
G01 X8.7675 Y8.7608
G01 X9.6433 Y9.6367
G01 X9.6714 Y9.6675
G01 X9.6993 Y9.7049
G01 X9.7231 Y9.7450
G01 X9.7409 Y9.7827
G01 X9.7550 Y9.8220
G01 X9.7670 Y9.8696
G01 X9.7730 Y9.9109
G01 X9.7752 Y9.9550
G01 X9.7752 Y12.2950
G01 X9.7982 Y12.3089
G01 X9.8633 Y12.3572
G01 X9.9269 Y12.4148
G01 X9.9821 Y12.4758
G01 X10.0303 Y12.5408
G01 X10.0752 Y12.6154
G01 X10.1103 Y12.6897
G01 X10.1376 Y12.7659
G01 X10.1587 Y12.8492
G01 X10.1711 Y12.9341
G01 X10.1750 Y13.0150
G01 X10.1711 Y13.0959
G01 X10.1581 Y13.1832
G01 X10.1384 Y13.2617
G01 X10.1103 Y13.3403
G01 X10.0734 Y13.4178
G01 X10.0317 Y13.4872
G01 X9.9821 Y13.5542
G01 X9.9260 Y13.6160
G01 X9.8661 Y13.6705
G01 X9.7972 Y13.7217
G01 X9.7257 Y13.7646
G01 X9.6525 Y13.7993
G01 X9.5694 Y13.8291
G01 X9.4908 Y13.8487
G01 X9.4083 Y13.8609
G01 X9.3250 Y13.8650
G01 X9.2417 Y13.8609
G01 X9.1592 Y13.8487
G01 X9.0783 Y13.8284
G01 X8.9997 Y13.8003
G01 X8.9243 Y13.7646
G01 X8.8528 Y13.7217
G01 X8.7858 Y13.6721
G01 X8.7240 Y13.6160
G01 X8.6679 Y13.5542
G01 X8.6183 Y13.4872
G01 X8.5754 Y13.4157
G01 X8.5397 Y13.3403
G01 X8.5120 Y13.2629
G01 X8.4913 Y13.1808
G01 X8.4794 Y13.1008
G01 X8.4751 Y13.0125
G01 X8.4791 Y12.9317
G01 X8.4913 Y12.8492
G01 X8.5116 Y12.7683
G01 X8.5392 Y12.6909
G01 X8.5766 Y12.6122
G01 X8.6183 Y12.5428
G01 X8.6687 Y12.4748
G01 X8.7240 Y12.4140
G01 X8.7848 Y12.3587
G01 X8.8518 Y12.3089
G01 X8.8748 Y12.2950
G01 X8.8748 Y10.1415
G01 X8.1308 Y9.3975
G01 X8.1046 Y9.4039
G01 X8.0221 Y9.4160
G01 X7.9400 Y9.4200
G01 X7.8579 Y9.4160
G01 X7.7742 Y9.4037
G01 X7.6956 Y9.3841
G01 X7.6136 Y9.3548
G01 X7.5393 Y9.3196
G01 X7.4698 Y9.2781
G01 X7.3989 Y9.2255
G01 X7.3390 Y9.1710
G01 X7.2829 Y9.1092
G01 X7.2333 Y9.0422
G01 X7.1916 Y8.9728
G01 X7.1547 Y8.8953
G01 X7.1266 Y8.8167
G01 X7.1063 Y8.7358
G01 X7.0941 Y8.6533
G01 X7.0900 Y8.5700
G01 X7.0941 Y8.4867
G01 X7.1063 Y8.4042
G01 X7.1263 Y8.3244
G01 X7.1547 Y8.2447
G01 X7.1904 Y8.1693
G01 X7.2333 Y8.0978
G01 X7.2822 Y8.0317
G01 X7.3390 Y7.9690
G01 X7.4008 Y7.9129
G01 X7.4678 Y7.8633
G01 X7.5198 Y7.8320
M5
G00 X12.5998 Y6.1482
M3
G01 X12.5500 Y6.1183
G01 X12.4781 Y6.0649
G01 X12.4136 Y6.0064
G01 X12.3535 Y5.9400
G01 X12.3017 Y5.8700
G01 X12.2563 Y5.7943
G01 X12.2185 Y5.7144
G01 X12.1884 Y5.6301
G01 X12.1673 Y5.5456
G01 X12.1543 Y5.4582
G01 X12.1500 Y5.3700
G01 X12.1543 Y5.2818
G01 X12.1673 Y5.1944
G01 X12.1888 Y5.1087
G01 X12.2185 Y5.0256
G01 X12.2569 Y4.9447
G01 X12.3017 Y4.8700
G01 X12.3543 Y4.7990
G01 X12.4136 Y4.7336
G01 X12.4790 Y4.6743
G01 X12.5500 Y4.6217
G01 X12.6257 Y4.5763
G01 X12.7056 Y4.5385
G01 X12.7887 Y4.5088
G01 X12.8744 Y4.4873
G01 X12.9618 Y4.4743
G01 X13.0500 Y4.4700
G01 X13.1382 Y4.4743
G01 X13.2256 Y4.4873
G01 X13.3113 Y4.5088
G01 X13.3944 Y4.5385
G01 X13.4753 Y4.5769
G01 X13.5500 Y4.6217
G01 X13.6190 Y4.6728
G01 X13.6864 Y4.7336
G01 X13.7472 Y4.8010
G01 X13.7983 Y4.8700
G01 X13.8425 Y4.9436
G01 X13.8815 Y5.0256
G01 X13.9119 Y5.1111
G01 X13.9327 Y5.1944
G01 X13.9454 Y5.2793
G01 X13.9500 Y5.3700
G01 X13.9454 Y5.4607
G01 X13.9327 Y5.5456
G01 X13.9119 Y5.6289
G01 X13.8815 Y5.7144
G01 X13.8431 Y5.7953
G01 X13.7969 Y5.8720
G01 X13.7457 Y5.9410
G01 X13.6873 Y6.0055
G01 X13.6200 Y6.0665
G01 X13.5500 Y6.1183
G01 X13.5002 Y6.1482
G01 X13.5002 Y7.2912
G01 X13.4980 Y7.3341
G01 X13.4915 Y7.3778
G01 X13.4808 Y7.4207
G01 X13.4664 Y7.4611
G01 X13.4470 Y7.5022
G01 X13.4243 Y7.5401
G01 X13.3980 Y7.5756
G01 X13.3692 Y7.6075
G01 X11.5852 Y9.3915
G01 X11.5852 Y13.6500
G01 X11.5830 Y13.6941
G01 X11.5765 Y13.7378
G01 X11.5658 Y13.7807
G01 X11.5504 Y13.8234
G01 X11.5320 Y13.8622
G01 X11.5093 Y13.9001
G01 X11.4830 Y13.9356
G01 X11.4533 Y13.9683
G01 X8.7875 Y16.6342
G01 X8.7939 Y16.6604
G01 X8.8058 Y16.7405
G01 X8.8100 Y16.8262
G01 X8.8059 Y16.9083
G01 X8.7941 Y16.9884
G01 X8.7737 Y17.0706
G01 X8.7453 Y17.1503
G01 X8.7084 Y17.2278
G01 X8.6667 Y17.2972
G01 X8.6186 Y17.3623
G01 X8.5602 Y17.4269
G01 X8.4992 Y17.4821
G01 X8.4342 Y17.5303
G01 X8.3607 Y17.5746
G01 X8.2853 Y17.6103
G01 X8.2091 Y17.6376
G01 X8.1258 Y17.6587
G01 X8.0433 Y17.6709
G01 X7.9625 Y17.6749
G01 X7.8767 Y17.6709
G01 X7.7942 Y17.6587
G01 X7.7156 Y17.6391
G01 X7.6336 Y17.6098
G01 X7.5593 Y17.5746
G01 X7.4858 Y17.5303
G01 X7.4189 Y17.4805
G01 X7.3590 Y17.4260
G01 X7.3045 Y17.3661
G01 X7.2533 Y17.2972
G01 X7.2104 Y17.2257
G01 X7.1747 Y17.1503
G01 X7.1466 Y17.0717
G01 X7.1263 Y16.9908
G01 X7.1139 Y16.9059
G01 X7.1101 Y16.8225
G01 X7.1141 Y16.7417
G01 X7.1259 Y16.6616
G01 X7.1466 Y16.5783
G01 X7.1747 Y16.4997
G01 X7.2104 Y16.4243
G01 X7.2547 Y16.3508
G01 X7.3029 Y16.2858
G01 X7.3573 Y16.2257
G01 X7.4208 Y16.1679
G01 X7.4878 Y16.1183
G01 X7.5572 Y16.0766
G01 X7.6359 Y16.0392
G01 X7.7133 Y16.0116
G01 X7.7918 Y15.9919
G01 X7.8779 Y15.9790
G01 X7.9600 Y15.9750
G01 X8.0421 Y15.9790
G01 X8.1246 Y15.9911
G01 X8.1508 Y15.9975
G01 X10.6848 Y13.4635
G01 X10.6848 Y9.2050
G01 X10.6873 Y9.1584
G01 X10.6935 Y9.1172
G01 X10.7035 Y9.0767
G01 X10.7191 Y9.0327
G01 X10.7392 Y8.9906
G01 X10.7607 Y8.9549
G01 X10.7855 Y8.9213
G01 X10.8158 Y8.8875
G01 X12.5998 Y7.1035
G01 X12.5998 Y6.1482
M5
G00 X12.4751 Y14.3025
M3
G01 X12.4825 Y14.1481
G01 X12.5048 Y13.9976
G01 X12.5417 Y13.8501
G01 X12.5930 Y13.7068
G01 X12.6580 Y13.5693
G01 X12.7362 Y13.4389
G01 X12.8268 Y13.3167
G01 X12.9290 Y13.2040
G01 X13.0417 Y13.1018
G01 X13.1639 Y13.0112
G01 X13.2943 Y12.9330
G01 X13.4318 Y12.8680
G01 X13.5751 Y12.8167
G01 X13.7226 Y12.7798
G01 X13.8731 Y12.7575
G01 X14.0250 Y12.7500
G01 X14.1769 Y12.7575
G01 X14.3274 Y12.7798
G01 X14.4749 Y12.8167
G01 X14.6182 Y12.8680
G01 X14.7557 Y12.9330
G01 X14.8861 Y13.0112
G01 X15.0083 Y13.1018
G01 X15.1210 Y13.2040
G01 X15.2232 Y13.3167
G01 X15.3138 Y13.4389
G01 X15.3920 Y13.5693
G01 X15.4570 Y13.7068
G01 X15.5083 Y13.8501
G01 X15.5452 Y13.9976
G01 X15.5675 Y14.1481
G01 X15.5750 Y14.3000
G01 X15.5675 Y14.4519
G01 X15.5452 Y14.6024
G01 X15.5083 Y14.7499
G01 X15.4570 Y14.8932
G01 X15.3920 Y15.0307
G01 X15.3138 Y15.1611
G01 X15.2232 Y15.2833
G01 X15.1210 Y15.3960
G01 X15.0083 Y15.4982
G01 X14.8861 Y15.5888
G01 X14.7557 Y15.6670
G01 X14.6182 Y15.7320
G01 X14.4749 Y15.7833
G01 X14.3274 Y15.8202
G01 X14.1769 Y15.8425
G01 X14.0250 Y15.8500
G01 X13.8731 Y15.8425
G01 X13.7226 Y15.8202
G01 X13.5751 Y15.7833
G01 X13.4318 Y15.7320
G01 X13.2943 Y15.6670
G01 X13.1639 Y15.5888
G01 X13.0417 Y15.4982
G01 X12.9290 Y15.3960
G01 X12.8268 Y15.2833
G01 X12.7362 Y15.1611
G01 X12.6580 Y15.0307
G01 X12.5930 Y14.8932
G01 X12.5417 Y14.7499
G01 X12.5048 Y14.6024
G01 X12.4825 Y14.4519
G01 X12.4751 Y14.3025
M5
G00 X4.7590 Y23.9898
M3
G01 X4.8016 Y23.9325
G01 X4.8543 Y23.8743
G01 X4.9125 Y23.8216
G01 X4.9755 Y23.7748
G01 X5.0429 Y23.7345
G01 X5.1139 Y23.7009
G01 X5.1878 Y23.6744
G01 X5.2639 Y23.6554
G01 X5.3416 Y23.6439
G01 X5.4200 Y23.6400
G01 X5.4984 Y23.6439
G01 X5.5761 Y23.6554
G01 X5.6522 Y23.6744
G01 X5.7261 Y23.7009
G01 X5.7971 Y23.7345
G01 X5.8645 Y23.7748
G01 X5.9275 Y23.8216
G01 X5.9839 Y23.8726
G01 X6.0384 Y23.9325
G01 X6.0852 Y23.9955
G01 X6.1243 Y24.0607
G01 X6.1591 Y24.1339
G01 X6.1856 Y24.2078
G01 X6.2041 Y24.2815
G01 X6.2161 Y24.3616
G01 X6.2199 Y24.4425
G01 X6.2161 Y24.5184
G01 X6.2057 Y24.5891
G01 X7.1179 Y25.5012
G01 X7.1476 Y25.5340
G01 X7.1746 Y25.5705
G01 X7.1977 Y25.6095
G01 X7.2155 Y25.6473
G01 X7.2296 Y25.6866
G01 X7.2411 Y25.7317
G01 X7.2478 Y25.7779
G01 X7.2498 Y25.8196
G01 X7.2498 Y27.0378
G01 X7.2777 Y27.0755
G01 X7.3067 Y27.1239
G01 X7.3308 Y27.1750
G01 X7.3490 Y27.2258
G01 X7.3639 Y27.2852
G01 X7.3718 Y27.3386
G01 X7.3746 Y27.3938
G01 X7.3746 Y27.8462
G01 X7.3718 Y27.9014
G01 X7.3639 Y27.9548
G01 X7.3498 Y28.0119
G01 X7.3298 Y28.0673
G01 X7.3055 Y28.1182
G01 X7.2777 Y28.1645
G01 X7.2498 Y28.2022
G01 X7.2498 Y28.9835
G01 X9.4161 Y31.1498
G01 X31.7335 Y31.1498
G01 X33.2548 Y29.6285
G01 X33.2548 Y25.9702
G01 X32.1798 Y24.8952
G01 X28.3665 Y24.8952
G01 X27.2546 Y26.0071
G01 X27.2765 Y26.0537
G01 X27.3194 Y26.1738
G01 X27.3500 Y26.2964
G01 X27.3688 Y26.4238
G01 X27.3750 Y26.5500
G01 X27.3687 Y26.6774
G01 X27.3500 Y26.8036
G01 X27.3194 Y26.9262
G01 X27.2760 Y27.0475
G01 X27.2226 Y27.1606
G01 X27.1545 Y27.2742
G01 X27.0799 Y27.3747
G01 X26.9942 Y27.4692
G01 X26.8997 Y27.5549
G01 X26.7972 Y27.6309
G01 X26.6878 Y27.6965
G01 X26.5725 Y27.7510
G01 X26.4524 Y27.7940
G01 X26.3262 Y27.8254
G01 X26.2024 Y27.8437
G01 X26.0725 Y27.8499
G01 X25.9476 Y27.8437
G01 X25.8238 Y27.8254
G01 X25.7000 Y27.7947
G01 X25.5775 Y27.7510
G01 X25.4622 Y27.6965
G01 X25.3528 Y27.6309
G01 X25.2503 Y27.5549
G01 X25.1558 Y27.4692
G01 X25.0701 Y27.3747
G01 X24.9941 Y27.2722
G01 X24.9279 Y27.1617
G01 X24.8740 Y27.0475
G01 X24.8317 Y26.9297
G01 X24.7996 Y26.8012
G01 X24.7813 Y26.6774
G01 X24.7750 Y26.5500
G01 X24.7813 Y26.4226
G01 X24.7996 Y26.2988
G01 X24.8317 Y26.1703
G01 X24.8740 Y26.0525
G01 X24.9285 Y25.9372
G01 X24.9955 Y25.8258
G01 X25.0701 Y25.7253
G01 X25.1558 Y25.6308
G01 X25.2503 Y25.5451
G01 X25.3508 Y25.4705
G01 X25.4622 Y25.4035
G01 X25.5775 Y25.3490
G01 X25.6953 Y25.3067
G01 X25.8226 Y25.2748
G01 X25.9476 Y25.2563
G01 X26.0725 Y25.2501
G01 X26.2036 Y25.2564
G01 X26.3286 Y25.2750
G01 X26.4512 Y25.3056
G01 X26.5713 Y25.3485
G01 X26.6179 Y25.3704
G01 X27.8617 Y24.1267
G01 X27.8925 Y24.0986
G01 X27.9320 Y24.0694
G01 X27.9678 Y24.0480
G01 X28.0077 Y24.0291
G01 X28.0517 Y24.0135
G01 X28.0922 Y24.0035
G01 X28.1347 Y23.9971
G01 X28.1800 Y23.9948
G01 X32.3663 Y23.9948
G01 X32.4129 Y23.9973
G01 X32.4541 Y24.0035
G01 X32.4946 Y24.0135
G01 X32.5386 Y24.0291
G01 X32.5807 Y24.0492
G01 X32.6164 Y24.0707
G01 X32.6500 Y24.0955
G01 X32.6838 Y24.1258
G01 X34.0233 Y25.4654
G01 X34.0530 Y25.4981
G01 X34.0793 Y25.5336
G01 X34.1031 Y25.5737
G01 X34.1209 Y25.6114
G01 X34.1358 Y25.6530
G01 X34.1470 Y25.6983
G01 X34.1530 Y25.7396
G01 X34.1552 Y25.7825
G01 X34.1552 Y29.8150
G01 X34.1530 Y29.8591
G01 X34.1465 Y29.9028
G01 X34.1350 Y29.9480
G01 X34.1209 Y29.9873
G01 X34.1020 Y30.0272
G01 X34.0779 Y30.0671
G01 X34.0530 Y30.1006
G01 X34.0250 Y30.1316
G01 X33.0069 Y31.1498
G01 X38.6185 Y31.1498
G01 X42.6754 Y27.0929
G01 X42.6535 Y27.0463
G01 X42.6106 Y26.9262
G01 X42.5800 Y26.8036
G01 X42.5612 Y26.6762
G01 X42.5550 Y26.5500
G01 X42.5613 Y26.4226
G01 X42.5800 Y26.2964
G01 X42.6106 Y26.1738
G01 X42.6540 Y26.0525
G01 X42.7074 Y25.9394
G01 X42.7755 Y25.8258
G01 X42.8501 Y25.7253
G01 X42.9358 Y25.6308
G01 X43.0303 Y25.5451
G01 X43.1328 Y25.4691
G01 X43.2422 Y25.4035
G01 X43.3553 Y25.3500
G01 X43.4776 Y25.3060
G01 X43.6038 Y25.2746
G01 X43.7276 Y25.2563
G01 X43.8525 Y25.2501
G01 X43.9849 Y25.2566
G01 X44.1086 Y25.2750
G01 X44.2300 Y25.3053
G01 X44.3525 Y25.3490
G01 X44.4700 Y25.4047
G01 X44.5772 Y25.4691
G01 X44.6778 Y25.5436
G01 X44.7742 Y25.6308
G01 X44.8599 Y25.7253
G01 X44.9345 Y25.8258
G01 X45.0015 Y25.9372
G01 X45.0560 Y26.0525
G01 X45.0983 Y26.1703
G01 X45.1300 Y26.2964
G01 X45.1489 Y26.4250
G01 X45.1550 Y26.5500
G01 X45.1488 Y26.6762
G01 X45.1300 Y26.8036
G01 X45.0983 Y26.9297
G01 X45.0560 Y27.0475
G01 X45.0026 Y27.1606
G01 X44.9359 Y27.2722
G01 X44.8599 Y27.3747
G01 X44.7725 Y27.4709
G01 X44.6797 Y27.5549
G01 X44.5792 Y27.6295
G01 X44.4689 Y27.6959
G01 X44.3525 Y27.7510
G01 X44.2300 Y27.7947
G01 X44.1086 Y27.8250
G01 X43.9849 Y27.8434
G01 X43.8562 Y27.8500
G01 X43.7276 Y27.8437
G01 X43.6002 Y27.8248
G01 X43.4765 Y27.7937
G01 X43.3587 Y27.7515
G01 X43.3121 Y27.7296
G01 X39.1225 Y31.9192
G01 X39.0906 Y31.9480
G01 X39.0571 Y31.9729
G01 X39.0172 Y31.9970
G01 X38.9773 Y32.0159
G01 X38.9380 Y32.0300
G01 X38.8904 Y32.0420
G01 X38.8491 Y32.0480
G01 X38.8050 Y32.0502
G01 X9.2296 Y32.0502
G01 X9.1867 Y32.0481
G01 X9.1417 Y32.0416
G01 X9.1013 Y32.0315
G01 X9.0550 Y32.0149
G01 X9.0174 Y31.9970
G01 X8.9795 Y31.9743
G01 X8.9440 Y31.9480
G01 X8.9121 Y31.9192
G01 X6.4812 Y29.4883
G01 X6.4516 Y29.4556
G01 X6.4252 Y29.4201
G01 X6.4025 Y29.3822
G01 X6.3846 Y29.3445
G01 X6.3688 Y29.3007
G01 X6.3580 Y29.2578
G01 X6.3515 Y29.2141
G01 X6.3494 Y29.1712
G01 X6.3494 Y28.2022
G01 X6.3215 Y28.1645
G01 X6.2925 Y28.1161
G01 X6.2683 Y28.0650
G01 X6.2501 Y28.0142
G01 X6.2352 Y27.9548
G01 X6.2273 Y27.9014
G01 X6.2246 Y27.8450
G01 X6.2246 Y27.3938
G01 X6.2273 Y27.3386
G01 X6.2352 Y27.2852
G01 X6.2493 Y27.2281
G01 X6.2693 Y27.1727
G01 X6.2937 Y27.1218
G01 X6.3215 Y27.0755
G01 X6.3494 Y27.0378
G01 X6.3494 Y26.0061
G01 X5.5691 Y25.2257
G01 X5.4984 Y25.2361
G01 X5.4225 Y25.2399
G01 X5.3416 Y25.2361
G01 X5.2615 Y25.2241
G01 X5.1878 Y25.2056
G01 X5.1139 Y25.1791
G01 X5.0407 Y25.1443
G01 X4.9755 Y25.1052
G01 X4.9125 Y25.0584
G01 X4.8526 Y25.0039
G01 X4.8016 Y24.9475
G01 X4.7590 Y24.8902
G01 X3.6030 Y24.8902
G01 X3.5861 Y24.9182
G01 X3.5378 Y24.9833
G01 X3.4802 Y25.0469
G01 X3.4192 Y25.1021
G01 X3.3542 Y25.1503
G01 X3.2796 Y25.1952
G01 X3.2053 Y25.2303
G01 X3.1291 Y25.2576
G01 X3.0458 Y25.2787
G01 X2.9633 Y25.2909
G01 X2.8825 Y25.2949
G01 X2.7967 Y25.2909
G01 X2.7142 Y25.2787
G01 X2.6356 Y25.2591
G01 X2.5547 Y25.2303
G01 X2.4793 Y25.1946
G01 X2.4098 Y25.1531
G01 X2.3389 Y25.1005
G01 X2.2790 Y25.0460
G01 X2.2229 Y24.9842
G01 X2.1733 Y24.9172
G01 X2.1316 Y24.8478
G01 X2.0938 Y24.7680
G01 X2.0666 Y24.6917
G01 X2.0466 Y24.6120
G01 X2.0341 Y24.5283
G01 X2.0300 Y24.4450
G01 X2.0341 Y24.3617
G01 X2.0463 Y24.2792
G01 X2.0666 Y24.1983
G01 X2.0947 Y24.1197
G01 X2.1304 Y24.0443
G01 X2.1733 Y23.9728
G01 X2.2229 Y23.9058
G01 X2.2790 Y23.8440
G01 X2.3408 Y23.7879
G01 X2.4078 Y23.7383
G01 X2.4793 Y23.6954
G01 X2.5547 Y23.6597
G01 X2.6333 Y23.6316
G01 X2.7130 Y23.6116
G01 X2.7991 Y23.5989
G01 X2.8800 Y23.5950
G01 X2.9633 Y23.5991
G01 X3.0458 Y23.6113
G01 X3.1244 Y23.6309
G01 X3.2053 Y23.6597
G01 X3.2807 Y23.6954
G01 X3.3502 Y23.7369
G01 X3.4202 Y23.7887
G01 X3.4810 Y23.8440
G01 X3.5363 Y23.9048
G01 X3.5861 Y23.9718
G01 X3.5970 Y23.9898
G01 X4.7590 Y23.9898
M5
G00 X8.4102 Y26.9325
M3
G01 X8.4353 Y26.9513
G01 X8.4770 Y26.9893
G01 X8.5141 Y27.0302
G01 X8.5483 Y27.0766
G01 X8.5767 Y27.1239
G01 X8.6008 Y27.1750
G01 X8.6198 Y27.2281
G01 X8.6338 Y27.2840
G01 X8.6418 Y27.3386
G01 X8.6446 Y27.3938
G01 X8.6445 Y27.8475
G01 X8.6418 Y27.9014
G01 X8.6335 Y27.9572
G01 X8.6198 Y28.0119
G01 X8.6013 Y28.0639
G01 X8.5767 Y28.1161
G01 X8.5477 Y28.1645
G01 X8.5141 Y28.2098
G01 X8.4762 Y28.2516
G01 X8.4344 Y28.2895
G01 X8.3890 Y28.3231
G01 X8.3406 Y28.3521
G01 X8.2896 Y28.3762
G01 X8.2365 Y28.3952
G01 X8.1818 Y28.4090
G01 X8.1259 Y28.4172
G01 X8.0696 Y28.4200
G01 X8.0132 Y28.4172
G01 X7.9574 Y28.4090
G01 X7.9027 Y28.3952
G01 X7.8507 Y28.3767
G01 X7.7985 Y28.3521
G01 X7.7481 Y28.3217
G01 X7.7048 Y28.2895
G01 X7.6648 Y28.2533
G01 X7.6251 Y28.2098
G01 X7.5902 Y28.1624
G01 X7.5625 Y28.1161
G01 X7.5393 Y28.0673
G01 X7.5193 Y28.0119
G01 X7.5054 Y27.9560
G01 X7.4973 Y27.9014
G01 X7.4946 Y27.8462
G01 X7.4946 Y27.3950
G01 X7.4975 Y27.3374
G01 X7.5054 Y27.2840
G01 X7.5098 Y27.2659
G01 X7.5098 Y25.1650
G01 X7.4868 Y25.1511
G01 X7.4198 Y25.1013
G01 X7.3590 Y25.0460
G01 X7.3037 Y24.9852
G01 X7.2519 Y24.9152
G01 X7.2104 Y24.8457
G01 X7.1752 Y24.7714
G01 X7.1459 Y24.6894
G01 X7.1263 Y24.6108
G01 X7.1141 Y24.5283
G01 X7.1101 Y24.4425
G01 X7.1141 Y24.3617
G01 X7.1263 Y24.2792
G01 X7.1466 Y24.1983
G01 X7.1747 Y24.1197
G01 X7.2104 Y24.0443
G01 X7.2533 Y23.9728
G01 X7.3029 Y23.9058
G01 X7.3590 Y23.8440
G01 X7.4208 Y23.7879
G01 X7.4888 Y23.7376
G01 X7.5593 Y23.6954
G01 X7.6347 Y23.6597
G01 X7.7133 Y23.6316
G01 X7.7954 Y23.6111
G01 X7.8767 Y23.5991
G01 X7.9612 Y23.5950
G01 X8.0445 Y23.5992
G01 X8.1246 Y23.6111
G01 X8.1508 Y23.6175
G01 X10.0498 Y21.7185
G01 X10.0498 Y17.5450
G01 X10.0268 Y17.5311
G01 X9.9617 Y17.4828
G01 X9.8981 Y17.4252
G01 X9.8429 Y17.3642
G01 X9.7947 Y17.2992
G01 X9.7498 Y17.2246
G01 X9.7147 Y17.1503
G01 X9.6874 Y17.0741
G01 X9.6663 Y16.9908
G01 X9.6541 Y16.9083
G01 X9.6501 Y16.8275
G01 X9.6541 Y16.7417
G01 X9.6663 Y16.6592
G01 X9.6866 Y16.5783
G01 X9.7147 Y16.4997
G01 X9.7504 Y16.4243
G01 X9.7933 Y16.3528
G01 X9.8429 Y16.2858
G01 X9.8990 Y16.2240
G01 X9.9627 Y16.1664
G01 X10.0278 Y16.1183
G01 X10.1015 Y16.0743
G01 X10.1747 Y16.0397
G01 X10.2509 Y16.0124
G01 X10.3318 Y15.9919
G01 X10.4167 Y15.9791
G01 X10.5000 Y15.9750
G01 X10.5833 Y15.9791
G01 X10.6658 Y15.9913
G01 X10.7467 Y16.0116
G01 X10.8230 Y16.0388
G01 X10.9028 Y16.0766
G01 X10.9722 Y16.1183
G01 X11.0392 Y16.1679
G01 X11.1010 Y16.2240
G01 X11.1571 Y16.2858
G01 X11.2067 Y16.3528
G01 X11.2484 Y16.4222
G01 X11.2862 Y16.5020
G01 X11.3134 Y16.5783
G01 X11.3337 Y16.6592
G01 X11.3459 Y16.7417
G01 X11.3499 Y16.8225
G01 X11.3459 Y16.9083
G01 X11.3331 Y16.9932
G01 X11.3134 Y17.0717
G01 X11.2862 Y17.1480
G01 X11.2490 Y17.2268
G01 X11.2067 Y17.2972
G01 X11.1586 Y17.3623
G01 X11.1019 Y17.4252
G01 X11.0383 Y17.4828
G01 X10.9732 Y17.5311
G01 X10.9502 Y17.5450
G01 X10.9502 Y21.9050
G01 X10.9480 Y21.9491
G01 X10.9415 Y21.9928
G01 X10.9300 Y22.0380
G01 X10.9159 Y22.0773
G01 X10.8970 Y22.1172
G01 X10.8729 Y22.1571
G01 X10.8480 Y22.1906
G01 X10.8192 Y22.2225
G01 X8.7875 Y24.2542
G01 X8.7939 Y24.2804
G01 X8.8060 Y24.3629
G01 X8.8100 Y24.4450
G01 X8.8060 Y24.5271
G01 X8.7931 Y24.6132
G01 X8.7734 Y24.6917
G01 X8.7453 Y24.7703
G01 X8.7096 Y24.8457
G01 X8.6681 Y24.9152
G01 X8.6163 Y24.9852
G01 X8.5610 Y25.0460
G01 X8.5002 Y25.1013
G01 X8.4332 Y25.1511
G01 X8.4102 Y25.1650
G01 X8.4102 Y26.9325
M5
G00 X30.2551 Y14.3025
M3
G01 X30.2625 Y14.1481
G01 X30.2848 Y13.9976
G01 X30.3217 Y13.8501
G01 X30.3730 Y13.7068
G01 X30.4380 Y13.5693
G01 X30.5162 Y13.4389
G01 X30.6068 Y13.3167
G01 X30.7090 Y13.2040
G01 X30.8217 Y13.1018
G01 X30.9439 Y13.0112
G01 X31.0743 Y12.9330
G01 X31.2118 Y12.8680
G01 X31.3551 Y12.8167
G01 X31.5026 Y12.7798
G01 X31.6531 Y12.7575
G01 X31.8050 Y12.7500
G01 X31.9569 Y12.7575
G01 X32.1074 Y12.7798
G01 X32.2549 Y12.8167
G01 X32.3982 Y12.8680
G01 X32.5357 Y12.9330
G01 X32.6661 Y13.0112
G01 X32.7883 Y13.1018
G01 X32.9010 Y13.2040
G01 X33.0032 Y13.3167
G01 X33.0938 Y13.4389
G01 X33.1720 Y13.5693
G01 X33.2370 Y13.7068
G01 X33.2883 Y13.8501
G01 X33.3252 Y13.9976
G01 X33.3475 Y14.1481
G01 X33.3550 Y14.3000
G01 X33.3475 Y14.4519
G01 X33.3252 Y14.6024
G01 X33.2883 Y14.7499
G01 X33.2370 Y14.8932
G01 X33.1720 Y15.0307
G01 X33.0938 Y15.1611
G01 X33.0032 Y15.2833
G01 X32.9010 Y15.3960
G01 X32.7883 Y15.4982
G01 X32.6661 Y15.5888
G01 X32.5357 Y15.6670
G01 X32.3982 Y15.7320
G01 X32.2549 Y15.7833
G01 X32.1074 Y15.8202
G01 X31.9569 Y15.8425
G01 X31.8050 Y15.8500
G01 X31.6531 Y15.8425
G01 X31.5026 Y15.8202
G01 X31.3551 Y15.7833
G01 X31.2118 Y15.7320
G01 X31.0743 Y15.6670
G01 X30.9439 Y15.5888
G01 X30.8217 Y15.4982
G01 X30.7090 Y15.3960
G01 X30.6068 Y15.2833
G01 X30.5162 Y15.1611
G01 X30.4380 Y15.0307
G01 X30.3730 Y14.8932
G01 X30.3217 Y14.7499
G01 X30.2848 Y14.6024
G01 X30.2625 Y14.4519
G01 X30.2551 Y14.3025
M5
G00 X37.4338 Y6.2631
M3
G01 X28.7810 Y14.9160
G01 X28.7228 Y14.9687
G01 X28.6607 Y15.0148
G01 X28.5923 Y15.0559
G01 X28.5190 Y15.0903
G01 X28.4473 Y15.1159
G01 X28.3735 Y15.1345
G01 X28.2935 Y15.1465
G01 X28.2150 Y15.1504
G01 X27.4003 Y15.1504
G01 X27.3631 Y15.2121
G01 X27.2739 Y15.3324
G01 X27.1719 Y15.4451
G01 X27.0583 Y15.5482
G01 X26.9351 Y15.6394
G01 X26.8035 Y15.7181
G01 X26.6682 Y15.7820
G01 X26.5273 Y15.8325
G01 X26.3774 Y15.8702
G01 X26.2245 Y15.8927
G01 X26.0750 Y15.9000
G01 X25.9255 Y15.8927
G01 X25.7726 Y15.8702
G01 X25.6227 Y15.8325
G01 X25.4818 Y15.7820
G01 X25.3465 Y15.7181
G01 X25.2139 Y15.6388
G01 X25.0898 Y15.5466
G01 X24.9790 Y15.4460
G01 X24.8784 Y15.3352
G01 X24.7869 Y15.2121
G01 X24.7080 Y15.0807
G01 X24.6430 Y14.9432
G01 X24.5917 Y14.7999
G01 X24.5553 Y14.6548
G01 X24.5325 Y14.5019
G01 X24.5251 Y14.3525
G01 X24.5328 Y14.1956
G01 X24.5548 Y14.0476
G01 X24.5917 Y13.9001
G01 X24.6430 Y13.7568
G01 X24.7080 Y13.6193
G01 X24.7862 Y13.4889
G01 X24.8768 Y13.3667
G01 X24.9790 Y13.2540
G01 X25.0898 Y13.1534
G01 X25.2139 Y13.0612
G01 X25.3443 Y12.9830
G01 X25.4818 Y12.9180
G01 X25.6251 Y12.8667
G01 X25.7726 Y12.8298
G01 X25.9231 Y12.8075
G01 X26.0750 Y12.8000
G01 X26.2294 Y12.8078
G01 X26.3798 Y12.8303
G01 X26.5249 Y12.8667
G01 X26.6659 Y12.9171
G01 X26.8057 Y12.9830
G01 X26.9351 Y13.0606
G01 X27.0583 Y13.1518
G01 X27.1719 Y13.2549
G01 X27.2739 Y13.3676
G01 X27.3631 Y13.4879
G01 X27.4003 Y13.5496
G01 X27.8835 Y13.5496
G01 X36.3019 Y5.1312
G01 X36.2846 Y5.0612
G01 X36.2626 Y4.9131
G01 X36.2550 Y4.7588
G01 X36.2625 Y4.6081
G01 X36.2844 Y4.4600
G01 X36.3214 Y4.3112
G01 X36.3730 Y4.1668
G01 X36.4392 Y4.0272
G01 X36.5162 Y3.8989
G01 X36.6053 Y3.7786
G01 X36.7090 Y3.6640
G01 X36.8217 Y3.5618
G01 X36.9459 Y3.4699
G01 X37.0743 Y3.3930
G01 X37.2096 Y3.3290
G01 X37.3551 Y3.2767
G01 X37.5050 Y3.2394
G01 X37.6531 Y3.2175
G01 X37.8025 Y3.2101
G01 X37.9569 Y3.2175
G01 X38.1086 Y3.2400
G01 X38.2549 Y3.2767
G01 X38.3982 Y3.3280
G01 X38.5357 Y3.3930
G01 X38.6661 Y3.4712
G01 X38.7883 Y3.5618
G01 X38.9010 Y3.6640
G01 X39.0032 Y3.7767
G01 X39.0938 Y3.8989
G01 X39.1720 Y4.0293
G01 X39.2370 Y4.1668
G01 X39.2883 Y4.3101
G01 X39.3252 Y4.4576
G01 X39.3475 Y4.6081
G01 X39.3550 Y4.7600
G01 X39.3475 Y4.9119
G01 X39.3250 Y5.0636
G01 X39.2883 Y5.2099
G01 X39.2370 Y5.3532
G01 X39.1720 Y5.4907
G01 X39.0938 Y5.6211
G01 X39.0032 Y5.7433
G01 X38.9010 Y5.8560
G01 X38.7883 Y5.9582
G01 X38.6651 Y6.0494
G01 X38.5357 Y6.1270
G01 X38.3982 Y6.1920
G01 X38.2549 Y6.2433
G01 X38.1062 Y6.2804
G01 X37.9569 Y6.3025
G01 X37.8038 Y6.3100
G01 X37.6519 Y6.3024
G01 X37.5038 Y6.2804
G01 X37.4338 Y6.2631
M5
G00 X44.4350 Y5.1795
M3
G01 X44.4737 Y5.2222
G01 X44.5205 Y5.2853
G01 X44.5609 Y5.3527
G01 X44.5945 Y5.4237
G01 X44.6209 Y5.4977
G01 X44.6400 Y5.5739
G01 X44.6515 Y5.6515
G01 X44.6554 Y5.7288
G01 X44.6554 Y13.0247
G01 X44.7171 Y13.0619
G01 X44.8374 Y13.1511
G01 X44.9519 Y13.2549
G01 X45.0532 Y13.3667
G01 X45.1424 Y13.4869
G01 X45.2225 Y13.6204
G01 X45.2870 Y13.7568
G01 X45.3375 Y13.8977
G01 X45.3752 Y14.0476
G01 X45.3977 Y14.2005
G01 X45.4050 Y14.3500
G01 X45.3976 Y14.5007
G01 X45.3752 Y14.6524
G01 X45.3383 Y14.7999
G01 X45.2870 Y14.9432
G01 X45.2220 Y15.0807
G01 X45.1438 Y15.2111
G01 X45.0532 Y15.3333
G01 X44.9510 Y15.4460
G01 X44.8383 Y15.5482
G01 X44.7161 Y15.6388
G01 X44.5857 Y15.7170
G01 X44.4482 Y15.7820
G01 X44.3049 Y15.8333
G01 X44.1574 Y15.8702
G01 X44.0069 Y15.8925
G01 X43.8550 Y15.9000
G01 X43.7043 Y15.8926
G01 X43.5502 Y15.8697
G01 X43.4051 Y15.8333
G01 X43.2618 Y15.7820
G01 X43.1243 Y15.7170
G01 X42.9959 Y15.6401
G01 X42.8698 Y15.5466
G01 X42.7590 Y15.4460
G01 X42.6568 Y15.3333
G01 X42.5662 Y15.2111
G01 X42.4892 Y15.0828
G01 X42.4221 Y14.9409
G01 X42.3717 Y14.7999
G01 X42.3348 Y14.6524
G01 X42.3125 Y14.5019
G01 X42.3051 Y14.3525
G01 X42.3125 Y14.1981
G01 X42.3348 Y14.0476
G01 X42.3711 Y13.9024
G01 X42.4235 Y13.7557
G01 X42.4880 Y13.6193
G01 X42.5649 Y13.4909
G01 X42.6576 Y13.3658
G01 X42.7590 Y13.2540
G01 X42.8708 Y13.1526
G01 X42.9929 Y13.0619
G01 X43.0546 Y13.0247
G01 X43.0546 Y6.3100
G01 X41.3838 Y6.3100
G01 X41.3777 Y6.3095
G01 X41.3717 Y6.3082
G01 X41.3659 Y6.3062
G01 X41.3593 Y6.3029
G01 X41.3542 Y6.2994
G01 X41.3488 Y6.2945
G01 X41.3448 Y6.2898
G01 X41.3415 Y6.2846
G01 X41.3388 Y6.2791
G01 X41.3365 Y6.2721
G01 X41.3354 Y6.2661
G01 X41.3350 Y6.2600
G01 X41.3350 Y3.2600
G01 X41.3355 Y3.2527
G01 X41.3372 Y3.2455
G01 X41.3398 Y3.2386
G01 X41.3428 Y3.2333
G01 X41.3463 Y3.2283
G01 X41.3505 Y3.2238
G01 X41.3552 Y3.2198
G01 X41.3604 Y3.2165
G01 X41.3670 Y3.2134
G01 X41.3729 Y3.2115
G01 X41.3789 Y3.2104
G01 X41.3850 Y3.2100
G01 X44.3850 Y3.2100
G01 X44.3923 Y3.2105
G01 X44.3995 Y3.2122
G01 X44.4064 Y3.2148
G01 X44.4117 Y3.2178
G01 X44.4167 Y3.2213
G01 X44.4212 Y3.2255
G01 X44.4259 Y3.2312
G01 X44.4291 Y3.2364
G01 X44.4316 Y3.2420
G01 X44.4335 Y3.2479
G01 X44.4346 Y3.2539
G01 X44.4350 Y3.2600
G01 X44.4350 Y5.1795
M5
G00 X47.1053 Y3.7325
M3
G01 X47.1054 Y20.0000
G01 X47.1015 Y20.0785
G01 X47.0900 Y20.1561
G01 X47.0709 Y20.2323
G01 X47.0449 Y20.3052
G01 X47.0109 Y20.3773
G01 X46.9705 Y20.4447
G01 X46.9237 Y20.5078
G01 X46.8710 Y20.5660
G01 X39.3081 Y28.1288
G01 X39.3254 Y28.1988
G01 X39.3474 Y28.3469
G01 X39.3550 Y28.5012
G01 X39.3475 Y28.6519
G01 X39.3256 Y28.8000
G01 X39.2886 Y28.9488
G01 X39.2370 Y29.0932
G01 X39.1708 Y29.2328
G01 X39.0938 Y29.3611
G01 X39.0047 Y29.4814
G01 X38.9010 Y29.5960
G01 X38.7883 Y29.6982
G01 X38.6681 Y29.7874
G01 X38.5357 Y29.8670
G01 X38.3959 Y29.9329
G01 X38.2549 Y29.9833
G01 X38.1074 Y30.0202
G01 X37.9569 Y30.0425
G01 X37.8075 Y30.0499
G01 X37.6531 Y30.0425
G01 X37.5002 Y30.0197
G01 X37.3551 Y29.9833
G01 X37.2130 Y29.9325
G01 X37.0743 Y29.8670
G01 X36.9419 Y29.7874
G01 X36.8217 Y29.6982
G01 X36.7108 Y29.5977
G01 X36.6084 Y29.4852
G01 X36.5162 Y29.3611
G01 X36.4380 Y29.2307
G01 X36.3730 Y29.0932
G01 X36.3211 Y28.9476
G01 X36.2848 Y28.8024
G01 X36.2628 Y28.6544
G01 X36.2551 Y28.5025
G01 X36.2625 Y28.3481
G01 X36.2848 Y28.1976
G01 X36.3217 Y28.0501
G01 X36.3740 Y27.9046
G01 X36.4380 Y27.7693
G01 X36.5149 Y27.6409
G01 X36.6068 Y27.5167
G01 X36.7108 Y27.4023
G01 X36.8217 Y27.3018
G01 X36.9439 Y27.2112
G01 X37.0765 Y27.1319
G01 X37.2118 Y27.0680
G01 X37.3539 Y27.0171
G01 X37.5050 Y26.9794
G01 X37.6531 Y26.9575
G01 X37.8038 Y26.9500
G01 X37.9581 Y26.9576
G01 X38.1062 Y26.9796
G01 X38.1762 Y26.9969
G01 X45.5046 Y19.6685
G01 X45.5046 Y4.0665
G01 X44.5485 Y3.1104
G01 X34.8715 Y3.1104
G01 X33.5931 Y4.3888
G01 X33.6104 Y4.4588
G01 X33.6324 Y4.6069
G01 X33.6400 Y4.7588
G01 X33.6325 Y4.9119
G01 X33.6100 Y5.0636
G01 X33.5725 Y5.2123
G01 X33.5220 Y5.3532
G01 X33.4581 Y5.4885
G01 X33.3788 Y5.6211
G01 X33.2874 Y5.7442
G01 X33.1860 Y5.8560
G01 X33.0714 Y5.9597
G01 X32.9491 Y6.0501
G01 X32.8207 Y6.1270
G01 X32.6854 Y6.1910
G01 X32.5399 Y6.2433
G01 X32.3924 Y6.2802
G01 X32.2419 Y6.3025
G01 X32.0900 Y6.3100
G01 X31.9356 Y6.3022
G01 X31.7876 Y6.2802
G01 X31.6424 Y6.2439
G01 X31.4968 Y6.1920
G01 X31.3593 Y6.1270
G01 X31.2269 Y6.0474
G01 X31.1067 Y5.9582
G01 X30.9958 Y5.8577
G01 X30.8918 Y5.7433
G01 X30.8012 Y5.6211
G01 X30.7219 Y5.4885
G01 X30.6580 Y5.3532
G01 X30.6075 Y5.2123
G01 X30.5698 Y5.0624
G01 X30.5475 Y4.9119
G01 X30.5400 Y4.7600
G01 X30.5478 Y4.6056
G01 X30.5698 Y4.4576
G01 X30.6061 Y4.3124
G01 X30.6575 Y4.1680
G01 X30.7230 Y4.0293
G01 X30.8012 Y3.8989
G01 X30.8918 Y3.7767
G01 X30.9923 Y3.6658
G01 X31.1086 Y3.5603
G01 X31.2289 Y3.4712
G01 X31.3604 Y3.3925
G01 X31.4968 Y3.3280
G01 X31.6401 Y3.2767
G01 X31.7876 Y3.2398
G01 X31.9369 Y3.2176
G01 X32.0900 Y3.2100
G01 X32.2407 Y3.2174
G01 X32.3912 Y3.2396
G01 X32.4612 Y3.2569
G01 X33.9740 Y1.7440
G01 X34.0322 Y1.6913
G01 X34.0953 Y1.6445
G01 X34.1606 Y1.6053
G01 X34.2360 Y1.5697
G01 X34.3077 Y1.5441
G01 X34.3839 Y1.5250
G01 X34.4615 Y1.5135
G01 X34.5388 Y1.5096
G01 X44.8800 Y1.5096
G01 X44.9585 Y1.5135
G01 X45.0349 Y1.5248
G01 X45.1147 Y1.5449
G01 X45.1863 Y1.5705
G01 X45.2551 Y1.6030
G01 X45.3247 Y1.6445
G01 X45.3896 Y1.6929
G01 X45.4460 Y1.7440
G01 X46.8718 Y3.1699
G01 X46.9237 Y3.2272
G01 X46.9705 Y3.2903
G01 X47.0109 Y3.3577
G01 X47.0445 Y3.4287
G01 X47.0709 Y3.5027
G01 X47.0900 Y3.5789
G01 X47.1015 Y3.6565
G01 X47.1053 Y3.7325
M5
G00 X47.8650 Y0.4150
M3
G01 X47.8650 Y32.6000
G01 X0.4400 Y32.6000
G01 X0.4400 Y0.4150
G01 X47.8650 Y0.4150
M5
G00 X48.0650 Y0.3125
M3
G01 X48.0650 Y32.7000
G01 X48.0642 Y32.7122
G01 X48.0631 Y32.7195
G01 X48.0614 Y32.7267
G01 X48.0579 Y32.7371
G01 X48.0532 Y32.7472
G01 X48.0468 Y32.7576
G01 X48.0423 Y32.7635
G01 X48.0374 Y32.7690
G01 X48.0294 Y32.7765
G01 X48.0206 Y32.7832
G01 X48.0100 Y32.7893
G01 X48.0033 Y32.7924
G01 X47.9940 Y32.7957
G01 X47.9845 Y32.7981
G01 X47.9772 Y32.7992
G01 X47.9650 Y32.8000
G01 X0.3400 Y32.8000
G01 X0.3278 Y32.7992
G01 X0.3205 Y32.7981
G01 X0.3133 Y32.7964
G01 X0.3029 Y32.7929
G01 X0.2928 Y32.7882
G01 X0.2824 Y32.7818
G01 X0.2765 Y32.7773
G01 X0.2710 Y32.7724
G01 X0.2635 Y32.7644
G01 X0.2568 Y32.7556
G01 X0.2507 Y32.7450
G01 X0.2476 Y32.7383
G01 X0.2443 Y32.7290
G01 X0.2419 Y32.7195
G01 X0.2408 Y32.7122
G01 X0.2400 Y32.7000
G01 X0.2400 Y0.3150
G01 X0.2408 Y0.3028
G01 X0.2419 Y0.2955
G01 X0.2436 Y0.2883
G01 X0.2471 Y0.2779
G01 X0.2518 Y0.2678
G01 X0.2582 Y0.2574
G01 X0.2627 Y0.2515
G01 X0.2676 Y0.2460
G01 X0.2756 Y0.2385
G01 X0.2844 Y0.2318
G01 X0.2950 Y0.2257
G01 X0.3017 Y0.2226
G01 X0.3110 Y0.2193
G01 X0.3205 Y0.2169
G01 X0.3278 Y0.2158
G01 X0.3400 Y0.2150
G01 X47.9650 Y0.2150
G01 X47.9748 Y0.2155
G01 X47.9845 Y0.2169
G01 X47.9940 Y0.2193
G01 X48.0033 Y0.2226
G01 X48.0122 Y0.2268
G01 X48.0206 Y0.2318
G01 X48.0285 Y0.2377
G01 X48.0357 Y0.2443
G01 X48.0423 Y0.2515
G01 X48.0482 Y0.2594
G01 X48.0532 Y0.2678
G01 X48.0574 Y0.2767
G01 X48.0607 Y0.2860
G01 X48.0631 Y0.2955
G01 X48.0645 Y0.3052
G01 X48.0650 Y0.3125
M5
G00 X28.5100 Y3.2100
M3
G01 X28.5198 Y3.2110
G01 X28.5291 Y3.2138
G01 X28.5378 Y3.2184
G01 X28.5445 Y3.2238
G01 X28.5509 Y3.2312
G01 X28.5557 Y3.2397
G01 X28.5588 Y3.2490
G01 X28.5600 Y3.2588
G01 X28.5600 Y6.2600
G01 X28.5593 Y6.2685
G01 X28.5566 Y6.2780
G01 X28.5529 Y6.2857
G01 X28.5479 Y6.2927
G01 X28.5436 Y6.2970
G01 X28.5398 Y6.3002
G01 X28.5346 Y6.3035
G01 X28.5303 Y6.3057
G01 X28.5245 Y6.3078
G01 X28.5198 Y6.3090
G01 X28.5100 Y6.3100
G01 X26.5919 Y6.3100
G01 X20.8254 Y12.0765
G01 X20.8254 Y27.1747
G01 X20.8871 Y27.2119
G01 X21.0074 Y27.3011
G01 X21.1219 Y27.4049
G01 X21.2232 Y27.5167
G01 X21.3124 Y27.6369
G01 X21.3925 Y27.7704
G01 X21.4570 Y27.9068
G01 X21.5075 Y28.0477
G01 X21.5452 Y28.1976
G01 X21.5677 Y28.3505
G01 X21.5750 Y28.5000
G01 X21.5676 Y28.6507
G01 X21.5452 Y28.8024
G01 X21.5083 Y28.9499
G01 X21.4570 Y29.0932
G01 X21.3908 Y29.2328
G01 X21.3124 Y29.3631
G01 X21.2232 Y29.4833
G01 X21.1227 Y29.5942
G01 X21.0083 Y29.6982
G01 X20.8861 Y29.7888
G01 X20.7557 Y29.8670
G01 X20.6159 Y29.9329
G01 X20.4726 Y29.9839
G01 X20.3274 Y30.0202
G01 X20.1794 Y30.0422
G01 X20.0250 Y30.0500
G01 X19.8731 Y30.0425
G01 X19.7226 Y30.0202
G01 X19.5739 Y29.9829
G01 X19.4318 Y29.9320
G01 X19.2965 Y29.8681
G01 X19.1619 Y29.7874
G01 X19.0417 Y29.6982
G01 X18.9290 Y29.5960
G01 X18.8268 Y29.4833
G01 X18.7376 Y29.3631
G01 X18.6569 Y29.2285
G01 X18.5930 Y29.0932
G01 X18.5417 Y28.9499
G01 X18.5044 Y28.8000
G01 X18.4825 Y28.6519
G01 X18.4750 Y28.5012
G01 X18.4828 Y28.3456
G01 X18.5048 Y28.1976
G01 X18.5411 Y28.0524
G01 X18.5930 Y27.9068
G01 X18.6586 Y27.7683
G01 X18.7376 Y27.6369
G01 X18.8268 Y27.5167
G01 X18.9281 Y27.4049
G01 X19.0426 Y27.3011
G01 X19.1629 Y27.2119
G01 X19.2246 Y27.1747
G01 X19.2246 Y11.7450
G01 X19.2285 Y11.6665
G01 X19.2396 Y11.5913
G01 X19.2595 Y11.5115
G01 X19.2865 Y11.4365
G01 X19.3191 Y11.3677
G01 X19.3582 Y11.3024
G01 X19.4063 Y11.2372
G01 X19.4590 Y11.1790
G01 X25.4600 Y5.1781
G01 X25.4600 Y3.2600
G01 X25.4610 Y3.2502
G01 X25.4625 Y3.2443
G01 X25.4643 Y3.2397
G01 X25.4691 Y3.2312
G01 X25.4730 Y3.2264
G01 X25.4764 Y3.2230
G01 X25.4843 Y3.2171
G01 X25.4920 Y3.2134
G01 X25.5015 Y3.2107
G01 X25.5100 Y3.2100
G01 X28.5100 Y3.2100
M5
G00X0Y0Z0


