; This gcode is generated by my specialised python script for my PCB manufacturer project :))

; Machine Initialization Sequence...

G21 ; to set metric units
G90 ; to set absolute mode , G91 for incremental mode
G94 ; To set the active feed rate mode to units per minute mode

M5 ; disabling spindle PWM
C0 ; Choosing the empty tool slot in the multiplexer circuits

B1 ; Turn ON Machine

$H ; Homing :)
G10 P0 L20 X0Y0Z0 ; Force Reset current coordinates after homing


; The following gcode is the PCB trace laser marking gcode

M5 ; Being extra sure it won't light up before activation

; Getting and Activating Tool-1, The Tool.Laser
G00X165Y0Z10.5 ; Go to Tool-1 Home Pos
G00X188 ; Enter Female Kinematic Mount Home Pos
A1 ; Latch on Kinematic Mount
G4 P5 ; Wait for Kinematic Mount to fully attach
G00X92 ; Exit Female Kinematic Mount Home Pos
#TODO X0Y0Z0 ;  ;Add tool offset coordinate
C1 ; Choosing tool 1 in the choose demultiplexer circuits

F600 ; setting default feedrate

G00Z16 ; Moving to correct focal length Z position

S150 ; Setting Laser Power

Number of passes: 1

; Pass number: 0
G01 X25.546Y17.522
M3
G01 X25.53Y19.206
G01 X25.516Y19.214
G01 X25.503Y19.222
G01 X25.489Y19.231
G01 X25.475Y19.24
G01 X25.461Y19.249
G01 X25.446Y19.26
G01 X25.431Y19.271
G01 X25.416Y19.283
G01 X25.4Y19.296
G01 X25.384Y19.31
G01 X25.367Y19.325
G01 X25.349Y19.342
G01 X25.331Y19.361
G01 X25.312Y19.383
G01 X25.29Y19.408
G01 X25.267Y19.439
G01 X25.239Y19.482
G01 X25.182Y19.59
G01 X25.142Y19.705
G01 X25.131Y19.755
G01 X25.124Y19.793
G01 X25.12Y19.826
G01 X25.118Y19.855
G01 X25.116Y19.882
G01 X25.116Y19.906
G01 X25.116Y19.929
G01 X25.117Y19.95
G01 X25.119Y19.971
G01 X25.12Y19.99
G01 X25.122Y20.008
G01 X25.125Y20.026
G01 X25.128Y20.043
G01 X25.131Y20.06
G01 X25.134Y20.076
G01 X25.137Y20.091
G01 X25.141Y20.106
G01 X23.969Y21.288
G01 X23.969Y21.288
G01 X22.009Y21.288
G01 X20.609Y19.888
G01 X19.678Y19.888
G01 X19.684Y17.765
G01 X20.03Y17.765
G01 X20.03Y16.715
G01 X18.53Y16.715
G01 X18.53Y17.765
G01 X18.874Y17.765
G01 X18.868Y19.93
G01 X18.868Y19.93
G01 X15.68Y19.895
G01 X15.597Y19.776
G01 X15.515Y19.69
G01 X15.432Y19.625
G01 X15.349Y19.576
G01 X15.266Y19.541
G01 X15.183Y19.513
G01 X15.1Y19.496
G01 X15.017Y19.489
G01 X14.934Y19.49
G01 X14.851Y19.498
G01 X14.768Y19.517
G01 X14.685Y19.546
G01 X14.602Y19.585
G01 X14.518Y19.636
G01 X14.435Y19.705
G01 X14.352Y19.798
G01 X14.268Y19.929
G01 X14.183Y20.284
G01 X14.264Y20.64
G01 X14.347Y20.773
G01 X14.429Y20.864
G01 X14.512Y20.934
G01 X14.595Y20.987
G01 X14.678Y21.028
G01 X14.76Y21.057
G01 X14.843Y21.077
G01 X14.926Y21.086
G01 X15.009Y21.087
G01 X15.093Y21.08
G01 X15.176Y21.065
G01 X15.259Y21.039
G01 X15.342Y21.004
G01 X15.425Y20.955
G01 X15.509Y20.892
G01 X15.592Y20.807
G01 X15.676Y20.688
G01 X19.272Y20.688
G01 X19.272Y20.688
G01 X20.279Y20.688
G01 X21.679Y22.088
G01 X24.301Y22.088
G01 X25.709Y20.68
G01 X25.724Y20.684
G01 X25.739Y20.687
G01 X25.755Y20.691
G01 X25.771Y20.694
G01 X25.788Y20.697
G01 X25.806Y20.699
G01 X25.824Y20.702
G01 X25.843Y20.704
G01 X25.864Y20.705
G01 X25.885Y20.706
G01 X25.908Y20.707
G01 X25.932Y20.707
G01 X25.958Y20.706
G01 X25.987Y20.704
G01 X26.02Y20.7
G01 X26.058Y20.694
G01 X26.107Y20.684
G01 X26.222Y20.646
G01 X26.33Y20.591
G01 X26.372Y20.564
G01 X26.404Y20.541
G01 X26.429Y20.52
G01 X26.451Y20.501
G01 X26.471Y20.484
G01 X26.488Y20.466
G01 X26.503Y20.45
G01 X26.518Y20.434
G01 X26.531Y20.419
G01 X26.543Y20.404
G01 X26.554Y20.389
G01 X26.565Y20.375
G01 X26.575Y20.361
G01 X26.584Y20.347
G01 X26.593Y20.334
G01 X26.601Y20.32
G01 X26.609Y20.307
G01 X27.035Y20.307
G01 X27.035Y20.307
G01 X29.927Y23.199
G01 X45.327Y23.199
G01 X46.304Y22.222
G01 X48.351Y22.222
G01 X48.351Y29.316
G01 X52.296Y33.261
G01 X65.882Y33.261
G01 X66.666Y32.477
G01 X66.692Y32.492
G01 X66.719Y32.506
G01 X66.747Y32.52
G01 X66.776Y32.534
G01 X66.807Y32.548
G01 X66.839Y32.561
G01 X66.872Y32.574
G01 X66.907Y32.587
G01 X66.945Y32.6
G01 X66.984Y32.612
G01 X67.027Y32.623
G01 X67.072Y32.635
G01 X67.122Y32.645
G01 X67.178Y32.655
G01 X67.241Y32.663
G01 X67.316Y32.669
G01 X67.414Y32.672
G01 X67.648Y32.652
G01 X67.876Y32.596
G01 X67.968Y32.562
G01 X68.037Y32.532
G01 X68.095Y32.504
G01 X68.144Y32.477
G01 X68.188Y32.451
G01 X68.228Y32.426
G01 X68.264Y32.401
G01 X68.298Y32.377
G01 X68.329Y32.353
G01 X68.359Y32.33
G01 X68.386Y32.307
G01 X68.412Y32.284
G01 X68.437Y32.261
G01 X68.46Y32.238
G01 X68.482Y32.216
G01 X68.503Y32.194
G01 X68.523Y32.172
G01 X77.337Y32.172
G01 X77.376Y32.214
G01 X77.417Y32.255
G01 X77.461Y32.295
G01 X77.507Y32.335
G01 X77.556Y32.373
G01 X77.608Y32.41
G01 X77.664Y32.446
G01 X77.722Y32.481
G01 X77.785Y32.514
G01 X77.852Y32.546
G01 X77.925Y32.575
G01 X78.003Y32.602
G01 X78.09Y32.627
G01 X78.185Y32.648
G01 X78.295Y32.663
G01 X78.424Y32.672
G01 X78.591Y32.666
G01 X78.98Y32.577
G01 X79.332Y32.389
G01 X79.462Y32.284
G01 X79.554Y32.193
G01 X79.626Y32.109
G01 X79.685Y32.031
G01 X79.734Y31.956
G01 X79.775Y31.884
G01 X79.811Y31.814
G01 X79.841Y31.746
G01 X79.866Y31.68
G01 X79.888Y31.615
G01 X79.906Y31.552
G01 X79.921Y31.49
G01 X79.933Y31.429
G01 X79.942Y31.369
G01 X79.949Y31.31
G01 X79.953Y31.251
G01 X79.955Y31.194
G01 X85.971Y31.194
G01 X85.971Y31.694
G01 X88.971Y31.694
G01 X88.971Y28.694
G01 X85.971Y28.694
G01 X85.971Y29.194
G01 X79.019Y29.194
G01 X79.019Y29.194
G01 X78.539Y29.674
G01 X78.519Y29.673
G01 X78.5Y29.673
G01 X78.479Y29.672
G01 X78.458Y29.672
G01 X78.436Y29.672
G01 X78.414Y29.673
G01 X78.39Y29.673
G01 X78.366Y29.675
G01 X78.34Y29.676
G01 X78.313Y29.679
G01 X78.284Y29.682
G01 X78.253Y29.686
G01 X78.219Y29.691
G01 X78.182Y29.697
G01 X78.141Y29.705
G01 X78.092Y29.717
G01 X78.029Y29.734
G01 X77.881Y29.786
G01 X77.739Y29.854
G01 X77.683Y29.886
G01 X77.64Y29.913
G01 X77.605Y29.936
G01 X77.574Y29.958
G01 X77.547Y29.978
G01 X77.523Y29.997
G01 X77.5Y30.015
G01 X77.479Y30.033
G01 X77.46Y30.05
G01 X77.441Y30.066
G01 X77.424Y30.082
G01 X77.408Y30.098
G01 X77.392Y30.113
G01 X77.377Y30.128
G01 X77.363Y30.143
G01 X77.35Y30.158
G01 X77.337Y30.172
G01 X68.523Y30.172
G01 X68.503Y30.15
G01 X68.482Y30.128
G01 X68.46Y30.106
G01 X68.437Y30.083
G01 X68.412Y30.06
G01 X68.386Y30.037
G01 X68.359Y30.014
G01 X68.329Y29.991
G01 X68.298Y29.967
G01 X68.264Y29.943
G01 X68.228Y29.918
G01 X68.188Y29.893
G01 X68.144Y29.867
G01 X68.095Y29.84
G01 X68.037Y29.812
G01 X67.968Y29.782
G01 X67.876Y29.748
G01 X67.648Y29.692
G01 X67.413Y29.672
G01 X67.316Y29.675
G01 X67.24Y29.681
G01 X67.177Y29.689
G01 X67.122Y29.699
G01 X67.072Y29.709
G01 X67.026Y29.721
G01 X66.984Y29.732
G01 X66.944Y29.745
G01 X66.907Y29.757
G01 X66.871Y29.77
G01 X66.838Y29.783
G01 X66.806Y29.797
G01 X66.776Y29.81
G01 X66.746Y29.824
G01 X66.718Y29.838
G01 X66.691Y29.853
G01 X66.665Y29.867
G01 X64.687Y27.889
G01 X64.687Y27.889
G01 X61.494Y27.889
G01 X61.411Y27.771
G01 X61.328Y27.687
G01 X61.245Y27.624
G01 X61.162Y27.575
G01 X61.079Y27.539
G01 X60.996Y27.513
G01 X60.913Y27.497
G01 X60.83Y27.49
G01 X60.747Y27.491
G01 X60.665Y27.501
G01 X60.582Y27.52
G01 X60.499Y27.548
G01 X60.416Y27.588
G01 X60.333Y27.64
G01 X60.25Y27.709
G01 X60.167Y27.801
G01 X60.084Y27.934
G01 X60.001Y28.289
G01 X60.084Y28.644
G01 X60.167Y28.777
G01 X60.25Y28.869
G01 X60.333Y28.938
G01 X60.416Y28.99
G01 X60.499Y29.03
G01 X60.582Y29.058
G01 X60.665Y29.077
G01 X60.747Y29.087
G01 X60.83Y29.088
G01 X60.913Y29.081
G01 X60.996Y29.065
G01 X61.079Y29.039
G01 X61.162Y29.003
G01 X61.245Y28.954
G01 X61.328Y28.891
G01 X61.411Y28.807
G01 X61.494Y28.689
G01 X64.357Y28.689
G01 X64.357Y28.689
G01 X66.1Y30.432
G01 X66.089Y30.464
G01 X66.078Y30.495
G01 X66.068Y30.47
G01 X66.057Y30.502
G01 X66.046Y30.533
G01 X66.035Y30.565
G01 X66.024Y30.596
G01 X66.013Y30.628
G01 X66.003Y30.66
G01 X65.992Y30.691
G01 X65.981Y30.723
G01 X65.97Y30.755
G01 X65.959Y30.786
G01 X65.948Y30.818
G01 X65.938Y30.849
G01 X65.927Y30.938
G01 X65.916Y30.969
G01 X65.905Y31.172
G01 X65.916Y31.368
G01 X65.927Y31.45
G01 X65.937Y31.475
G01 X65.948Y31.557
G01 X65.959Y31.583
G01 X65.97Y31.608
G01 X65.981Y31.633
G01 X65.992Y31.658
G01 X66.002Y31.684
G01 X66.013Y31.709
G01 X66.024Y31.734
G01 X66.035Y31.76
G01 X66.046Y31.785
G01 X66.057Y31.81
G01 X66.067Y31.836
G01 X66.078Y31.861
G01 X66.089Y31.886
G01 X66.1Y31.911
G01 X65.55Y32.461
G01 X65.55Y32.461
G01 X52.626Y32.461
G01 X49.151Y28.986
G01 X49.151Y21.988
G01 X53.484Y17.655
G01 X53.484Y17.141
G01 X54.284Y17.141
G01 X54.284Y15.707
G01 X56.502Y13.489
G01 X56.502Y13.489
G01 X56.502Y6.962
G01 X55.304Y5.763
G01 X55.328Y5.621
G01 X55.329Y5.503
G01 X55.315Y5.399
G01 X55.291Y5.306
G01 X55.258Y5.222
G01 X55.217Y5.145
G01 X55.17Y5.075
G01 X55.117Y5.011
G01 X55.057Y4.953
G01 X54.992Y4.902
G01 X54.92Y4.857
G01 X54.841Y4.818
G01 X54.754Y4.788
G01 X54.658Y4.766
G01 X54.551Y4.756
G01 X54.427Y4.763
G01 X54.275Y4.798
G01 X53.965Y4.991
G01 X53.773Y5.3
G01 X53.738Y5.453
G01 X53.731Y5.577
G01 X53.741Y5.684
G01 X53.763Y5.78
G01 X53.794Y5.866
G01 X53.832Y5.945
G01 X53.877Y6.017
G01 X53.929Y6.083
G01 X53.987Y6.142
G01 X54.05Y6.196
G01 X54.121Y6.243
G01 X54.197Y6.283
G01 X54.282Y6.316
G01 X54.375Y6.341
G01 X54.478Y6.354
G01 X54.596Y6.353
G01 X54.738Y6.329
G01 X55.702Y7.292
G01 X55.702Y7.292
G01 X55.702Y13.157
G01 X53.318Y15.541
G01 X51.884Y15.541
G01 X51.884Y17.141
G01 X52.684Y17.141
G01 X52.684Y17.323
G01 X52.684Y17.323
G01 X48.585Y21.422
G01 X46.303Y21.422
G01 X44.564Y19.683
G01 X44.564Y18.041
G01 X45.481Y17.124
G01 X45.623Y17.148
G01 X45.741Y17.149
G01 X45.845Y17.136
G01 X45.938Y17.111
G01 X46.022Y17.078
G01 X46.099Y17.038
G01 X46.169Y16.99
G01 X46.233Y16.937
G01 X46.29Y16.877
G01 X46.342Y16.812
G01 X46.387Y16.74
G01 X46.426Y16.661
G01 X46.456Y16.574
G01 X46.478Y16.478
G01 X46.488Y16.371
G01 X46.481Y16.247
G01 X46.446Y16.095
G01 X46.254Y15.785
G01 X45.944Y15.593
G01 X45.792Y15.558
G01 X45.668Y15.551
G01 X45.561Y15.561
G01 X45.465Y15.583
G01 X45.378Y15.613
G01 X45.299Y15.652
G01 X45.227Y15.697
G01 X45.162Y15.749
G01 X45.102Y15.806
G01 X45.049Y15.87
G01 X45.001Y15.94
G01 X44.961Y16.017
G01 X44.928Y16.101
G01 X44.904Y16.194
G01 X44.89Y16.298
G01 X44.891Y16.416
G01 X44.915Y16.558
G01 X43.764Y17.709
G01 X43.764Y17.709
G01 X43.764Y20.013
G01 X45.573Y21.822
G01 X44.995Y22.399
G01 X30.257Y22.399
G01 X27.365Y19.507
G01 X26.609Y19.507
G01 X26.606Y19.502
G01 X26.603Y19.497
G01 X26.599Y19.491
G01 X26.596Y19.486
G01 X26.592Y19.48
G01 X26.589Y19.474
G01 X26.585Y19.468
G01 X26.581Y19.462
G01 X26.576Y19.455
G01 X26.571Y19.448
G01 X26.566Y19.441
G01 X26.56Y19.433
G01 X26.554Y19.424
G01 X26.547Y19.415
G01 X26.539Y19.405
G01 X26.529Y19.393
G01 X26.515Y19.377
G01 X26.482Y19.341
G01 X26.446Y19.308
G01 X26.431Y19.295
G01 X26.419Y19.285
G01 X26.408Y19.276
G01 X26.399Y19.269
G01 X26.391Y19.263
G01 X26.383Y19.257
G01 X26.375Y19.252
G01 X26.368Y19.247
G01 X26.362Y19.243
G01 X26.355Y19.238
G01 X26.349Y19.234
G01 X26.343Y19.231
G01 X26.338Y19.227
G01 X26.332Y19.224
G01 X26.327Y19.22
G01 X26.321Y19.217
G01 X26.316Y19.214
G01 X26.331Y17.522
G01 X27.146Y17.522
G01 X27.146Y16.095
G01 X28.146Y15.088
G01 X28.146Y15.088
G01 X28.146Y6.292
G01 X27.999Y6.145
G01 X28.022Y6.014
G01 X28.025Y5.902
G01 X28.015Y5.802
G01 X27.994Y5.711
G01 X27.964Y5.628
G01 X27.927Y5.552
G01 X27.883Y5.481
G01 X27.833Y5.416
G01 X27.777Y5.357
G01 X27.715Y5.304
G01 X27.645Y5.256
G01 X27.569Y5.214
G01 X27.485Y5.18
G01 X27.391Y5.154
G01 X27.286Y5.139
G01 X27.163Y5.139
G01 X27.01Y5.167
G01 X26.693Y5.34
G01 X26.485Y5.636
G01 X26.441Y5.785
G01 X26.427Y5.907
G01 X26.43Y6.014
G01 X26.445Y6.11
G01 X26.47Y6.197
G01 X26.502Y6.278
G01 X26.542Y6.352
G01 X26.588Y6.42
G01 X26.641Y6.482
G01 X26.699Y6.539
G01 X26.765Y6.591
G01 X26.836Y6.636
G01 X26.916Y6.674
G01 X27.004Y6.705
G01 X27.102Y6.727
G01 X27.213Y6.737
G01 X27.346Y6.728
G01 X27.346Y14.756
G01 X27.346Y14.756
G01 X27.12Y14.982
G01 X27.146Y13.382
G01 X24.746Y13.382
G01 X24.746Y14.982
G01 X27.146Y14.956
G01 X26.18Y15.922
G01 X24.746Y15.922
G01 X24.746Y17.522
G01 X25.546Y17.522
M5
G01 X61.544Y25.034
M3
G01 X66.027Y20.551
G01 X66.027Y13.191
G01 X65.646Y12.81
G01 X65.646Y8.097
G01 X66.666Y7.077
G01 X66.692Y7.092
G01 X66.719Y7.106
G01 X66.747Y7.12
G01 X66.776Y7.134
G01 X66.807Y7.148
G01 X66.839Y7.161
G01 X66.872Y7.174
G01 X66.907Y7.187
G01 X66.945Y7.2
G01 X66.984Y7.212
G01 X67.027Y7.223
G01 X67.072Y7.235
G01 X67.122Y7.245
G01 X67.178Y7.255
G01 X67.241Y7.263
G01 X67.316Y7.269
G01 X67.414Y7.272
G01 X67.648Y7.252
G01 X67.876Y7.196
G01 X67.968Y7.162
G01 X68.037Y7.132
G01 X68.095Y7.104
G01 X68.144Y7.077
G01 X68.188Y7.051
G01 X68.228Y7.026
G01 X68.264Y7.001
G01 X68.298Y6.977
G01 X68.329Y6.953
G01 X68.359Y6.93
G01 X68.386Y6.907
G01 X68.412Y6.884
G01 X68.437Y6.861
G01 X68.46Y6.838
G01 X68.482Y6.816
G01 X68.503Y6.794
G01 X68.523Y6.772
G01 X77.337Y6.772
G01 X77.35Y6.786
G01 X77.363Y6.801
G01 X77.378Y6.816
G01 X77.392Y6.831
G01 X77.408Y6.846
G01 X77.424Y6.862
G01 X77.441Y6.878
G01 X77.46Y6.894
G01 X77.479Y6.911
G01 X77.5Y6.929
G01 X77.523Y6.947
G01 X77.547Y6.966
G01 X77.574Y6.986
G01 X77.605Y7.008
G01 X77.64Y7.031
G01 X77.683Y7.058
G01 X77.74Y7.09
G01 X77.882Y7.158
G01 X78.03Y7.21
G01 X78.093Y7.228
G01 X78.142Y7.239
G01 X78.183Y7.247
G01 X78.22Y7.253
G01 X78.254Y7.258
G01 X78.284Y7.262
G01 X78.313Y7.265
G01 X78.341Y7.268
G01 X78.366Y7.269
G01 X78.391Y7.271
G01 X78.415Y7.271
G01 X78.437Y7.272
G01 X78.459Y7.272
G01 X78.48Y7.272
G01 X78.501Y7.271
G01 X78.52Y7.271
G01 X78.54Y7.27
G01 X81.645Y10.375
G01 X81.645Y10.375
G01 X81.645Y20.701
G01 X85.973Y25.029
G01 X85.976Y25.233
G01 X86.001Y25.413
G01 X86.044Y25.576
G01 X86.101Y25.725
G01 X86.17Y25.861
G01 X86.251Y25.987
G01 X86.342Y26.102
G01 X86.443Y26.206
G01 X86.554Y26.301
G01 X86.675Y26.386
G01 X86.807Y26.459
G01 X86.951Y26.521
G01 X87.108Y26.57
G01 X87.282Y26.602
G01 X87.475Y26.614
G01 X87.698Y26.597
G01 X87.973Y26.527
G01 X88.532Y26.174
G01 X88.885Y25.616
G01 X88.954Y25.341
G01 X88.971Y25.117
G01 X88.959Y24.924
G01 X88.926Y24.751
G01 X88.878Y24.593
G01 X88.816Y24.449
G01 X88.742Y24.317
G01 X88.657Y24.196
G01 X88.563Y24.085
G01 X88.458Y23.984
G01 X88.343Y23.893
G01 X88.218Y23.813
G01 X88.081Y23.744
G01 X87.932Y23.687
G01 X87.769Y23.644
G01 X87.589Y23.619
G01 X87.385Y23.616
G01 X83.645Y19.875
G01 X83.645Y19.875
G01 X83.645Y9.549
G01 X79.953Y5.857
G01 X79.955Y5.797
G01 X79.955Y5.737
G01 X79.952Y5.675
G01 X79.946Y5.612
G01 X79.938Y5.549
G01 X79.927Y5.484
G01 X79.912Y5.417
G01 X79.894Y5.349
G01 X79.872Y5.279
G01 X79.845Y5.208
G01 X79.813Y5.134
G01 X79.774Y5.058
G01 X79.728Y4.978
G01 X79.671Y4.894
G01 X79.602Y4.805
G01 X79.511Y4.707
G01 X79.383Y4.593
G01 X79.03Y4.386
G01 X78.634Y4.283
G01 X78.462Y4.272
G01 X78.329Y4.277
G01 X78.217Y4.291
G01 X78.118Y4.31
G01 X78.029Y4.334
G01 X77.947Y4.361
G01 X77.872Y4.39
G01 X77.803Y4.421
G01 X77.737Y4.455
G01 X77.676Y4.49
G01 X77.619Y4.527
G01 X77.565Y4.565
G01 X77.514Y4.604
G01 X77.466Y4.644
G01 X77.42Y4.686
G01 X77.378Y4.728
G01 X77.337Y4.772
G01 X68.523Y4.772
G01 X68.472Y4.717
G01 X68.417Y4.665
G01 X68.359Y4.615
G01 X68.298Y4.567
G01 X68.234Y4.522
G01 X68.165Y4.479
G01 X68.093Y4.439
G01 X68.017Y4.402
G01 X67.936Y4.369
G01 X67.85Y4.339
G01 X67.757Y4.314
G01 X67.658Y4.294
G01 X67.551Y4.279
G01 X67.433Y4.272
G01 X67.3Y4.276
G01 X67.146Y4.294
G01 X66.953Y4.342
G01 X66.53Y4.553
G01 X66.195Y4.886
G01 X66.088Y5.054
G01 X66.021Y5.194
G01 X65.975Y5.318
G01 X65.944Y5.432
G01 X65.923Y5.539
G01 X65.911Y5.639
G01 X65.905Y5.735
G01 X65.906Y5.826
G01 X65.912Y5.913
G01 X65.922Y5.998
G01 X65.937Y6.079
G01 X65.955Y6.157
G01 X65.977Y6.233
G01 X66.003Y6.306
G01 X66.032Y6.377
G01 X66.064Y6.445
G01 X66.1Y6.511
G01 X64.846Y7.765
G01 X64.846Y7.765
G01 X64.846Y13.14
G01 X65.227Y13.521
G01 X65.227Y20.219
G01 X60.978Y24.468
G01 X60.836Y24.444
G01 X60.718Y24.443
G01 X60.614Y24.456
G01 X60.521Y24.481
G01 X60.437Y24.514
G01 X60.36Y24.554
G01 X60.29Y24.602
G01 X60.226Y24.655
G01 X60.169Y24.715
G01 X60.117Y24.78
G01 X60.072Y24.852
G01 X60.033Y24.931
G01 X60.003Y25.018
G01 X59.981Y25.114
G01 X59.971Y25.221
G01 X59.978Y25.345
G01 X60.013Y25.497
G01 X60.205Y25.807
G01 X60.515Y25.999
G01 X60.667Y26.034
G01 X60.791Y26.041
G01 X60.898Y26.031
G01 X60.994Y26.009
G01 X61.081Y25.979
G01 X61.16Y25.94
G01 X61.232Y25.895
G01 X61.297Y25.843
G01 X61.357Y25.786
G01 X61.41Y25.722
G01 X61.458Y25.652
G01 X61.498Y25.575
G01 X61.531Y25.491
G01 X61.556Y25.398
G01 X61.569Y25.294
G01 X61.568Y25.176
G01 X61.544Y25.034
M5
G01 X26.553Y4.937
M3
G01 X27.634Y4.937
G01 X28.616Y5.919
G01 X28.616Y17.525
G01 X33.29Y22.199
G01 X39.221Y22.199
G01 X40.868Y20.552
G01 X40.868Y18.331
G01 X43.848Y15.351
G01 X46.669Y15.351
G01 X46.688Y15.37
G01 X46.688Y17.833
G01 X45.895Y18.626
G01 X45.753Y18.602
G01 X45.635Y18.601
G01 X45.531Y18.614
G01 X45.438Y18.639
G01 X45.354Y18.672
G01 X45.277Y18.712
G01 X45.207Y18.76
G01 X45.143Y18.813
G01 X45.086Y18.873
G01 X45.034Y18.938
G01 X44.989Y19.01
G01 X44.95Y19.089
G01 X44.92Y19.176
G01 X44.898Y19.272
G01 X44.888Y19.379
G01 X44.895Y19.503
G01 X44.93Y19.655
G01 X45.122Y19.965
G01 X45.432Y20.157
G01 X45.584Y20.192
G01 X45.708Y20.199
G01 X45.815Y20.189
G01 X45.911Y20.167
G01 X45.998Y20.137
G01 X46.077Y20.098
G01 X46.149Y20.053
G01 X46.214Y20.001
G01 X46.274Y19.944
G01 X46.327Y19.88
G01 X46.375Y19.81
G01 X46.415Y19.733
G01 X46.448Y19.649
G01 X46.472Y19.556
G01 X46.486Y19.452
G01 X46.485Y19.334
G01 X46.461Y19.192
G01 X47.488Y18.165
G01 X47.488Y18.165
G01 X47.488Y15.371
G01 X48.362Y14.497
G01 X48.389Y14.505
G01 X48.418Y14.512
G01 X48.447Y14.518
G01 X48.477Y14.524
G01 X48.508Y14.528
G01 X48.54Y14.531
G01 X48.573Y14.533
G01 X48.608Y14.534
G01 X48.644Y14.533
G01 X48.681Y14.531
G01 X48.721Y14.527
G01 X48.763Y14.52
G01 X48.808Y14.51
G01 X48.857Y14.497
G01 X48.91Y14.479
G01 X48.972Y14.453
G01 X49.048Y14.412
G01 X49.21Y14.285
G01 X49.337Y14.123
G01 X49.378Y14.047
G01 X49.404Y13.985
G01 X49.422Y13.932
G01 X49.435Y13.883
G01 X49.445Y13.838
G01 X49.452Y13.796
G01 X49.456Y13.757
G01 X49.458Y13.719
G01 X49.459Y13.683
G01 X49.458Y13.648
G01 X49.456Y13.615
G01 X49.453Y13.583
G01 X49.449Y13.552
G01 X49.443Y13.522
G01 X49.437Y13.493
G01 X49.43Y13.464
G01 X49.422Y13.437
G01 X50.459Y12.4
G01 X50.459Y7.857
G01 X49.663Y7.061
G01 X49.359Y7.061
G01 X49.272Y6.929
G01 X49.184Y6.835
G01 X49.096Y6.765
G01 X49.008Y6.711
G01 X48.92Y6.67
G01 X48.832Y6.641
G01 X48.743Y6.621
G01 X48.655Y6.612
G01 X48.566Y6.612
G01 X48.478Y6.621
G01 X48.389Y6.64
G01 X48.3Y6.669
G01 X48.211Y6.71
G01 X48.121Y6.765
G01 X48.032Y6.837
G01 X47.942Y6.934
G01 X47.852Y7.074
G01 X47.759Y7.451
G01 X47.843Y7.831
G01 X47.93Y7.973
G01 X48.018Y8.072
G01 X48.106Y8.146
G01 X48.194Y8.202
G01 X48.282Y8.245
G01 X48.37Y8.276
G01 X48.459Y8.298
G01 X48.547Y8.309
G01 X48.636Y8.311
G01 X48.725Y8.303
G01 X48.813Y8.286
G01 X48.902Y8.259
G01 X48.991Y8.22
G01 X49.081Y8.169
G01 X49.17Y8.099
G01 X49.26Y8.008
G01 X49.35Y7.878
G01 X49.659Y8.187
G01 X49.659Y8.187
G01 X49.659Y12.068
G01 X48.856Y12.871
G01 X48.829Y12.863
G01 X48.8Y12.856
G01 X48.771Y12.85
G01 X48.741Y12.844
G01 X48.71Y12.84
G01 X48.678Y12.837
G01 X48.645Y12.835
G01 X48.61Y12.834
G01 X48.574Y12.835
G01 X48.536Y12.837
G01 X48.497Y12.841
G01 X48.455Y12.848
G01 X48.41Y12.858
G01 X48.361Y12.871
G01 X48.308Y12.889
G01 X48.246Y12.915
G01 X48.17Y12.956
G01 X48.008Y13.083
G01 X47.881Y13.245
G01 X47.84Y13.321
G01 X47.814Y13.383
G01 X47.796Y13.436
G01 X47.783Y13.485
G01 X47.773Y13.53
G01 X47.766Y13.572
G01 X47.762Y13.611
G01 X47.76Y13.649
G01 X47.759Y13.685
G01 X47.76Y13.72
G01 X47.762Y13.753
G01 X47.765Y13.785
G01 X47.769Y13.816
G01 X47.775Y13.846
G01 X47.781Y13.875
G01 X47.788Y13.904
G01 X47.796Y13.931
G01 X47.087Y14.64
G01 X46.999Y14.551
G01 X43.516Y14.551
G01 X40.068Y17.999
G01 X40.068Y20.22
G01 X38.889Y21.399
G01 X33.62Y21.399
G01 X29.416Y17.195
G01 X29.416Y5.589
G01 X27.964Y4.137
G01 X26.221Y4.137
G01 X23.571Y6.787
G01 X23.571Y11.943
G01 X22.862Y12.652
G01 X21.023Y12.652
G01 X17.845Y9.474
G01 X14.474Y9.474
G01 X11.709Y12.239
G01 X10.315Y12.239
G01 X10.315Y13.839
G01 X12.715Y13.839
G01 X12.715Y12.365
G01 X14.806Y10.274
G01 X14.806Y10.274
G01 X17.515Y10.274
G01 X20.693Y13.452
G01 X23.194Y13.452
G01 X24.371Y12.275
G01 X24.371Y7.119
G01 X26.553Y4.937
M5
G01 X51.549Y13.85
M3
G01 X51.549Y6.992
G01 X53.985Y4.556
G01 X54.939Y4.556
G01 X56.972Y6.589
G01 X56.972Y15.941
G01 X56.835Y15.941
G01 X54.666Y18.11
G01 X53.311Y18.11
G01 X49.351Y22.07
G01 X49.351Y28.902
G01 X52.186Y31.737
G01 X52.458Y31.737
G01 X52.538Y31.851
G01 X52.618Y31.933
G01 X52.698Y31.997
G01 X52.78Y32.046
G01 X52.861Y32.083
G01 X52.943Y32.109
G01 X53.024Y32.127
G01 X53.107Y32.136
G01 X53.189Y32.136
G01 X53.272Y32.128
G01 X53.354Y32.111
G01 X53.437Y32.084
G01 X53.521Y32.046
G01 X53.604Y31.996
G01 X53.689Y31.93
G01 X53.773Y31.84
G01 X53.859Y31.709
G01 X53.951Y31.358
G01 X53.878Y31.002
G01 X53.799Y30.868
G01 X53.719Y30.774
G01 X53.638Y30.703
G01 X53.558Y30.648
G01 X53.476Y30.606
G01 X53.395Y30.575
G01 X53.313Y30.554
G01 X53.231Y30.541
G01 X53.149Y30.537
G01 X53.066Y30.542
G01 X52.983Y30.555
G01 X52.9Y30.577
G01 X52.817Y30.61
G01 X52.734Y30.654
G01 X52.65Y30.714
G01 X52.565Y30.792
G01 X52.48Y30.901
G01 X50.151Y28.572
G01 X50.151Y28.572
G01 X50.151Y22.402
G01 X53.643Y18.91
G01 X54.998Y18.91
G01 X57.167Y16.741
G01 X57.372Y16.741
G01 X59.504Y16.741
G01 X59.504Y17.141
G01 X61.904Y17.141
G01 X61.904Y15.541
G01 X59.504Y15.541
G01 X59.504Y15.941
G01 X57.772Y15.941
G01 X57.772Y15.941
G01 X57.772Y6.259
G01 X55.269Y3.756
G01 X53.653Y3.756
G01 X50.749Y6.66
G01 X50.749Y13.518
G01 X48.856Y15.411
G01 X48.699Y15.379
G01 X48.569Y15.375
G01 X48.456Y15.388
G01 X48.355Y15.413
G01 X48.264Y15.447
G01 X48.181Y15.49
G01 X48.105Y15.539
G01 X48.036Y15.596
G01 X47.974Y15.659
G01 X47.918Y15.729
G01 X47.869Y15.806
G01 X47.827Y15.89
G01 X47.794Y15.983
G01 X47.77Y16.085
G01 X47.759Y16.199
G01 X47.766Y16.332
G01 X47.803Y16.495
G01 X48.008Y16.825
G01 X48.338Y17.03
G01 X48.501Y17.067
G01 X48.634Y17.074
G01 X48.748Y17.063
G01 X48.85Y17.039
G01 X48.943Y17.006
G01 X49.027Y16.964
G01 X49.104Y16.915
G01 X49.174Y16.859
G01 X49.237Y16.797
G01 X49.294Y16.728
G01 X49.343Y16.652
G01 X49.386Y16.569
G01 X49.42Y16.478
G01 X49.445Y16.377
G01 X49.458Y16.264
G01 X49.454Y16.134
G01 X49.422Y15.977
G01 X51.549Y13.85
G01 X51.549Y13.85
M5
G01 X62.904Y15.127
M3
G01 X61.904Y14.127
G01 X61.904Y13.001
G01 X59.504Y13.001
G01 X59.504Y14.601
G01 X61.248Y14.601
G01 X62.104Y15.457
G01 X62.104Y15.457
G01 X62.104Y17.224
G01 X60.964Y18.364
G01 X57.587Y18.364
G01 X55.936Y20.015
G01 X52.82Y20.015
G01 X50.351Y22.484
G01 X50.351Y27.997
G01 X52.443Y30.089
G01 X57.434Y30.089
G01 X59.082Y31.737
G01 X60.078Y31.737
G01 X60.161Y31.855
G01 X60.244Y31.939
G01 X60.327Y32.002
G01 X60.41Y32.051
G01 X60.493Y32.087
G01 X60.576Y32.113
G01 X60.659Y32.129
G01 X60.742Y32.136
G01 X60.825Y32.135
G01 X60.907Y32.125
G01 X60.99Y32.106
G01 X61.073Y32.078
G01 X61.156Y32.038
G01 X61.239Y31.986
G01 X61.322Y31.917
G01 X61.405Y31.825
G01 X61.488Y31.692
G01 X61.571Y31.337
G01 X61.488Y30.982
G01 X61.405Y30.849
G01 X61.322Y30.757
G01 X61.239Y30.688
G01 X61.156Y30.636
G01 X61.073Y30.596
G01 X60.99Y30.568
G01 X60.907Y30.549
G01 X60.825Y30.539
G01 X60.742Y30.538
G01 X60.659Y30.545
G01 X60.576Y30.561
G01 X60.493Y30.587
G01 X60.41Y30.623
G01 X60.327Y30.672
G01 X60.244Y30.735
G01 X60.161Y30.819
G01 X60.078Y30.937
G01 X59.412Y30.937
G01 X59.412Y30.937
G01 X53.924Y25.449
G01 X53.948Y25.307
G01 X53.949Y25.189
G01 X53.936Y25.085
G01 X53.911Y24.992
G01 X53.878Y24.908
G01 X53.838Y24.831
G01 X53.791Y24.761
G01 X53.737Y24.697
G01 X53.678Y24.639
G01 X53.612Y24.587
G01 X53.54Y24.542
G01 X53.461Y24.504
G01 X53.375Y24.473
G01 X53.279Y24.451
G01 X53.172Y24.441
G01 X53.048Y24.448
G01 X52.895Y24.483
G01 X52.586Y24.675
G01 X52.393Y24.984
G01 X52.358Y25.137
G01 X52.351Y25.261
G01 X52.361Y25.368
G01 X52.383Y25.464
G01 X52.413Y25.551
G01 X52.452Y25.63
G01 X52.497Y25.702
G01 X52.548Y25.767
G01 X52.606Y25.827
G01 X52.67Y25.88
G01 X52.74Y25.927
G01 X52.817Y25.968
G01 X52.901Y26.001
G01 X52.994Y26.025
G01 X53.098Y26.039
G01 X53.216Y26.038
G01 X53.358Y26.014
G01 X56.634Y29.289
G01 X56.634Y29.289
G01 X52.773Y29.289
G01 X51.151Y27.667
G01 X51.151Y22.816
G01 X53.152Y20.815
G01 X56.268Y20.815
G01 X57.919Y19.164
G01 X61.296Y19.164
G01 X62.904Y17.556
G01 X62.904Y15.127
M5
G01 X63.904Y17.97
M3
G01 X63.904Y13.896
G01 X61.904Y11.896
G01 X61.904Y10.461
G01 X59.504Y10.461
G01 X59.504Y12.061
G01 X60.94Y12.061
G01 X61.904Y13.025
G01 X59.504Y13.001
G01 X59.504Y14.601
G01 X61.904Y14.601
G01 X61.88Y13.001
G01 X63.104Y14.226
G01 X63.104Y17.638
G01 X61.378Y19.364
G01 X59.964Y19.364
G01 X57.535Y21.793
G01 X53.874Y21.793
G01 X53.853Y21.76
G01 X53.831Y21.727
G01 X53.807Y21.695
G01 X53.781Y21.664
G01 X53.753Y21.634
G01 X53.723Y21.605
G01 X53.69Y21.576
G01 X53.655Y21.549
G01 X53.618Y21.523
G01 X53.577Y21.498
G01 X53.532Y21.474
G01 X53.484Y21.453
G01 X53.43Y21.433
G01 X53.371Y21.416
G01 X53.302Y21.402
G01 X53.221Y21.394
G01 X53.117Y21.396
G01 X52.875Y21.454
G01 X52.663Y21.583
G01 X52.588Y21.656
G01 X52.536Y21.72
G01 X52.497Y21.777
G01 X52.467Y21.832
G01 X52.443Y21.883
G01 X52.424Y21.933
G01 X52.41Y21.981
G01 X52.398Y22.028
G01 X52.39Y22.073
G01 X52.385Y22.117
G01 X52.382Y22.16
G01 X52.381Y22.202
G01 X52.383Y22.243
G01 X52.386Y22.283
G01 X52.392Y22.323
G01 X52.399Y22.362
G01 X52.408Y22.4
G01 X51.351Y23.457
G01 X51.351Y23.457
G01 X51.351Y27.024
G01 X52.408Y28.082
G01 X52.384Y28.224
G01 X52.383Y28.342
G01 X52.397Y28.446
G01 X52.421Y28.539
G01 X52.454Y28.623
G01 X52.495Y28.7
G01 X52.542Y28.77
G01 X52.595Y28.834
G01 X52.655Y28.892
G01 X52.721Y28.943
G01 X52.793Y28.988
G01 X52.872Y29.027
G01 X52.958Y29.057
G01 X53.054Y29.079
G01 X53.161Y29.089
G01 X53.285Y29.082
G01 X53.438Y29.047
G01 X53.747Y28.854
G01 X53.939Y28.544
G01 X53.974Y28.392
G01 X53.981Y28.268
G01 X53.971Y28.161
G01 X53.949Y28.065
G01 X53.918Y27.978
G01 X53.88Y27.9
G01 X53.834Y27.828
G01 X53.783Y27.762
G01 X53.725Y27.702
G01 X53.661Y27.649
G01 X53.591Y27.602
G01 X53.514Y27.562
G01 X53.43Y27.529
G01 X53.337Y27.504
G01 X53.233Y27.491
G01 X53.115Y27.492
G01 X52.973Y27.517
G01 X52.151Y26.694
G01 X52.151Y26.694
G01 X52.151Y23.789
G01 X52.974Y22.966
G01 X52.989Y22.97
G01 X53.004Y22.973
G01 X53.02Y22.977
G01 X53.036Y22.98
G01 X53.053Y22.983
G01 X53.071Y22.985
G01 X53.089Y22.988
G01 X53.108Y22.99
G01 X53.129Y22.991
G01 X53.15Y22.992
G01 X53.173Y22.993
G01 X53.197Y22.993
G01 X53.223Y22.992
G01 X53.252Y22.99
G01 X53.285Y22.986
G01 X53.323Y22.98
G01 X53.372Y22.97
G01 X53.487Y22.932
G01 X53.595Y22.877
G01 X53.637Y22.85
G01 X53.669Y22.827
G01 X53.694Y22.806
G01 X53.716Y22.787
G01 X53.736Y22.77
G01 X53.753Y22.752
G01 X53.768Y22.736
G01 X53.783Y22.72
G01 X53.796Y22.705
G01 X53.808Y22.69
G01 X53.819Y22.675
G01 X53.83Y22.661
G01 X53.84Y22.647
G01 X53.849Y22.633
G01 X53.858Y22.62
G01 X53.866Y22.606
G01 X53.874Y22.593
G01 X57.867Y22.593
G01 X57.867Y22.593
G01 X60.296Y20.164
G01 X61.71Y20.164
G01 X63.904Y17.97
M5
G01 X37.66Y20.399
M3
G01 X35.766Y18.505
G01 X35.766Y15.508
G01 X34.766Y14.508
G01 X34.766Y13.382
G01 X32.366Y13.382
G01 X32.366Y14.982
G01 X34.11Y14.982
G01 X34.966Y15.838
G01 X34.966Y15.838
G01 X34.966Y18.835
G01 X37.33Y21.199
G01 X38.807Y21.199
G01 X39.868Y20.138
G01 X39.868Y17.586
G01 X38.841Y16.559
G01 X38.844Y16.544
G01 X38.848Y16.529
G01 X38.851Y16.513
G01 X38.855Y16.496
G01 X38.858Y16.48
G01 X38.86Y16.462
G01 X38.863Y16.444
G01 X38.865Y16.424
G01 X38.866Y16.404
G01 X38.867Y16.383
G01 X38.868Y16.36
G01 X38.868Y16.336
G01 X38.867Y16.31
G01 X38.865Y16.281
G01 X38.861Y16.248
G01 X38.855Y16.21
G01 X38.845Y16.161
G01 X38.807Y16.045
G01 X38.752Y15.937
G01 X38.725Y15.894
G01 X38.702Y15.863
G01 X38.681Y15.838
G01 X38.662Y15.816
G01 X38.645Y15.796
G01 X38.628Y15.779
G01 X38.611Y15.764
G01 X38.595Y15.749
G01 X38.58Y15.736
G01 X38.565Y15.724
G01 X38.55Y15.713
G01 X38.536Y15.702
G01 X38.522Y15.692
G01 X38.508Y15.683
G01 X38.495Y15.674
G01 X38.481Y15.666
G01 X38.468Y15.658
G01 X38.468Y14.76
G01 X38.468Y14.76
G01 X40.416Y12.812
G01 X41.125Y12.812
G01 X41.125Y12.687
G01 X42.425Y12.687
G01 X42.425Y12.687
G01 X44.186Y10.926
G01 X44.276Y11.056
G01 X44.365Y11.148
G01 X44.455Y11.217
G01 X44.544Y11.269
G01 X44.633Y11.307
G01 X44.722Y11.334
G01 X44.811Y11.351
G01 X44.9Y11.359
G01 X44.988Y11.357
G01 X45.077Y11.345
G01 X45.165Y11.325
G01 X45.253Y11.294
G01 X45.342Y11.251
G01 X45.43Y11.194
G01 X45.517Y11.12
G01 X45.605Y11.02
G01 X45.692Y10.878
G01 X45.776Y10.499
G01 X45.683Y10.122
G01 X45.593Y9.981
G01 X45.503Y9.885
G01 X45.413Y9.812
G01 X45.324Y9.758
G01 X45.235Y9.717
G01 X45.146Y9.688
G01 X45.057Y9.669
G01 X44.968Y9.66
G01 X44.88Y9.66
G01 X44.791Y9.67
G01 X44.703Y9.689
G01 X44.615Y9.718
G01 X44.526Y9.759
G01 X44.438Y9.813
G01 X44.351Y9.884
G01 X44.263Y9.977
G01 X44.176Y10.109
G01 X43.871Y10.109
G01 X43.871Y10.109
G01 X42.093Y11.887
G01 X41.125Y11.887
G01 X41.125Y11.762
G01 X39.625Y11.762
G01 X39.625Y12.471
G01 X37.668Y14.428
G01 X37.668Y14.428
G01 X37.668Y15.658
G01 X37.635Y15.679
G01 X37.602Y15.701
G01 X37.57Y15.725
G01 X37.539Y15.751
G01 X37.509Y15.779
G01 X37.479Y15.809
G01 X37.451Y15.842
G01 X37.424Y15.877
G01 X37.398Y15.914
G01 X37.373Y15.955
G01 X37.349Y16.0
G01 X37.328Y16.048
G01 X37.308Y16.102
G01 X37.291Y16.162
G01 X37.277Y16.23
G01 X37.269Y16.311
G01 X37.271Y16.416
G01 X37.329Y16.657
G01 X37.459Y16.869
G01 X37.532Y16.945
G01 X37.595Y16.996
G01 X37.653Y17.035
G01 X37.707Y17.065
G01 X37.759Y17.089
G01 X37.809Y17.108
G01 X37.857Y17.123
G01 X37.903Y17.134
G01 X37.948Y17.142
G01 X37.993Y17.147
G01 X38.036Y17.15
G01 X38.078Y17.151
G01 X38.119Y17.149
G01 X38.159Y17.146
G01 X38.199Y17.14
G01 X38.238Y17.133
G01 X38.276Y17.124
G01 X39.068Y17.916
G01 X39.068Y17.916
G01 X39.068Y19.806
G01 X38.475Y20.399
G01 X37.66Y20.399
M5
G01 X17.879Y12.052
M3
G01 X20.03Y14.203
G01 X18.53Y14.175
G01 X18.53Y15.225
G01 X20.03Y15.225
G01 X20.002Y14.175
G01 X22.203Y16.376
G01 X22.203Y17.474
G01 X20.299Y15.57
G01 X20.03Y15.57
G01 X20.03Y15.445
G01 X18.53Y15.445
G01 X18.53Y16.495
G01 X20.03Y16.495
G01 X20.03Y16.431
G01 X22.203Y18.604
G01 X22.203Y18.604
G01 X22.203Y19.595
G01 X22.085Y19.678
G01 X22.001Y19.761
G01 X21.938Y19.844
G01 X21.889Y19.927
G01 X21.853Y20.01
G01 X21.827Y20.093
G01 X21.811Y20.176
G01 X21.804Y20.259
G01 X21.805Y20.342
G01 X21.815Y20.424
G01 X21.834Y20.507
G01 X21.862Y20.59
G01 X21.902Y20.673
G01 X21.954Y20.756
G01 X22.023Y20.839
G01 X22.115Y20.922
G01 X22.248Y21.005
G01 X22.603Y21.088
G01 X22.958Y21.005
G01 X23.091Y20.922
G01 X23.183Y20.839
G01 X23.252Y20.756
G01 X23.304Y20.673
G01 X23.344Y20.59
G01 X23.372Y20.507
G01 X23.391Y20.424
G01 X23.401Y20.342
G01 X23.402Y20.259
G01 X23.395Y20.176
G01 X23.379Y20.093
G01 X23.353Y20.01
G01 X23.317Y19.927
G01 X23.268Y19.844
G01 X23.205Y19.761
G01 X23.121Y19.678
G01 X23.003Y19.595
G01 X23.003Y18.439
G01 X23.003Y18.439
G01 X23.003Y16.046
G01 X18.209Y11.252
G01 X15.528Y11.252
G01 X15.445Y11.134
G01 X15.362Y11.05
G01 X15.279Y10.987
G01 X15.196Y10.938
G01 X15.113Y10.902
G01 X15.03Y10.876
G01 X14.947Y10.86
G01 X14.864Y10.853
G01 X14.781Y10.854
G01 X14.699Y10.864
G01 X14.616Y10.883
G01 X14.533Y10.911
G01 X14.45Y10.951
G01 X14.367Y11.003
G01 X14.284Y11.072
G01 X14.201Y11.164
G01 X14.118Y11.297
G01 X14.035Y11.652
G01 X14.118Y12.007
G01 X14.201Y12.14
G01 X14.284Y12.232
G01 X14.367Y12.301
G01 X14.45Y12.353
G01 X14.533Y12.393
G01 X14.616Y12.421
G01 X14.699Y12.44
G01 X14.781Y12.45
G01 X14.864Y12.451
G01 X14.947Y12.444
G01 X15.03Y12.428
G01 X15.113Y12.402
G01 X15.196Y12.366
G01 X15.279Y12.317
G01 X15.362Y12.254
G01 X15.445Y12.17
G01 X15.528Y12.052
G01 X17.879Y12.052
G01 X17.879Y12.052
M5
G01 X29.759Y5.648
M3
G01 X29.759Y15.225
G01 X31.656Y17.122
G01 X32.366Y17.122
G01 X32.366Y17.522
G01 X33.166Y17.522
G01 X33.166Y19.198
G01 X33.045Y19.275
G01 X32.957Y19.355
G01 X32.89Y19.435
G01 X32.838Y19.515
G01 X32.799Y19.597
G01 X32.769Y19.678
G01 X32.749Y19.761
G01 X32.739Y19.843
G01 X32.736Y19.926
G01 X32.743Y20.009
G01 X32.758Y20.093
G01 X32.783Y20.177
G01 X32.819Y20.262
G01 X32.868Y20.347
G01 X32.933Y20.433
G01 X33.021Y20.519
G01 X33.151Y20.608
G01 X33.501Y20.706
G01 X33.859Y20.639
G01 X33.996Y20.562
G01 X34.091Y20.483
G01 X34.164Y20.403
G01 X34.22Y20.322
G01 X34.263Y20.241
G01 X34.295Y20.16
G01 X34.318Y20.078
G01 X34.331Y19.995
G01 X34.336Y19.912
G01 X34.332Y19.829
G01 X34.32Y19.746
G01 X34.297Y19.662
G01 X34.265Y19.577
G01 X34.22Y19.492
G01 X34.16Y19.407
G01 X34.08Y19.32
G01 X33.966Y19.232
G01 X33.966Y17.522
G01 X34.766Y17.522
G01 X34.766Y15.922
G01 X32.366Y15.922
G01 X32.366Y16.322
G01 X31.986Y16.322
G01 X31.986Y16.322
G01 X30.559Y14.895
G01 X30.559Y5.318
G01 X28.378Y3.137
G01 X25.472Y3.137
G01 X21.802Y6.807
G01 X19.416Y6.807
G01 X19.416Y6.682
G01 X17.916Y6.682
G01 X17.916Y7.732
G01 X19.416Y7.732
G01 X19.416Y7.607
G01 X22.134Y7.607
G01 X22.134Y7.607
G01 X25.804Y3.937
G01 X28.048Y3.937
G01 X29.759Y5.648
M5
G01 X49.422Y4.674
M3
G01 X50.54Y3.556
G01 X56.966Y3.556
G01 X58.758Y5.348
G01 X58.752Y5.374
G01 X58.746Y5.399
G01 X58.742Y5.426
G01 X58.738Y5.453
G01 X58.734Y5.482
G01 X58.732Y5.511
G01 X58.731Y5.541
G01 X58.731Y5.573
G01 X58.733Y5.606
G01 X58.735Y5.64
G01 X58.74Y5.676
G01 X58.747Y5.715
G01 X58.756Y5.755
G01 X58.769Y5.8
G01 X58.786Y5.848
G01 X58.811Y5.904
G01 X58.849Y5.974
G01 X58.965Y6.122
G01 X59.113Y6.238
G01 X59.183Y6.276
G01 X59.239Y6.301
G01 X59.287Y6.318
G01 X59.332Y6.331
G01 X59.373Y6.34
G01 X59.411Y6.347
G01 X59.447Y6.352
G01 X59.481Y6.354
G01 X59.514Y6.356
G01 X59.546Y6.356
G01 X59.576Y6.355
G01 X59.605Y6.353
G01 X59.634Y6.349
G01 X59.661Y6.345
G01 X59.688Y6.341
G01 X59.713Y6.335
G01 X59.739Y6.329
G01 X60.304Y6.894
G01 X60.304Y7.921
G01 X59.504Y7.921
G01 X59.504Y9.521
G01 X60.939Y9.521
G01 X61.904Y10.486
G01 X59.504Y10.461
G01 X59.504Y12.061
G01 X61.904Y12.061
G01 X61.879Y10.461
G01 X62.779Y11.361
G01 X62.779Y12.487
G01 X64.104Y13.812
G01 X64.104Y18.324
G01 X61.008Y21.42
G01 X60.866Y21.396
G01 X60.748Y21.395
G01 X60.644Y21.409
G01 X60.551Y21.433
G01 X60.467Y21.466
G01 X60.39Y21.506
G01 X60.32Y21.554
G01 X60.256Y21.607
G01 X60.199Y21.667
G01 X60.147Y21.732
G01 X60.102Y21.804
G01 X60.063Y21.883
G01 X60.033Y21.97
G01 X60.011Y22.066
G01 X60.001Y22.173
G01 X60.008Y22.297
G01 X60.043Y22.449
G01 X60.235Y22.759
G01 X60.545Y22.951
G01 X60.697Y22.986
G01 X60.821Y22.993
G01 X60.928Y22.983
G01 X61.024Y22.961
G01 X61.111Y22.931
G01 X61.19Y22.892
G01 X61.262Y22.847
G01 X61.327Y22.795
G01 X61.387Y22.738
G01 X61.44Y22.674
G01 X61.488Y22.604
G01 X61.528Y22.527
G01 X61.561Y22.443
G01 X61.586Y22.35
G01 X61.599Y22.246
G01 X61.598Y22.128
G01 X61.574Y21.986
G01 X64.904Y18.656
G01 X64.904Y18.656
G01 X64.904Y13.482
G01 X63.579Y12.157
G01 X63.579Y11.031
G01 X61.904Y9.356
G01 X61.904Y7.921
G01 X61.104Y7.921
G01 X61.104Y6.564
G01 X61.104Y6.564
G01 X60.304Y5.764
G01 X60.305Y5.755
G01 X60.307Y5.757
G01 X60.308Y5.748
G01 X60.31Y5.739
G01 X60.311Y5.73
G01 X60.313Y5.721
G01 X60.314Y5.723
G01 X60.316Y5.714
G01 X60.317Y5.705
G01 X60.319Y5.696
G01 X60.32Y5.687
G01 X60.322Y5.678
G01 X60.323Y5.669
G01 X60.325Y5.66
G01 X60.326Y5.64
G01 X60.328Y5.631
G01 X60.329Y5.61
G01 X60.331Y5.557
G01 X60.33Y5.51
G01 X60.328Y5.485
G01 X60.327Y5.472
G01 X60.325Y5.458
G01 X60.324Y5.445
G01 X60.322Y5.432
G01 X60.321Y5.43
G01 X60.319Y5.416
G01 X60.318Y5.414
G01 X60.316Y5.401
G01 X60.315Y5.399
G01 X60.313Y5.385
G01 X60.312Y5.383
G01 X60.31Y5.37
G01 X60.308Y5.368
G01 X60.307Y5.365
G01 X60.305Y5.352
G01 X60.304Y5.35
G01 X61.576Y4.077
G01 X61.576Y4.077
G01 X79.204Y4.077
G01 X87.071Y11.944
G01 X87.071Y18.588
G01 X86.692Y18.752
G01 X86.471Y18.916
G01 X86.314Y19.079
G01 X86.197Y19.243
G01 X86.109Y19.407
G01 X86.044Y19.57
G01 X86.001Y19.734
G01 X85.977Y19.898
G01 X85.971Y20.061
G01 X85.983Y20.225
G01 X86.013Y20.388
G01 X86.063Y20.552
G01 X86.135Y20.716
G01 X86.232Y20.879
G01 X86.361Y21.043
G01 X86.536Y21.207
G01 X86.79Y21.37
G01 X87.471Y21.534
G01 X88.152Y21.37
G01 X88.406Y21.207
G01 X88.581Y21.043
G01 X88.71Y20.879
G01 X88.807Y20.716
G01 X88.879Y20.552
G01 X88.929Y20.388
G01 X88.959Y20.225
G01 X88.971Y20.061
G01 X88.965Y19.898
G01 X88.941Y19.734
G01 X88.897Y19.57
G01 X88.833Y19.407
G01 X88.745Y19.243
G01 X88.628Y19.079
G01 X88.471Y18.916
G01 X88.25Y18.752
G01 X87.871Y18.588
G01 X87.871Y11.614
G01 X87.871Y11.614
G01 X79.534Y3.277
G01 X61.244Y3.277
G01 X59.738Y4.783
G01 X59.732Y4.782
G01 X59.726Y4.78
G01 X59.72Y4.779
G01 X59.714Y4.777
G01 X59.707Y4.776
G01 X59.7Y4.774
G01 X59.693Y4.773
G01 X59.686Y4.771
G01 X59.678Y4.77
G01 X59.67Y4.768
G01 X59.661Y4.767
G01 X59.651Y4.765
G01 X59.641Y4.764
G01 X59.629Y4.762
G01 X59.616Y4.761
G01 X59.601Y4.759
G01 X59.58Y4.758
G01 X59.531Y4.756
G01 X59.482Y4.758
G01 X59.461Y4.759
G01 X59.446Y4.761
G01 X59.433Y4.762
G01 X59.421Y4.764
G01 X59.411Y4.765
G01 X59.401Y4.767
G01 X59.392Y4.768
G01 X59.384Y4.77
G01 X59.376Y4.771
G01 X59.369Y4.773
G01 X59.362Y4.774
G01 X59.355Y4.776
G01 X59.348Y4.777
G01 X59.342Y4.779
G01 X59.336Y4.78
G01 X59.33Y4.782
G01 X59.324Y4.783
G01 X57.296Y2.756
G01 X57.296Y2.756
G01 X50.208Y2.756
G01 X48.856Y4.108
G01 X48.84Y4.103
G01 X48.823Y4.098
G01 X48.805Y4.094
G01 X48.787Y4.09
G01 X48.768Y4.086
G01 X48.749Y4.083
G01 X48.728Y4.079
G01 X48.707Y4.077
G01 X48.684Y4.074
G01 X48.661Y4.073
G01 X48.635Y4.071
G01 X48.608Y4.071
G01 X48.579Y4.072
G01 X48.546Y4.073
G01 X48.51Y4.077
G01 X48.467Y4.083
G01 X48.412Y4.094
G01 X48.284Y4.136
G01 X48.163Y4.197
G01 X48.117Y4.228
G01 X48.082Y4.254
G01 X48.054Y4.278
G01 X48.03Y4.299
G01 X48.008Y4.32
G01 X47.99Y4.339
G01 X47.972Y4.358
G01 X47.957Y4.376
G01 X47.943Y4.393
G01 X47.929Y4.41
G01 X47.917Y4.427
G01 X47.906Y4.443
G01 X47.895Y4.459
G01 X47.885Y4.475
G01 X47.876Y4.491
G01 X47.867Y4.506
G01 X47.859Y4.521
G01 X37.971Y4.521
G01 X37.971Y4.521
G01 X35.615Y6.877
G01 X33.731Y6.877
G01 X32.999Y6.145
G01 X33.005Y6.119
G01 X33.011Y6.094
G01 X33.015Y6.067
G01 X33.019Y6.04
G01 X33.023Y6.011
G01 X33.025Y5.982
G01 X33.026Y5.952
G01 X33.026Y5.92
G01 X33.024Y5.887
G01 X33.022Y5.853
G01 X33.017Y5.817
G01 X33.01Y5.779
G01 X33.001Y5.738
G01 X32.988Y5.693
G01 X32.971Y5.645
G01 X32.946Y5.589
G01 X32.908Y5.519
G01 X32.792Y5.371
G01 X32.644Y5.255
G01 X32.574Y5.217
G01 X32.518Y5.192
G01 X32.47Y5.175
G01 X32.425Y5.162
G01 X32.385Y5.153
G01 X32.346Y5.146
G01 X32.31Y5.141
G01 X32.276Y5.139
G01 X32.243Y5.137
G01 X32.211Y5.137
G01 X32.181Y5.138
G01 X32.152Y5.14
G01 X32.123Y5.144
G01 X32.096Y5.148
G01 X32.069Y5.152
G01 X32.044Y5.158
G01 X32.018Y5.164
G01 X28.991Y2.137
G01 X22.066Y2.137
G01 X14.973Y2.137
G01 X10.549Y6.561
G01 X10.493Y6.546
G01 X10.437Y6.547
G01 X10.381Y6.532
G01 X10.325Y6.533
G01 X10.269Y6.534
G01 X10.213Y6.551
G01 X10.157Y6.552
G01 X10.101Y6.569
G01 X10.045Y6.586
G01 X9.989Y6.619
G01 X9.933Y6.652
G01 X9.877Y6.685
G01 X9.821Y6.734
G01 X9.765Y6.784
G01 X9.71Y6.849
G01 X9.654Y6.93
G01 X9.598Y7.044
G01 X9.542Y7.334
G01 X9.598Y7.623
G01 X9.654Y7.735
G01 X9.71Y7.831
G01 X9.766Y7.894
G01 X9.822Y7.942
G01 X9.878Y7.989
G01 X9.934Y8.02
G01 X9.99Y8.051
G01 X10.046Y8.083
G01 X10.102Y8.098
G01 X10.158Y8.113
G01 X10.214Y8.128
G01 X10.27Y8.127
G01 X10.326Y8.126
G01 X10.382Y8.125
G01 X10.438Y8.124
G01 X10.494Y8.124
G01 X10.55Y8.107
G01 X11.115Y8.672
G01 X11.115Y8.672
G01 X11.115Y9.699
G01 X10.315Y9.699
G01 X10.315Y11.299
G01 X12.715Y11.299
G01 X12.715Y9.699
G01 X11.915Y9.699
G01 X11.915Y8.342
G01 X11.915Y8.342
G01 X11.115Y7.542
G01 X11.116Y7.532
G01 X11.118Y7.533
G01 X11.119Y7.524
G01 X11.121Y7.514
G01 X11.122Y7.515
G01 X11.124Y7.505
G01 X11.125Y7.496
G01 X11.127Y7.487
G01 X11.128Y7.478
G01 X11.13Y7.478
G01 X11.131Y7.469
G01 X11.133Y7.46
G01 X11.134Y7.44
G01 X11.136Y7.431
G01 X11.137Y7.422
G01 X11.139Y7.403
G01 X11.14Y7.383
G01 X11.142Y7.335
G01 X11.141Y7.285
G01 X11.139Y7.265
G01 X11.138Y7.254
G01 X11.136Y7.234
G01 X11.135Y7.224
G01 X11.133Y7.213
G01 X11.132Y7.203
G01 X11.13Y7.193
G01 X11.129Y7.192
G01 X11.127Y7.182
G01 X11.126Y7.171
G01 X11.124Y7.161
G01 X11.123Y7.16
G01 X11.121Y7.15
G01 X11.12Y7.149
G01 X11.118Y7.139
G01 X11.117Y7.138
G01 X11.115Y7.128
G01 X15.305Y2.937
G01 X15.305Y2.937
G01 X21.1Y2.937
G01 X18.625Y5.412
G01 X17.916Y5.412
G01 X17.916Y6.462
G01 X19.416Y6.462
G01 X19.416Y5.753
G01 X22.232Y2.937
G01 X22.232Y2.937
G01 X28.661Y2.937
G01 X31.453Y5.729
G01 X31.447Y5.755
G01 X31.441Y5.78
G01 X31.437Y5.807
G01 X31.433Y5.834
G01 X31.429Y5.863
G01 X31.427Y5.892
G01 X31.426Y5.922
G01 X31.426Y5.954
G01 X31.428Y5.987
G01 X31.43Y6.021
G01 X31.435Y6.057
G01 X31.442Y6.096
G01 X31.451Y6.136
G01 X31.464Y6.181
G01 X31.481Y6.229
G01 X31.506Y6.285
G01 X31.544Y6.355
G01 X31.66Y6.503
G01 X31.808Y6.619
G01 X31.878Y6.657
G01 X31.934Y6.682
G01 X31.982Y6.699
G01 X32.027Y6.712
G01 X32.068Y6.721
G01 X32.106Y6.728
G01 X32.142Y6.733
G01 X32.176Y6.735
G01 X32.209Y6.737
G01 X32.241Y6.737
G01 X32.271Y6.736
G01 X32.3Y6.734
G01 X32.329Y6.73
G01 X32.356Y6.726
G01 X32.383Y6.722
G01 X32.408Y6.716
G01 X32.434Y6.71
G01 X33.166Y7.442
G01 X33.166Y8.302
G01 X32.366Y8.302
G01 X32.366Y9.902
G01 X34.766Y9.902
G01 X34.766Y8.302
G01 X33.966Y8.302
G01 X33.966Y7.677
G01 X33.966Y7.677
G01 X35.616Y7.677
G01 X39.356Y11.417
G01 X39.625Y11.417
G01 X39.625Y11.542
G01 X41.125Y11.542
G01 X41.125Y10.492
G01 X39.625Y10.492
G01 X39.625Y10.556
G01 X36.346Y7.277
G01 X36.346Y7.277
G01 X38.303Y5.321
G01 X47.859Y5.321
G01 X47.88Y5.358
G01 X47.903Y5.395
G01 X47.929Y5.431
G01 X47.956Y5.465
G01 X47.986Y5.499
G01 X48.018Y5.532
G01 X48.053Y5.564
G01 X48.09Y5.594
G01 X48.131Y5.624
G01 X48.175Y5.652
G01 X48.222Y5.678
G01 X48.275Y5.703
G01 X48.333Y5.725
G01 X48.397Y5.744
G01 X48.471Y5.76
G01 X48.559Y5.77
G01 X48.672Y5.769
G01 X48.934Y5.706
G01 X49.163Y5.565
G01 X49.244Y5.486
G01 X49.3Y5.417
G01 X49.341Y5.353
G01 X49.373Y5.294
G01 X49.398Y5.238
G01 X49.418Y5.183
G01 X49.433Y5.131
G01 X49.444Y5.08
G01 X49.452Y5.031
G01 X49.457Y4.982
G01 X49.459Y4.935
G01 X49.458Y4.889
G01 X49.456Y4.845
G01 X49.45Y4.801
G01 X49.443Y4.757
G01 X49.434Y4.715
G01 X49.422Y4.674
M5
G01 X41.125Y10.147
M3
G01 X43.314Y10.147
G01 X44.679Y8.782
G01 X44.836Y8.814
G01 X44.966Y8.818
G01 X45.079Y8.805
G01 X45.18Y8.78
G01 X45.271Y8.746
G01 X45.354Y8.703
G01 X45.43Y8.654
G01 X45.499Y8.597
G01 X45.561Y8.534
G01 X45.617Y8.464
G01 X45.666Y8.387
G01 X45.708Y8.303
G01 X45.741Y8.21
G01 X45.765Y8.108
G01 X45.776Y7.994
G01 X45.769Y7.861
G01 X45.732Y7.698
G01 X45.527Y7.368
G01 X45.197Y7.163
G01 X45.034Y7.126
G01 X44.901Y7.119
G01 X44.787Y7.13
G01 X44.685Y7.154
G01 X44.592Y7.187
G01 X44.508Y7.229
G01 X44.431Y7.278
G01 X44.361Y7.334
G01 X44.298Y7.396
G01 X44.241Y7.465
G01 X44.192Y7.541
G01 X44.149Y7.624
G01 X44.115Y7.715
G01 X44.09Y7.816
G01 X44.077Y7.929
G01 X44.081Y8.059
G01 X44.113Y8.216
G01 X42.982Y9.347
G01 X42.982Y9.347
G01 X41.125Y9.347
G01 X41.125Y9.222
G01 X39.625Y9.222
G01 X39.625Y10.272
G01 X41.125Y10.272
G01 X41.125Y10.147
M5
G01 X11.115Y16.379
M3
G01 X11.115Y17.319
G01 X10.315Y17.319
G01 X10.315Y18.919
G01 X12.715Y18.919
G01 X12.715Y17.319
G01 X11.915Y17.319
G01 X11.915Y16.379
G01 X12.715Y16.379
G01 X12.715Y14.779
G01 X10.315Y14.779
G01 X10.315Y15.179
G01 X10.029Y15.179
G01 X10.029Y15.179
G01 X8.369Y13.519
G01 X8.369Y4.882
G01 X8.819Y4.882
G01 X8.819Y3.182
G01 X7.119Y3.182
G01 X7.119Y4.882
G01 X7.569Y4.882
G01 X7.569Y13.849
G01 X7.569Y13.849
G01 X9.699Y15.979
G01 X10.315Y15.979
G01 X10.315Y16.379
G01 X11.115Y16.379
M5
G01 X9.455Y20.561
M3
G01 X13.025Y20.561
G01 X18.486Y15.1
G01 X18.53Y15.1
G01 X18.53Y15.225
G01 X20.03Y15.225
G01 X20.03Y14.175
G01 X18.53Y14.175
G01 X18.53Y14.3
G01 X18.154Y14.3
G01 X18.154Y14.3
G01 X12.693Y19.761
G01 X9.785Y19.761
G01 X6.718Y16.694
G01 X6.718Y8.145
G01 X6.115Y7.541
G01 X6.139Y7.399
G01 X6.14Y7.281
G01 X6.127Y7.177
G01 X6.102Y7.085
G01 X6.069Y7.0
G01 X6.029Y6.923
G01 X5.981Y6.853
G01 X5.928Y6.789
G01 X5.868Y6.732
G01 X5.803Y6.68
G01 X5.731Y6.635
G01 X5.652Y6.596
G01 X5.565Y6.566
G01 X5.469Y6.544
G01 X5.362Y6.534
G01 X5.238Y6.541
G01 X5.086Y6.576
G01 X4.776Y6.768
G01 X4.584Y7.078
G01 X4.549Y7.23
G01 X4.542Y7.354
G01 X4.552Y7.462
G01 X4.574Y7.557
G01 X4.604Y7.644
G01 X4.643Y7.723
G01 X4.688Y7.795
G01 X4.74Y7.861
G01 X4.797Y7.92
G01 X4.861Y7.974
G01 X4.931Y8.021
G01 X5.008Y8.061
G01 X5.093Y8.094
G01 X5.185Y8.119
G01 X5.289Y8.132
G01 X5.407Y8.131
G01 X5.549Y8.107
G01 X5.918Y8.475
G01 X5.918Y8.475
G01 X5.918Y16.459
G01 X4.989Y16.459
G01 X4.129Y17.319
G01 X2.695Y17.319
G01 X2.695Y18.919
G01 X5.095Y18.919
G01 X5.095Y17.485
G01 X5.321Y17.259
G01 X5.321Y17.259
G01 X6.153Y17.259
G01 X9.455Y20.561
M5
G01 X19.445Y8.077
M3
G01 X19.416Y8.077
G01 X19.416Y7.952
G01 X17.916Y7.952
G01 X17.916Y9.002
G01 X19.24Y9.002
G01 X21.682Y11.444
G01 X21.658Y11.586
G01 X21.657Y11.704
G01 X21.67Y11.808
G01 X21.695Y11.901
G01 X21.728Y11.985
G01 X21.768Y12.062
G01 X21.815Y12.132
G01 X21.869Y12.196
G01 X21.928Y12.254
G01 X21.994Y12.306
G01 X22.066Y12.351
G01 X22.145Y12.389
G01 X22.231Y12.42
G01 X22.327Y12.442
G01 X22.434Y12.452
G01 X22.558Y12.445
G01 X22.711Y12.41
G01 X23.02Y12.218
G01 X23.213Y11.909
G01 X23.248Y11.756
G01 X23.255Y11.632
G01 X23.245Y11.525
G01 X23.223Y11.429
G01 X23.193Y11.342
G01 X23.154Y11.264
G01 X23.109Y11.191
G01 X23.058Y11.126
G01 X23.0Y11.066
G01 X22.936Y11.013
G01 X22.866Y10.966
G01 X22.789Y10.925
G01 X22.705Y10.892
G01 X22.612Y10.868
G01 X22.508Y10.854
G01 X22.39Y10.855
G01 X22.248Y10.879
G01 X19.445Y8.077
M5
G01 X33.802Y12.442
M3
G01 X34.766Y13.406
G01 X32.366Y13.382
G01 X32.366Y14.982
G01 X34.766Y14.982
G01 X34.742Y13.382
G01 X35.982Y14.623
G01 X35.982Y17.878
G01 X37.295Y19.192
G01 X37.271Y19.334
G01 X37.27Y19.453
G01 X37.284Y19.556
G01 X37.308Y19.649
G01 X37.341Y19.733
G01 X37.382Y19.81
G01 X37.429Y19.88
G01 X37.482Y19.944
G01 X37.542Y20.002
G01 X37.608Y20.053
G01 X37.68Y20.099
G01 X37.759Y20.137
G01 X37.845Y20.167
G01 X37.941Y20.189
G01 X38.049Y20.199
G01 X38.172Y20.192
G01 X38.325Y20.157
G01 X38.634Y19.964
G01 X38.826Y19.655
G01 X38.861Y19.502
G01 X38.868Y19.378
G01 X38.858Y19.271
G01 X38.836Y19.175
G01 X38.805Y19.088
G01 X38.767Y19.01
G01 X38.721Y18.938
G01 X38.67Y18.872
G01 X38.612Y18.812
G01 X38.548Y18.759
G01 X38.478Y18.712
G01 X38.401Y18.672
G01 X38.317Y18.639
G01 X38.224Y18.614
G01 X38.12Y18.601
G01 X38.002Y18.602
G01 X37.86Y18.627
G01 X36.782Y17.548
G01 X36.782Y17.548
G01 X36.782Y14.293
G01 X34.766Y12.277
G01 X34.766Y10.842
G01 X32.366Y10.842
G01 X32.366Y12.442
G01 X33.802Y12.442
M5
G01 X65.905Y25.622
M3
G01 X65.988Y26.115
G01 X66.072Y26.309
G01 X66.155Y26.451
G01 X66.238Y26.565
G01 X66.322Y26.66
G01 X66.405Y26.74
G01 X66.488Y26.809
G01 X66.572Y26.869
G01 X66.655Y26.921
G01 X66.738Y26.966
G01 X66.822Y27.004
G01 X66.905Y27.036
G01 X66.988Y27.063
G01 X67.072Y27.084
G01 X67.155Y27.101
G01 X67.238Y27.113
G01 X67.322Y27.12
G01 X67.488Y27.12
G01 X67.572Y27.113
G01 X67.655Y27.101
G01 X67.738Y27.084
G01 X67.822Y27.063
G01 X67.905Y27.036
G01 X67.988Y27.004
G01 X68.072Y26.966
G01 X68.155Y26.921
G01 X68.238Y26.869
G01 X68.322Y26.809
G01 X68.405Y26.74
G01 X68.488Y26.66
G01 X68.572Y26.565
G01 X68.655Y26.451
G01 X68.738Y26.309
G01 X68.822Y26.115
G01 X68.905Y25.622
G01 X68.822Y25.129
G01 X68.738Y24.935
G01 X68.655Y24.793
G01 X68.572Y24.679
G01 X68.488Y24.584
G01 X68.405Y24.504
G01 X68.322Y24.435
G01 X68.238Y24.375
G01 X68.155Y24.323
G01 X68.072Y24.278
G01 X67.988Y24.24
G01 X67.905Y24.208
G01 X67.822Y24.181
G01 X67.738Y24.16
G01 X67.655Y24.143
G01 X67.572Y24.131
G01 X67.488Y24.124
G01 X67.322Y24.124
G01 X67.238Y24.131
G01 X67.155Y24.143
G01 X67.072Y24.16
G01 X66.988Y24.181
G01 X66.905Y24.208
G01 X66.822Y24.24
G01 X66.738Y24.278
G01 X66.655Y24.323
G01 X66.572Y24.375
G01 X66.488Y24.435
G01 X66.405Y24.504
G01 X66.322Y24.584
G01 X66.238Y24.679
G01 X66.155Y24.793
G01 X66.072Y24.935
G01 X65.988Y25.129
G01 X65.905Y25.622
G01 X65.905Y25.622
M5
G01 X65.905Y11.322
M3
G01 X65.988Y11.815
G01 X66.072Y12.009
G01 X66.155Y12.151
G01 X66.238Y12.265
G01 X66.322Y12.36
G01 X66.405Y12.44
G01 X66.488Y12.509
G01 X66.572Y12.569
G01 X66.655Y12.621
G01 X66.738Y12.666
G01 X66.822Y12.704
G01 X66.905Y12.736
G01 X66.988Y12.763
G01 X67.072Y12.784
G01 X67.155Y12.801
G01 X67.238Y12.813
G01 X67.322Y12.82
G01 X67.488Y12.82
G01 X67.572Y12.813
G01 X67.655Y12.801
G01 X67.738Y12.784
G01 X67.822Y12.763
G01 X67.905Y12.736
G01 X67.988Y12.704
G01 X68.072Y12.666
G01 X68.155Y12.621
G01 X68.238Y12.569
G01 X68.322Y12.509
G01 X68.405Y12.44
G01 X68.488Y12.36
G01 X68.572Y12.265
G01 X68.655Y12.151
G01 X68.738Y12.009
G01 X68.822Y11.815
G01 X68.905Y11.322
G01 X68.822Y10.829
G01 X68.738Y10.635
G01 X68.655Y10.493
G01 X68.572Y10.379
G01 X68.488Y10.284
G01 X68.405Y10.204
G01 X68.322Y10.135
G01 X68.238Y10.075
G01 X68.155Y10.023
G01 X68.072Y9.978
G01 X67.988Y9.94
G01 X67.905Y9.908
G01 X67.822Y9.881
G01 X67.738Y9.86
G01 X67.655Y9.843
G01 X67.572Y9.831
G01 X67.488Y9.824
G01 X67.322Y9.824
G01 X67.238Y9.831
G01 X67.155Y9.843
G01 X67.072Y9.86
G01 X66.988Y9.881
G01 X66.905Y9.908
G01 X66.822Y9.94
G01 X66.738Y9.978
G01 X66.655Y10.023
G01 X66.572Y10.075
G01 X66.488Y10.135
G01 X66.405Y10.204
G01 X66.322Y10.284
G01 X66.238Y10.379
G01 X66.155Y10.493
G01 X66.072Y10.635
G01 X65.988Y10.829
G01 X65.905Y11.322
G01 X65.905Y11.322
M5
G01 X76.955Y25.622
M3
G01 X77.038Y26.115
G01 X77.122Y26.309
G01 X77.205Y26.451
G01 X77.288Y26.565
G01 X77.372Y26.66
G01 X77.455Y26.74
G01 X77.538Y26.809
G01 X77.622Y26.869
G01 X77.705Y26.921
G01 X77.788Y26.966
G01 X77.872Y27.004
G01 X77.955Y27.036
G01 X78.038Y27.063
G01 X78.122Y27.084
G01 X78.205Y27.101
G01 X78.288Y27.113
G01 X78.372Y27.12
G01 X78.538Y27.12
G01 X78.622Y27.113
G01 X78.705Y27.101
G01 X78.788Y27.084
G01 X78.872Y27.063
G01 X78.955Y27.036
G01 X79.038Y27.004
G01 X79.122Y26.966
G01 X79.205Y26.921
G01 X79.288Y26.869
G01 X79.372Y26.809
G01 X79.455Y26.74
G01 X79.538Y26.66
G01 X79.622Y26.565
G01 X79.705Y26.451
G01 X79.788Y26.309
G01 X79.872Y26.115
G01 X79.955Y25.622
G01 X79.872Y25.129
G01 X79.788Y24.935
G01 X79.705Y24.793
G01 X79.622Y24.679
G01 X79.538Y24.584
G01 X79.455Y24.504
G01 X79.372Y24.435
G01 X79.288Y24.375
G01 X79.205Y24.323
G01 X79.122Y24.278
G01 X79.038Y24.24
G01 X78.955Y24.208
G01 X78.872Y24.181
G01 X78.788Y24.16
G01 X78.705Y24.143
G01 X78.622Y24.131
G01 X78.538Y24.124
G01 X78.372Y24.124
G01 X78.288Y24.131
G01 X78.205Y24.143
G01 X78.122Y24.16
G01 X78.038Y24.181
G01 X77.955Y24.208
G01 X77.872Y24.24
G01 X77.788Y24.278
G01 X77.705Y24.323
G01 X77.622Y24.375
G01 X77.538Y24.435
G01 X77.455Y24.504
G01 X77.372Y24.584
G01 X77.288Y24.679
G01 X77.205Y24.793
G01 X77.122Y24.935
G01 X77.038Y25.129
G01 X76.955Y25.622
G01 X76.955Y25.622
M5
G01 X76.955Y11.322
M3
G01 X77.038Y11.815
G01 X77.122Y12.009
G01 X77.205Y12.151
G01 X77.288Y12.265
G01 X77.372Y12.36
G01 X77.455Y12.44
G01 X77.538Y12.509
G01 X77.622Y12.569
G01 X77.705Y12.621
G01 X77.788Y12.666
G01 X77.872Y12.704
G01 X77.955Y12.736
G01 X78.038Y12.763
G01 X78.122Y12.784
G01 X78.205Y12.801
G01 X78.288Y12.813
G01 X78.372Y12.82
G01 X78.538Y12.82
G01 X78.622Y12.813
G01 X78.705Y12.801
G01 X78.788Y12.784
G01 X78.872Y12.763
G01 X78.955Y12.736
G01 X79.038Y12.704
G01 X79.122Y12.666
G01 X79.205Y12.621
G01 X79.288Y12.569
G01 X79.372Y12.509
G01 X79.455Y12.44
G01 X79.538Y12.36
G01 X79.622Y12.265
G01 X79.705Y12.151
G01 X79.788Y12.009
G01 X79.872Y11.815
G01 X79.955Y11.322
G01 X79.872Y10.829
G01 X79.788Y10.635
G01 X79.705Y10.493
G01 X79.622Y10.379
G01 X79.538Y10.284
G01 X79.455Y10.204
G01 X79.372Y10.135
G01 X79.288Y10.075
G01 X79.205Y10.023
G01 X79.122Y9.978
G01 X79.038Y9.94
G01 X78.955Y9.908
G01 X78.872Y9.881
G01 X78.788Y9.86
G01 X78.705Y9.843
G01 X78.622Y9.831
G01 X78.538Y9.824
G01 X78.372Y9.824
G01 X78.288Y9.831
G01 X78.205Y9.843
G01 X78.122Y9.86
G01 X78.038Y9.881
G01 X77.955Y9.908
G01 X77.872Y9.94
G01 X77.788Y9.978
G01 X77.705Y10.023
G01 X77.622Y10.075
G01 X77.538Y10.135
G01 X77.455Y10.204
G01 X77.372Y10.284
G01 X77.288Y10.379
G01 X77.205Y10.493
G01 X77.122Y10.635
G01 X77.038Y10.829
G01 X76.955Y11.322
G01 X76.955Y11.322
M5
G01 X24.746Y9.902
M3
G01 X27.146Y9.902
G01 X27.146Y8.302
G01 X24.746Y8.302
G01 X24.746Y9.902
G01 X24.746Y9.902
M5
G01 X24.746Y12.442
M3
G01 X27.146Y12.442
G01 X27.146Y10.842
G01 X24.746Y10.842
G01 X24.746Y12.442
G01 X24.746Y12.442
M5
G01 X51.884Y9.521
M3
G01 X54.284Y9.521
G01 X54.284Y7.921
G01 X51.884Y7.921
G01 X51.884Y9.521
G01 X51.884Y9.521
M5
G01 X51.884Y12.061
M3
G01 X54.284Y12.061
G01 X54.284Y10.461
G01 X51.884Y10.461
G01 X51.884Y12.061
G01 X51.884Y12.061
M5
G01 X2.695Y11.299
M3
G01 X5.095Y11.299
G01 X5.095Y9.699
G01 X2.695Y9.699
G01 X2.695Y11.299
G01 X2.695Y11.299
M5
G01 X2.695Y13.839
M3
G01 X5.095Y13.839
G01 X5.095Y12.239
G01 X2.695Y12.239
G01 X2.695Y13.839
G01 X2.695Y13.839
M5
G01 X2.695Y16.379
M3
G01 X5.095Y16.379
G01 X5.095Y14.779
G01 X2.695Y14.779
G01 X2.695Y16.379
G01 X2.695Y16.379
M5
G01 X44.076Y13.899
M3
G01 X45.776Y13.899
G01 X45.776Y12.199
G01 X44.076Y12.199
G01 X44.076Y13.899
G01 X44.076Y13.899
M5
G01 X47.759Y19.614
M3
G01 X49.459Y19.614
G01 X49.459Y17.914
G01 X47.759Y17.914
G01 X47.759Y19.614
G01 X47.759Y19.614
M5
G01 X47.759Y10.851
M3
G01 X49.459Y10.851
G01 X49.459Y9.151
G01 X47.759Y9.151
G01 X47.759Y10.851
G01 X47.759Y10.851
M5
G01 X2.0Y2.0
M3
G01 X91.916Y2.0
G01 X91.916Y33.623
G01 X2.0Y33.623
G01 X2.0Y2.0
M5

M5 ; Disable End-Effector Signal

; Returning the Deactivating Tool-1
C0 ; PWM Tool select demultiplexer to select tool zero which is the empty tool slot in multiplexers
#TODO X0Y0Z0 ;  ;Remove tool offset coordinate
G00X165Y0Z10.5 ; Go to Tool-1 Home Pos
G00X92 ; Enter Female Kinematic Mount Home Pos
A0 ; Latch OFF Kinematic Mount
G4 P5 ; Wait for Kinematic Mount to fully detach
G00X188 ; Exit Female Kinematic Mount Home Pos

; Machine deinitialization Sequence... 

G00X0Y0Z0
B0 ; Turn Machine OFF
