; This gcode is generated by my python script specially for my PCB manufacturer project :))

G21 ; to set metric units
G90 ; to set absolute mode , G91 for incremental mode
G94 ; To set the active feed rate mode to units per minute mode

F600 ; setting default feedrate

B1 ; Turn ON Machine

$H ; Homing :)
G10 P0 L20 X0 Y0 Z0 ; Force Reset current coordinates after homing

A1 ; Latch on Kinematic Mount
G4 P5000 ; Wait for Kinematic Mount to fully attachM5 ; disabling spindle PWM
S230 ; sets pwm speed when we enable it
C2 ; C2 chooses second tool in the choose PWM demultiplexer circuit I built

G01 Z20F10

M3 ; Turn Motor ON
G4 P2000 ; dwell for 2 seconds so motor reaches full RPM

G01 X42.545Y24.125F600
G01 Z25F10
G01 Z20F10
G01 X42.545Y16.505F600
G01 Z25F10
G01 Z20F10
G01 X21.89Y26.235F600
G01 Z25F10
G01 Z20F10
G01 X27.94Y28.185F600
G01 Z25F10
G01 Z20F10
G01 X41.165424Y27.305F600
G01 Z25F10
G01 Z20F10
G01 X39.895424Y27.305F600
G01 Z25F10
G01 Z20F10
G01 X38.625424Y27.305F600
G01 Z25F10
G01 Z20F10
G01 X38.625424Y27.305F600
G01 Z25F10
G01 Z20F10
G01 X42.535Y5.055F600
G01 Z25F10
G01 Z20F10
G01 X5.08Y4.445F600
G01 Z25F10
G01 Z20F10
G01 X40.005Y16.51F600
G01 Z25F10
G01 Z20F10
G01 X40.005Y24.13F600
G01 Z25F10
G01 Z20F10
G01 X40.025Y8.255F600
G01 Z25F10
G01 Z20F10
G01 X42.525Y8.255F600
G01 Z25F10
G01 Z20F10
G01 X38.64Y12.7F600
G01 Z25F10
G01 Z20F10
G01 X40.64Y12.7F600
G01 Z25F10
G01 Z20F10
G01 X44.958Y10.824F600
G01 Z25F10
G01 Z20F10
G01 X44.958Y13.364F600
G01 Z25F10
G01 Z20F10

M5 ; Turn Motor OFF
C0 ; PWM Tool select demultiplexer to select tool zero (which is nothing)

A0 ; Latch OFF Kinematic Mount
G4 P5000 ; Wait for Kinematic Mount to fully detachB0 ; Turn Machine OFF
