; This gcode is generated by my specialised python script for my PCB manufacturer project :))

; Machine Initialization Sequence...

G21 ; to set metric units
G90 ; to set absolute mode , G91 for incremental mode
G94 ; To set the active feed rate mode to units per minute mode

M5 ; disabling spindle PWM
C0 ; Choosing the empty tool slot in the multiplexer circuits

B1 ; Turn ON Machine

$H ; Homing :)
G10 P0 L20 X0Y0Z0 ; Force Reset current coordinates after homing


; The following gcode is the PCB holes drill gcode

; Getting and Activating Tool-2, The Tool.Spindle
G00X165Y91Z12 ; Go to Tool-2 Home Pos
G00X188 ; Enter Female Kinematic Mount Home Pos
A1 ; Latch on Kinematic Mount
G4 P5 ; Wait for Kinematic Mount to fully attach
G00X92 ; Exit Female Kinematic Mount Home Pos
#TODO X0Y0Z0 ;  ;Add tool offset coordinate
C2 ; Choosing tool 2 in the choose demultiplexer circuits

F600 ; setting default feedrate

S230 ; sets pwm speed when we enable it

G01 Z10F20 ; Moving Spindle to UP Postion

M3 ; Turn Motor ON
G4 P2 ; dwell for 2 seconds so motor reaches full RPM

G01 X10.0Y42.75F600
G01 Z13F1
G01 Z10F20
G01 X16.0Y42.75F600
G01 Z13F1
G01 Z10F20
G01 X22.0Y42.75F600
G01 Z13F1
G01 Z10F20
G01 X13.0Y42.75F600
G01 Z13F1
G01 Z10F20
G01 X19.0Y42.75F600
G01 Z13F1
G01 Z10F20
G01 X25.0Y42.75F600
G01 Z13F1
G01 Z10F20
G01 X4.0Y45.0F600
G01 Z13F1
G01 Z10F20
G01 X4.0Y50.0F600
G01 Z13F1
G01 Z10F20
G01 X7.0Y45.0F600
G01 Z13F1
G01 Z10F20
G01 X7.0Y50.0F600
G01 Z13F1
G01 Z10F20
G01 X10.0Y50.0F600
G01 Z13F1
G01 Z10F20
G01 X10.0Y45.0F600
G01 Z13F1
G01 Z10F20
G01 X19.399Y15.589F600
G01 Z13F1
G01 Z10F20
G01 X14.446Y15.589F600
G01 Z13F1
G01 Z10F20
G01 X24.987Y15.589F600
G01 Z13F1
G01 Z10F20
G01 X10.0Y35.13F600
G01 Z13F1
G01 Z10F20
G01 X16.0Y35.13F600
G01 Z13F1
G01 Z10F20
G01 X22.0Y35.13F600
G01 Z13F1
G01 Z10F20
G01 X13.0Y35.13F600
G01 Z13F1
G01 Z10F20
G01 X19.0Y35.13F600
G01 Z13F1
G01 Z10F20
G01 X25.0Y35.13F600
G01 Z13F1
G01 Z10F20
G01 X11.276Y25.378F600
G01 Z13F1
G01 Z10F20
G01 X11.276Y32.998F600
G01 Z13F1
G01 Z10F20
G01 X13.816Y32.998F600
G01 Z13F1
G01 Z10F20
G01 X19.399Y23.209F600
G01 Z13F1
G01 Z10F20
G01 X14.446Y23.209F600
G01 Z13F1
G01 Z10F20
G01 X19.404Y32.998F600
G01 Z13F1
G01 Z10F20
G01 X16.864Y32.998F600
G01 Z13F1
G01 Z10F20
G01 X16.864Y25.378F600
G01 Z13F1
G01 Z10F20
G01 X24.987Y23.209F600
G01 Z13F1
G01 Z10F20
G01 X22.452Y25.378F600
G01 Z13F1
G01 Z10F20
G01 X22.452Y32.998F600
G01 Z13F1
G01 Z10F20
G01 X24.992Y32.998F600
G01 Z13F1
G01 Z10F20
G01 X13.4Y45.6F600
G01 Z13F1
G01 Z10F20
G01 X22.1Y45.6F600
G01 Z13F1
G01 Z10F20
G01 X18.667Y12.75F600
G01 Z13F1
G01 Z10F20
G01 X12.609Y12.75F600
G01 Z13F1
G01 Z10F20
G01 X6.475Y12.75F600
G01 Z13F1
G01 Z10F20
G01 X24.763Y12.75F600
G01 Z13F1
G01 Z10F20
G01 X15.94Y45.6F600
G01 Z13F1
G01 Z10F20
G01 X18.48Y45.6F600
G01 Z13F1
G01 Z10F20
G01 X24.64Y45.6F600
G01 Z13F1
G01 Z10F20
G01 X16.127Y12.75F600
G01 Z13F1
G01 Z10F20
G01 X10.069Y12.75F600
G01 Z13F1
G01 Z10F20
G01 X3.935Y12.75F600
G01 Z13F1
G01 Z10F20
G01 X22.223Y12.75F600
G01 Z13F1
G01 Z10F20
G01 X13.816Y25.378F600
G01 Z13F1
G01 Z10F20
G01 X19.404Y25.378F600
G01 Z13F1
G01 Z10F20
G01 X24.992Y25.378F600
G01 Z13F1
G01 Z10F20

M5 ; disabling spindle PWM

; Returning the Deactivating Tool-2
C0 ; PWM Tool select demultiplexer to select tool zero which is the empty tool slot in multiplexers
#TODO X0Y0Z0 ;  ;Remove tool offset coordinate
G00X165Y91Z12 ; Go to Tool-2 Home Pos
G00X92 ; Enter Female Kinematic Mount Home Pos
A0 ; Latch OFF Kinematic Mount
G4 P5 ; Wait for Kinematic Mount to fully detach
G00X188 ; Exit Female Kinematic Mount Home Pos

; Machine deinitialization Sequence... 

G00X0Y0Z0
B0 ; Turn Machine OFF
