; This gcode is generated by my specialised python script for my PCB manufacturer project :))

; Machine Initialization Sequence...

G21 ; to set metric units
G90 ; to set absolute mode , G91 for incremental mode
G94 ; To set the active feed rate mode to units per minute mode

M5 ; disabling spindle PWM
C0 ; Choosing the empty tool slot in the multiplexer circuits

B1 ; Turn ON Machine

$H ; Homing :)
G10 P0 L20 X0Y0Z0 ; Force Reset current coordinates after homing


; The following gcode is the PCB trace laser marking gcode

M5 ; Being extra sure it won't light up before activation

; Getting and Activating Tool-1, The Tool.Laser
G00X165Y0Z10.5 ; Go to Tool-1 Home Pos
G00X188 ; Enter Female Kinematic Mount Home Pos
A1 ; Latch on Kinematic Mount
G4 P5 ; Wait for Kinematic Mount to fully attach
G00X92 ; Exit Female Kinematic Mount Home Pos
#TODO X0Y0Z0 ;  ;Add tool offset coordinate
C1 ; Choosing tool 1 in the choose demultiplexer circuits

F400 ; setting default feedrate

G00Z16 ; Moving to correct focal length Z position

S200 ; Setting Laser Power

; Number of passes: 3

; Pass number: 0
G01 X4.693Y50.4
M3
G01 X6.307Y50.4
G01 X6.32Y50.422
G01 X6.335Y50.444
G01 X6.35Y50.467
G01 X6.367Y50.489
G01 X6.385Y50.511
G01 X6.404Y50.533
G01 X6.424Y50.556
G01 X6.447Y50.578
G01 X6.471Y50.6
G01 X6.497Y50.622
G01 X6.526Y50.644
G01 X6.558Y50.667
G01 X6.593Y50.689
G01 X6.633Y50.711
G01 X6.68Y50.733
G01 X6.737Y50.756
G01 X6.813Y50.778
G01 X7.0Y50.8
G01 X7.187Y50.778
G01 X7.263Y50.756
G01 X7.32Y50.733
G01 X7.367Y50.711
G01 X7.407Y50.689
G01 X7.442Y50.667
G01 X7.474Y50.644
G01 X7.503Y50.622
G01 X7.529Y50.6
G01 X7.553Y50.578
G01 X7.576Y50.556
G01 X7.596Y50.533
G01 X7.615Y50.511
G01 X7.633Y50.489
G01 X7.65Y50.467
G01 X7.665Y50.444
G01 X7.68Y50.422
G01 X7.693Y50.4
G01 X9.307Y50.4
G01 X9.32Y50.422
G01 X9.335Y50.444
G01 X9.35Y50.467
G01 X9.367Y50.489
G01 X9.385Y50.511
G01 X9.404Y50.533
G01 X9.424Y50.556
G01 X9.447Y50.578
G01 X9.471Y50.6
G01 X9.497Y50.622
G01 X9.526Y50.644
G01 X9.558Y50.667
G01 X9.593Y50.689
G01 X9.633Y50.711
G01 X9.68Y50.733
G01 X9.737Y50.756
G01 X9.813Y50.778
G01 X10.0Y50.8
G01 X10.187Y50.778
G01 X10.263Y50.756
G01 X10.32Y50.733
G01 X10.367Y50.711
G01 X10.407Y50.689
G01 X10.442Y50.667
G01 X10.474Y50.644
G01 X10.503Y50.622
G01 X10.529Y50.6
G01 X10.553Y50.578
G01 X10.576Y50.556
G01 X10.596Y50.533
G01 X10.615Y50.511
G01 X10.633Y50.489
G01 X10.65Y50.467
G01 X10.665Y50.444
G01 X10.68Y50.422
G01 X10.693Y50.4
G01 X17.866Y50.4
G01 X17.866Y50.4
G01 X21.816Y46.45
G01 X22.95Y46.45
G01 X22.95Y44.75
G01 X21.25Y44.75
G01 X21.25Y45.884
G01 X17.534Y49.6
G01 X17.534Y49.6
G01 X10.693Y49.6
G01 X10.68Y49.578
G01 X10.665Y49.556
G01 X10.65Y49.533
G01 X10.633Y49.511
G01 X10.615Y49.489
G01 X10.596Y49.467
G01 X10.576Y49.444
G01 X10.553Y49.422
G01 X10.529Y49.4
G01 X10.503Y49.378
G01 X10.474Y49.356
G01 X10.442Y49.333
G01 X10.407Y49.311
G01 X10.367Y49.289
G01 X10.32Y49.267
G01 X10.263Y49.244
G01 X10.187Y49.222
G01 X10.0Y49.2
G01 X9.813Y49.222
G01 X9.737Y49.244
G01 X9.68Y49.267
G01 X9.633Y49.289
G01 X9.593Y49.311
G01 X9.558Y49.333
G01 X9.526Y49.356
G01 X9.497Y49.378
G01 X9.471Y49.4
G01 X9.447Y49.422
G01 X9.424Y49.444
G01 X9.404Y49.467
G01 X9.385Y49.489
G01 X9.367Y49.511
G01 X9.35Y49.533
G01 X9.335Y49.556
G01 X9.32Y49.578
G01 X9.307Y49.6
G01 X7.693Y49.6
G01 X7.68Y49.578
G01 X7.665Y49.556
G01 X7.65Y49.533
G01 X7.633Y49.511
G01 X7.615Y49.489
G01 X7.596Y49.467
G01 X7.576Y49.444
G01 X7.553Y49.422
G01 X7.529Y49.4
G01 X7.503Y49.378
G01 X7.474Y49.356
G01 X7.442Y49.333
G01 X7.407Y49.311
G01 X7.367Y49.289
G01 X7.32Y49.267
G01 X7.263Y49.244
G01 X7.187Y49.222
G01 X7.0Y49.2
G01 X6.813Y49.222
G01 X6.737Y49.244
G01 X6.68Y49.267
G01 X6.633Y49.289
G01 X6.593Y49.311
G01 X6.558Y49.333
G01 X6.526Y49.356
G01 X6.497Y49.378
G01 X6.471Y49.4
G01 X6.447Y49.422
G01 X6.424Y49.444
G01 X6.404Y49.467
G01 X6.385Y49.489
G01 X6.367Y49.511
G01 X6.35Y49.533
G01 X6.335Y49.556
G01 X6.32Y49.578
G01 X6.307Y49.6
G01 X4.693Y49.6
G01 X4.685Y49.587
G01 X4.677Y49.573
G01 X4.668Y49.56
G01 X4.659Y49.546
G01 X4.649Y49.532
G01 X4.638Y49.518
G01 X4.627Y49.503
G01 X4.615Y49.488
G01 X4.602Y49.473
G01 X4.587Y49.457
G01 X4.572Y49.44
G01 X4.555Y49.423
G01 X4.535Y49.405
G01 X4.513Y49.386
G01 X4.488Y49.366
G01 X4.456Y49.343
G01 X4.414Y49.316
G01 X4.306Y49.261
G01 X4.191Y49.223
G01 X4.141Y49.213
G01 X4.103Y49.207
G01 X4.07Y49.203
G01 X4.041Y49.201
G01 X4.015Y49.2
G01 X3.991Y49.2
G01 X3.968Y49.201
G01 X3.947Y49.202
G01 X3.927Y49.203
G01 X3.907Y49.205
G01 X3.889Y49.208
G01 X3.872Y49.21
G01 X3.855Y49.213
G01 X3.838Y49.217
G01 X3.822Y49.22
G01 X3.807Y49.224
G01 X3.792Y49.227
G01 X3.0Y48.435
G01 X3.0Y48.435
G01 X3.0Y40.709
G01 X10.311Y33.398
G01 X10.583Y33.398
G01 X10.604Y33.431
G01 X10.626Y33.464
G01 X10.65Y33.496
G01 X10.676Y33.527
G01 X10.704Y33.557
G01 X10.734Y33.586
G01 X10.767Y33.615
G01 X10.802Y33.642
G01 X10.839Y33.668
G01 X10.88Y33.693
G01 X10.925Y33.717
G01 X10.973Y33.738
G01 X11.027Y33.758
G01 X11.086Y33.775
G01 X11.155Y33.789
G01 X11.236Y33.797
G01 X11.34Y33.795
G01 X11.582Y33.737
G01 X11.794Y33.608
G01 X11.869Y33.535
G01 X11.921Y33.471
G01 X11.96Y33.414
G01 X11.99Y33.359
G01 X12.014Y33.308
G01 X12.033Y33.258
G01 X12.047Y33.21
G01 X12.059Y33.163
G01 X12.067Y33.118
G01 X12.072Y33.074
G01 X12.075Y33.031
G01 X12.076Y32.989
G01 X12.074Y32.948
G01 X12.071Y32.908
G01 X12.065Y32.868
G01 X12.058Y32.829
G01 X12.049Y32.791
G01 X12.842Y31.998
G01 X12.842Y31.998
G01 X17.298Y31.998
G01 X17.071Y32.225
G01 X16.929Y32.201
G01 X16.811Y32.2
G01 X16.707Y32.214
G01 X16.614Y32.238
G01 X16.53Y32.271
G01 X16.453Y32.311
G01 X16.383Y32.359
G01 X16.319Y32.412
G01 X16.262Y32.472
G01 X16.21Y32.537
G01 X16.165Y32.609
G01 X16.126Y32.688
G01 X16.096Y32.775
G01 X16.074Y32.871
G01 X16.064Y32.978
G01 X16.071Y33.102
G01 X16.106Y33.254
G01 X16.298Y33.564
G01 X16.608Y33.756
G01 X16.76Y33.791
G01 X16.884Y33.798
G01 X16.991Y33.788
G01 X17.087Y33.766
G01 X17.174Y33.736
G01 X17.253Y33.697
G01 X17.325Y33.652
G01 X17.39Y33.6
G01 X17.45Y33.543
G01 X17.503Y33.479
G01 X17.551Y33.409
G01 X17.591Y33.332
G01 X17.624Y33.248
G01 X17.648Y33.155
G01 X17.662Y33.051
G01 X17.661Y32.933
G01 X17.637Y32.791
G01 X18.43Y31.998
G01 X18.43Y31.998
G01 X20.887Y31.998
G01 X21.679Y32.791
G01 X21.655Y32.933
G01 X21.654Y33.051
G01 X21.667Y33.155
G01 X21.692Y33.248
G01 X21.725Y33.332
G01 X21.765Y33.409
G01 X21.813Y33.479
G01 X21.866Y33.543
G01 X21.926Y33.6
G01 X21.991Y33.652
G01 X22.063Y33.697
G01 X22.142Y33.736
G01 X22.229Y33.766
G01 X22.325Y33.788
G01 X22.432Y33.798
G01 X22.556Y33.791
G01 X22.708Y33.756
G01 X23.018Y33.564
G01 X23.21Y33.254
G01 X23.245Y33.101
G01 X23.252Y32.978
G01 X23.242Y32.87
G01 X23.22Y32.775
G01 X23.189Y32.688
G01 X23.151Y32.609
G01 X23.106Y32.537
G01 X23.054Y32.471
G01 X22.996Y32.412
G01 X22.933Y32.358
G01 X22.862Y32.311
G01 X22.786Y32.271
G01 X22.701Y32.238
G01 X22.608Y32.213
G01 X22.505Y32.2
G01 X22.387Y32.201
G01 X22.245Y32.225
G01 X21.217Y31.198
G01 X21.217Y31.198
G01 X18.264Y31.198
G01 X12.51Y31.198
G01 X11.483Y32.225
G01 X11.468Y32.221
G01 X11.453Y32.218
G01 X11.437Y32.214
G01 X11.421Y32.211
G01 X11.404Y32.208
G01 X11.386Y32.206
G01 X11.368Y32.203
G01 X11.349Y32.201
G01 X11.328Y32.2
G01 X11.307Y32.199
G01 X11.284Y32.198
G01 X11.26Y32.198
G01 X11.234Y32.199
G01 X11.205Y32.201
G01 X11.172Y32.205
G01 X11.134Y32.211
G01 X11.085Y32.221
G01 X10.97Y32.259
G01 X10.862Y32.314
G01 X10.82Y32.341
G01 X10.788Y32.364
G01 X10.763Y32.385
G01 X10.741Y32.404
G01 X10.721Y32.421
G01 X10.704Y32.439
G01 X10.689Y32.455
G01 X10.674Y32.471
G01 X10.661Y32.486
G01 X10.649Y32.501
G01 X10.638Y32.516
G01 X10.627Y32.53
G01 X10.617Y32.544
G01 X10.608Y32.558
G01 X10.599Y32.571
G01 X10.591Y32.585
G01 X10.583Y32.598
G01 X9.979Y32.598
G01 X9.979Y32.598
G01 X2.2Y40.377
G01 X2.2Y48.765
G01 X3.227Y49.792
G01 X3.218Y49.83
G01 X3.211Y49.869
G01 X3.205Y49.909
G01 X3.202Y49.949
G01 X3.2Y49.99
G01 X3.201Y50.032
G01 X3.204Y50.075
G01 X3.209Y50.12
G01 X3.217Y50.165
G01 X3.228Y50.211
G01 X3.243Y50.259
G01 X3.262Y50.309
G01 X3.286Y50.361
G01 X3.316Y50.415
G01 X3.355Y50.473
G01 X3.406Y50.536
G01 X3.481Y50.609
G01 X3.694Y50.739
G01 X3.935Y50.797
G01 X4.04Y50.799
G01 X4.121Y50.791
G01 X4.19Y50.777
G01 X4.249Y50.76
G01 X4.303Y50.74
G01 X4.351Y50.719
G01 X4.396Y50.695
G01 X4.437Y50.67
G01 X4.474Y50.644
G01 X4.509Y50.617
G01 X4.542Y50.589
G01 X4.572Y50.559
G01 X4.6Y50.529
G01 X4.626Y50.498
G01 X4.65Y50.466
G01 X4.672Y50.433
G01 X4.693Y50.4
M5
G01 X24.348Y34.667
M3
G01 X22.68Y34.709
G01 X22.659Y34.676
G01 X22.636Y34.645
G01 X22.611Y34.614
G01 X22.585Y34.584
G01 X22.556Y34.555
G01 X22.526Y34.527
G01 X22.493Y34.5
G01 X22.458Y34.474
G01 X22.42Y34.449
G01 X22.379Y34.425
G01 X22.334Y34.403
G01 X22.286Y34.383
G01 X22.233Y34.365
G01 X22.173Y34.349
G01 X22.105Y34.337
G01 X22.025Y34.33
G01 X21.921Y34.334
G01 X21.682Y34.396
G01 X21.474Y34.527
G01 X21.401Y34.6
G01 X21.35Y34.663
G01 X21.312Y34.721
G01 X21.283Y34.775
G01 X21.26Y34.827
G01 X21.241Y34.876
G01 X21.227Y34.923
G01 X21.216Y34.969
G01 X21.208Y35.014
G01 X21.203Y35.058
G01 X21.201Y35.1
G01 X21.2Y35.142
G01 X21.202Y35.182
G01 X21.205Y35.222
G01 X21.211Y35.261
G01 X21.218Y35.299
G01 X21.227Y35.337
G01 X16.764Y39.8
G01 X16.764Y39.8
G01 X10.474Y39.8
G01 X8.2Y42.074
G01 X8.2Y43.765
G01 X9.227Y44.792
G01 X9.221Y44.818
G01 X9.215Y44.843
G01 X9.211Y44.87
G01 X9.207Y44.897
G01 X9.203Y44.926
G01 X9.201Y44.955
G01 X9.2Y44.985
G01 X9.2Y45.017
G01 X9.202Y45.05
G01 X9.204Y45.084
G01 X9.209Y45.12
G01 X9.216Y45.158
G01 X9.225Y45.199
G01 X9.238Y45.244
G01 X9.255Y45.292
G01 X9.28Y45.348
G01 X9.318Y45.418
G01 X9.434Y45.566
G01 X9.582Y45.682
G01 X9.652Y45.72
G01 X9.708Y45.745
G01 X9.756Y45.762
G01 X9.801Y45.775
G01 X9.841Y45.784
G01 X9.88Y45.791
G01 X9.916Y45.796
G01 X9.95Y45.798
G01 X9.983Y45.8
G01 X10.015Y45.8
G01 X10.045Y45.799
G01 X10.074Y45.797
G01 X10.103Y45.793
G01 X10.13Y45.789
G01 X10.157Y45.785
G01 X10.182Y45.779
G01 X10.208Y45.773
G01 X10.435Y46.0
G01 X12.55Y46.0
G01 X12.55Y46.45
G01 X14.25Y46.45
G01 X14.25Y44.75
G01 X12.55Y44.75
G01 X12.55Y45.2
G01 X10.775Y45.2
G01 X10.781Y45.175
G01 X10.786Y45.149
G01 X10.791Y45.123
G01 X10.794Y45.095
G01 X10.797Y45.067
G01 X10.799Y45.038
G01 X10.8Y45.008
G01 X10.8Y44.976
G01 X10.798Y44.944
G01 X10.795Y44.91
G01 X10.79Y44.874
G01 X10.783Y44.836
G01 X10.773Y44.795
G01 X10.76Y44.751
G01 X10.743Y44.703
G01 X10.718Y44.647
G01 X10.68Y44.578
G01 X10.563Y44.432
G01 X10.415Y44.316
G01 X10.346Y44.279
G01 X10.29Y44.254
G01 X10.241Y44.237
G01 X10.197Y44.225
G01 X10.157Y44.215
G01 X10.119Y44.209
G01 X10.083Y44.204
G01 X10.048Y44.201
G01 X10.016Y44.2
G01 X9.984Y44.2
G01 X9.954Y44.201
G01 X9.925Y44.204
G01 X9.897Y44.207
G01 X9.87Y44.211
G01 X9.843Y44.216
G01 X9.817Y44.221
G01 X9.792Y44.227
G01 X9.0Y43.435
G01 X9.0Y43.435
G01 X9.0Y42.406
G01 X10.806Y40.6
G01 X17.096Y40.6
G01 X21.793Y35.903
G01 X21.808Y35.907
G01 X21.823Y35.91
G01 X21.839Y35.914
G01 X21.855Y35.917
G01 X21.872Y35.92
G01 X21.89Y35.922
G01 X21.908Y35.925
G01 X21.927Y35.927
G01 X21.948Y35.928
G01 X21.969Y35.929
G01 X21.992Y35.93
G01 X22.016Y35.93
G01 X22.042Y35.929
G01 X22.071Y35.927
G01 X22.104Y35.923
G01 X22.142Y35.917
G01 X22.191Y35.907
G01 X22.306Y35.869
G01 X22.414Y35.814
G01 X22.456Y35.787
G01 X22.488Y35.764
G01 X22.513Y35.743
G01 X22.535Y35.724
G01 X22.555Y35.707
G01 X22.572Y35.689
G01 X22.587Y35.673
G01 X22.602Y35.657
G01 X22.615Y35.642
G01 X22.627Y35.627
G01 X22.638Y35.612
G01 X22.649Y35.598
G01 X22.659Y35.584
G01 X22.668Y35.57
G01 X22.677Y35.557
G01 X22.685Y35.543
G01 X22.693Y35.53
G01 X24.307Y35.53
G01 X24.338Y35.58
G01 X24.372Y35.626
G01 X24.409Y35.669
G01 X24.449Y35.71
G01 X24.492Y35.748
G01 X24.537Y35.782
G01 X24.585Y35.814
G01 X24.637Y35.843
G01 X24.691Y35.868
G01 X24.749Y35.89
G01 X24.811Y35.907
G01 X24.877Y35.92
G01 X24.948Y35.928
G01 X25.026Y35.93
G01 X25.111Y35.922
G01 X25.21Y35.902
G01 X25.33Y35.859
G01 X25.576Y35.685
G01 X25.741Y35.432
G01 X25.779Y35.31
G01 X25.796Y35.211
G01 X25.8Y35.125
G01 X25.796Y35.048
G01 X25.785Y34.977
G01 X25.769Y34.911
G01 X25.749Y34.85
G01 X25.726Y34.793
G01 X25.698Y34.74
G01 X25.668Y34.689
G01 X25.634Y34.642
G01 X25.598Y34.598
G01 X25.559Y34.557
G01 X25.517Y34.519
G01 X25.472Y34.484
G01 X25.424Y34.452
G01 X25.373Y34.423
G01 X25.37Y33.704
G01 X25.495Y33.62
G01 X25.584Y33.536
G01 X25.651Y33.452
G01 X25.701Y33.368
G01 X25.739Y33.284
G01 X25.766Y33.2
G01 X25.783Y33.117
G01 X25.791Y33.033
G01 X25.791Y32.949
G01 X25.781Y32.865
G01 X25.762Y32.782
G01 X25.734Y32.698
G01 X25.694Y32.614
G01 X25.641Y32.531
G01 X25.572Y32.447
G01 X25.48Y32.364
G01 X25.346Y32.28
G01 X24.99Y32.197
G01 X24.635Y32.282
G01 X24.501Y32.366
G01 X24.409Y32.45
G01 X24.34Y32.534
G01 X24.288Y32.618
G01 X24.249Y32.702
G01 X24.221Y32.785
G01 X24.202Y32.869
G01 X24.193Y32.953
G01 X24.193Y33.037
G01 X24.201Y33.12
G01 X24.219Y33.204
G01 X24.246Y33.288
G01 X24.284Y33.371
G01 X24.335Y33.455
G01 X24.402Y33.539
G01 X24.491Y33.622
G01 X24.62Y33.706
G01 X24.622Y34.425
G01 X24.622Y34.425
G01 X24.618Y34.427
G01 X24.613Y34.43
G01 X24.608Y34.433
G01 X24.603Y34.435
G01 X24.598Y34.438
G01 X24.593Y34.442
G01 X24.587Y34.445
G01 X24.581Y34.448
G01 X24.575Y34.452
G01 X24.569Y34.456
G01 X24.562Y34.46
G01 X24.555Y34.465
G01 X24.547Y34.47
G01 X24.539Y34.476
G01 X24.53Y34.483
G01 X24.518Y34.491
G01 X24.504Y34.502
G01 X24.471Y34.53
G01 X24.439Y34.56
G01 X24.426Y34.572
G01 X24.417Y34.582
G01 X24.409Y34.591
G01 X24.402Y34.598
G01 X24.396Y34.605
G01 X24.39Y34.612
G01 X24.385Y34.618
G01 X24.381Y34.624
G01 X24.376Y34.629
G01 X24.372Y34.635
G01 X24.368Y34.64
G01 X24.364Y34.644
G01 X24.361Y34.649
G01 X24.357Y34.654
G01 X24.354Y34.658
G01 X24.351Y34.663
G01 X24.348Y34.667
M5
G01 X15.377Y12.35
M3
G01 X15.139Y12.35
G01 X12.646Y14.843
G01 X12.646Y16.711
G01 X18.144Y22.209
G01 X19.814Y22.209
G01 X22.052Y24.447
G01 X22.052Y24.685
G01 X21.934Y24.768
G01 X21.85Y24.851
G01 X21.787Y24.934
G01 X21.738Y25.017
G01 X21.702Y25.1
G01 X21.676Y25.183
G01 X21.66Y25.266
G01 X21.653Y25.349
G01 X21.654Y25.432
G01 X21.664Y25.514
G01 X21.683Y25.597
G01 X21.711Y25.68
G01 X21.751Y25.763
G01 X21.803Y25.846
G01 X21.872Y25.929
G01 X21.964Y26.012
G01 X22.097Y26.095
G01 X22.452Y26.178
G01 X22.807Y26.095
G01 X22.94Y26.012
G01 X23.032Y25.929
G01 X23.101Y25.846
G01 X23.153Y25.763
G01 X23.193Y25.68
G01 X23.221Y25.597
G01 X23.24Y25.514
G01 X23.25Y25.432
G01 X23.251Y25.349
G01 X23.244Y25.266
G01 X23.228Y25.183
G01 X23.202Y25.1
G01 X23.166Y25.017
G01 X23.117Y24.934
G01 X23.054Y24.851
G01 X22.97Y24.768
G01 X22.852Y24.685
G01 X22.852Y24.117
G01 X22.852Y24.117
G01 X20.144Y21.409
G01 X18.474Y21.409
G01 X13.446Y16.381
G01 X13.446Y15.175
G01 X15.412Y13.209
G01 X15.505Y13.329
G01 X15.596Y13.414
G01 X15.687Y13.477
G01 X15.777Y13.524
G01 X15.866Y13.559
G01 X15.955Y13.583
G01 X16.044Y13.596
G01 X16.132Y13.6
G01 X16.22Y13.595
G01 X16.307Y13.581
G01 X16.394Y13.557
G01 X16.481Y13.523
G01 X16.567Y13.477
G01 X16.653Y13.418
G01 X16.738Y13.341
G01 X16.821Y13.24
G01 X16.904Y13.095
G01 X16.976Y12.716
G01 X16.873Y12.343
G01 X16.78Y12.205
G01 X16.688Y12.111
G01 X16.597Y12.042
G01 X16.507Y11.99
G01 X16.417Y11.951
G01 X16.328Y11.924
G01 X16.239Y11.907
G01 X16.151Y11.9
G01 X16.063Y11.902
G01 X15.976Y11.914
G01 X15.888Y11.934
G01 X15.802Y11.965
G01 X15.715Y12.006
G01 X15.629Y12.061
G01 X15.544Y12.131
G01 X15.46Y12.223
G01 X15.377Y12.35
M5
G01 X16.693Y35.53
M3
G01 X18.307Y35.53
G01 X18.328Y35.563
G01 X18.35Y35.596
G01 X18.374Y35.628
G01 X18.4Y35.659
G01 X18.428Y35.689
G01 X18.458Y35.718
G01 X18.491Y35.747
G01 X18.526Y35.774
G01 X18.563Y35.8
G01 X18.604Y35.825
G01 X18.649Y35.849
G01 X18.697Y35.87
G01 X18.751Y35.89
G01 X18.81Y35.907
G01 X18.879Y35.921
G01 X18.96Y35.929
G01 X19.064Y35.927
G01 X19.306Y35.869
G01 X19.518Y35.74
G01 X19.593Y35.667
G01 X19.645Y35.603
G01 X19.684Y35.546
G01 X19.714Y35.491
G01 X19.738Y35.44
G01 X19.757Y35.39
G01 X19.771Y35.342
G01 X19.783Y35.295
G01 X19.791Y35.25
G01 X19.796Y35.206
G01 X19.799Y35.163
G01 X19.8Y35.121
G01 X19.798Y35.08
G01 X19.795Y35.04
G01 X19.789Y35.0
G01 X19.782Y34.961
G01 X19.773Y34.923
G01 X19.804Y34.892
G01 X19.804Y34.892
G01 X19.804Y33.691
G01 X19.922Y33.608
G01 X20.006Y33.525
G01 X20.069Y33.442
G01 X20.118Y33.359
G01 X20.154Y33.276
G01 X20.18Y33.193
G01 X20.196Y33.11
G01 X20.203Y33.027
G01 X20.202Y32.944
G01 X20.192Y32.862
G01 X20.173Y32.779
G01 X20.145Y32.696
G01 X20.105Y32.613
G01 X20.053Y32.53
G01 X19.984Y32.447
G01 X19.892Y32.364
G01 X19.759Y32.281
G01 X19.404Y32.198
G01 X19.049Y32.281
G01 X18.916Y32.364
G01 X18.824Y32.447
G01 X18.755Y32.53
G01 X18.703Y32.613
G01 X18.663Y32.696
G01 X18.635Y32.779
G01 X18.616Y32.862
G01 X18.606Y32.944
G01 X18.605Y33.027
G01 X18.612Y33.11
G01 X18.628Y33.193
G01 X18.654Y33.276
G01 X18.69Y33.359
G01 X18.739Y33.442
G01 X18.802Y33.525
G01 X18.886Y33.608
G01 X19.004Y33.691
G01 X19.004Y34.33
G01 X18.992Y34.33
G01 X18.979Y34.33
G01 X18.967Y34.331
G01 X18.953Y34.331
G01 X18.94Y34.332
G01 X18.926Y34.333
G01 X18.911Y34.335
G01 X18.895Y34.337
G01 X18.879Y34.339
G01 X18.863Y34.342
G01 X18.845Y34.345
G01 X18.826Y34.349
G01 X18.805Y34.354
G01 X18.783Y34.36
G01 X18.757Y34.368
G01 X18.728Y34.378
G01 X18.69Y34.393
G01 X18.602Y34.436
G01 X18.52Y34.49
G01 X18.488Y34.515
G01 X18.464Y34.536
G01 X18.445Y34.554
G01 X18.428Y34.57
G01 X18.414Y34.586
G01 X18.401Y34.6
G01 X18.389Y34.614
G01 X18.378Y34.627
G01 X18.368Y34.64
G01 X18.358Y34.652
G01 X18.35Y34.664
G01 X18.342Y34.676
G01 X18.334Y34.687
G01 X18.327Y34.698
G01 X18.32Y34.709
G01 X18.313Y34.72
G01 X18.307Y34.73
G01 X16.693Y34.73
G01 X16.662Y34.681
G01 X16.629Y34.636
G01 X16.593Y34.593
G01 X16.554Y34.553
G01 X16.512Y34.515
G01 X16.467Y34.481
G01 X16.42Y34.449
G01 X16.369Y34.42
G01 X16.316Y34.395
G01 X16.259Y34.373
G01 X16.198Y34.355
G01 X16.132Y34.341
G01 X16.062Y34.332
G01 X15.985Y34.33
G01 X15.9Y34.336
G01 X15.802Y34.355
G01 X15.682Y34.396
G01 X15.434Y34.564
G01 X15.266Y34.812
G01 X15.225Y34.932
G01 X15.206Y35.03
G01 X15.2Y35.115
G01 X15.202Y35.192
G01 X15.211Y35.262
G01 X15.225Y35.328
G01 X15.243Y35.389
G01 X15.265Y35.446
G01 X15.29Y35.499
G01 X15.319Y35.55
G01 X15.351Y35.597
G01 X15.385Y35.642
G01 X15.423Y35.684
G01 X15.463Y35.723
G01 X15.506Y35.759
G01 X15.551Y35.792
G01 X15.6Y35.823
G01 X15.6Y36.934
G01 X15.6Y36.934
G01 X14.334Y38.2
G01 X10.66Y38.2
G01 X6.6Y42.26
G01 X6.6Y44.307
G01 X6.567Y44.328
G01 X6.534Y44.35
G01 X6.502Y44.374
G01 X6.471Y44.4
G01 X6.441Y44.428
G01 X6.411Y44.458
G01 X6.383Y44.491
G01 X6.356Y44.526
G01 X6.33Y44.563
G01 X6.305Y44.604
G01 X6.281Y44.649
G01 X6.26Y44.697
G01 X6.24Y44.751
G01 X6.223Y44.811
G01 X6.209Y44.879
G01 X6.201Y44.96
G01 X6.203Y45.065
G01 X6.261Y45.306
G01 X6.391Y45.518
G01 X6.464Y45.594
G01 X6.527Y45.645
G01 X6.585Y45.684
G01 X6.639Y45.714
G01 X6.691Y45.738
G01 X6.741Y45.757
G01 X6.789Y45.772
G01 X6.835Y45.783
G01 X6.88Y45.791
G01 X6.925Y45.796
G01 X6.968Y45.799
G01 X7.01Y45.8
G01 X7.051Y45.798
G01 X7.091Y45.795
G01 X7.131Y45.789
G01 X7.17Y45.782
G01 X7.208Y45.773
G01 X8.885Y47.45
G01 X8.885Y47.45
G01 X14.766Y47.45
G01 X15.781Y46.435
G01 X15.941Y46.45
G01 X16.069Y46.44
G01 X16.18Y46.415
G01 X16.277Y46.38
G01 X16.365Y46.336
G01 X16.443Y46.285
G01 X16.513Y46.228
G01 X16.576Y46.164
G01 X16.631Y46.095
G01 X16.679Y46.02
G01 X16.72Y45.938
G01 X16.752Y45.85
G01 X16.776Y45.755
G01 X16.788Y45.651
G01 X16.788Y45.536
G01 X16.767Y45.405
G01 X16.713Y45.247
G01 X16.475Y44.94
G01 X16.126Y44.771
G01 X15.96Y44.75
G01 X15.828Y44.757
G01 X15.715Y44.78
G01 X15.616Y44.814
G01 X15.527Y44.857
G01 X15.448Y44.907
G01 X15.377Y44.964
G01 X15.313Y45.026
G01 X15.256Y45.095
G01 X15.207Y45.169
G01 X15.165Y45.25
G01 X15.132Y45.337
G01 X15.107Y45.431
G01 X15.093Y45.534
G01 X15.091Y45.647
G01 X15.108Y45.775
G01 X15.156Y45.928
G01 X14.434Y46.65
G01 X14.434Y46.65
G01 X9.215Y46.65
G01 X7.773Y45.208
G01 X7.776Y45.193
G01 X7.78Y45.178
G01 X7.783Y45.162
G01 X7.787Y45.145
G01 X7.79Y45.129
G01 X7.792Y45.111
G01 X7.795Y45.093
G01 X7.797Y45.073
G01 X7.798Y45.053
G01 X7.799Y45.032
G01 X7.8Y45.009
G01 X7.8Y44.985
G01 X7.799Y44.959
G01 X7.797Y44.93
G01 X7.793Y44.897
G01 X7.787Y44.859
G01 X7.777Y44.81
G01 X7.739Y44.694
G01 X7.684Y44.586
G01 X7.657Y44.543
G01 X7.634Y44.512
G01 X7.614Y44.487
G01 X7.594Y44.465
G01 X7.577Y44.445
G01 X7.56Y44.428
G01 X7.543Y44.413
G01 X7.527Y44.398
G01 X7.512Y44.385
G01 X7.497Y44.373
G01 X7.482Y44.362
G01 X7.468Y44.351
G01 X7.454Y44.341
G01 X7.44Y44.332
G01 X7.427Y44.323
G01 X7.413Y44.315
G01 X7.4Y44.307
G01 X7.4Y42.592
G01 X7.4Y42.592
G01 X10.992Y39.0
G01 X14.666Y39.0
G01 X16.4Y37.266
G01 X16.4Y35.823
G01 X16.405Y35.82
G01 X16.41Y35.817
G01 X16.416Y35.813
G01 X16.421Y35.81
G01 X16.427Y35.806
G01 X16.433Y35.803
G01 X16.439Y35.799
G01 X16.445Y35.795
G01 X16.452Y35.79
G01 X16.459Y35.785
G01 X16.466Y35.78
G01 X16.474Y35.774
G01 X16.483Y35.768
G01 X16.492Y35.761
G01 X16.502Y35.753
G01 X16.514Y35.743
G01 X16.53Y35.73
G01 X16.566Y35.696
G01 X16.6Y35.66
G01 X16.613Y35.644
G01 X16.623Y35.632
G01 X16.631Y35.622
G01 X16.638Y35.613
G01 X16.644Y35.604
G01 X16.65Y35.596
G01 X16.655Y35.589
G01 X16.66Y35.582
G01 X16.665Y35.575
G01 X16.669Y35.569
G01 X16.673Y35.563
G01 X16.677Y35.557
G01 X16.68Y35.551
G01 X16.683Y35.546
G01 X16.687Y35.54
G01 X16.69Y35.535
G01 X16.693Y35.53
M5
G01 X10.693Y35.53
M3
G01 X12.307Y35.53
G01 X12.328Y35.563
G01 X12.35Y35.596
G01 X12.374Y35.628
G01 X12.4Y35.659
G01 X12.428Y35.689
G01 X12.458Y35.718
G01 X12.491Y35.747
G01 X12.526Y35.774
G01 X12.563Y35.8
G01 X12.604Y35.825
G01 X12.649Y35.849
G01 X12.697Y35.87
G01 X12.751Y35.89
G01 X12.81Y35.907
G01 X12.879Y35.921
G01 X12.96Y35.929
G01 X13.064Y35.927
G01 X13.306Y35.869
G01 X13.518Y35.74
G01 X13.593Y35.667
G01 X13.645Y35.603
G01 X13.684Y35.546
G01 X13.714Y35.491
G01 X13.738Y35.44
G01 X13.757Y35.39
G01 X13.771Y35.342
G01 X13.783Y35.295
G01 X13.791Y35.25
G01 X13.796Y35.206
G01 X13.799Y35.163
G01 X13.8Y35.121
G01 X13.798Y35.08
G01 X13.795Y35.04
G01 X13.789Y35.0
G01 X13.782Y34.961
G01 X13.773Y34.923
G01 X14.216Y34.48
G01 X14.216Y34.48
G01 X14.216Y33.691
G01 X14.334Y33.608
G01 X14.418Y33.525
G01 X14.481Y33.442
G01 X14.53Y33.359
G01 X14.566Y33.276
G01 X14.592Y33.193
G01 X14.608Y33.11
G01 X14.615Y33.027
G01 X14.614Y32.944
G01 X14.604Y32.862
G01 X14.585Y32.779
G01 X14.557Y32.696
G01 X14.517Y32.613
G01 X14.465Y32.53
G01 X14.396Y32.447
G01 X14.304Y32.364
G01 X14.171Y32.281
G01 X13.816Y32.198
G01 X13.461Y32.281
G01 X13.328Y32.364
G01 X13.236Y32.447
G01 X13.167Y32.53
G01 X13.115Y32.613
G01 X13.075Y32.696
G01 X13.047Y32.779
G01 X13.028Y32.862
G01 X13.018Y32.944
G01 X13.017Y33.027
G01 X13.024Y33.11
G01 X13.04Y33.193
G01 X13.066Y33.276
G01 X13.102Y33.359
G01 X13.151Y33.442
G01 X13.214Y33.525
G01 X13.298Y33.608
G01 X13.416Y33.691
G01 X13.416Y34.148
G01 X13.416Y34.148
G01 X13.207Y34.357
G01 X13.192Y34.353
G01 X13.177Y34.35
G01 X13.161Y34.346
G01 X13.145Y34.343
G01 X13.128Y34.34
G01 X13.11Y34.338
G01 X13.092Y34.335
G01 X13.073Y34.333
G01 X13.052Y34.332
G01 X13.031Y34.331
G01 X13.008Y34.33
G01 X12.984Y34.33
G01 X12.958Y34.331
G01 X12.929Y34.333
G01 X12.896Y34.337
G01 X12.858Y34.343
G01 X12.809Y34.353
G01 X12.694Y34.391
G01 X12.586Y34.446
G01 X12.544Y34.473
G01 X12.512Y34.496
G01 X12.487Y34.517
G01 X12.465Y34.536
G01 X12.445Y34.553
G01 X12.428Y34.571
G01 X12.413Y34.587
G01 X12.398Y34.603
G01 X12.385Y34.618
G01 X12.373Y34.633
G01 X12.362Y34.648
G01 X12.351Y34.662
G01 X12.341Y34.676
G01 X12.332Y34.69
G01 X12.323Y34.703
G01 X12.315Y34.717
G01 X12.307Y34.73
G01 X10.693Y34.73
G01 X10.672Y34.697
G01 X10.65Y34.664
G01 X10.626Y34.632
G01 X10.6Y34.601
G01 X10.572Y34.571
G01 X10.542Y34.542
G01 X10.509Y34.513
G01 X10.474Y34.486
G01 X10.437Y34.46
G01 X10.396Y34.435
G01 X10.351Y34.411
G01 X10.303Y34.39
G01 X10.249Y34.37
G01 X10.19Y34.353
G01 X10.121Y34.339
G01 X10.04Y34.331
G01 X9.936Y34.333
G01 X9.694Y34.391
G01 X9.482Y34.52
G01 X9.407Y34.593
G01 X9.355Y34.657
G01 X9.316Y34.714
G01 X9.286Y34.769
G01 X9.262Y34.82
G01 X9.243Y34.87
G01 X9.229Y34.918
G01 X9.217Y34.965
G01 X9.209Y35.01
G01 X9.204Y35.054
G01 X9.201Y35.097
G01 X9.2Y35.139
G01 X9.202Y35.18
G01 X9.205Y35.22
G01 X9.211Y35.26
G01 X9.218Y35.299
G01 X9.227Y35.337
G01 X3.6Y40.964
G01 X3.6Y40.964
G01 X3.6Y44.307
G01 X3.567Y44.328
G01 X3.534Y44.35
G01 X3.502Y44.374
G01 X3.471Y44.4
G01 X3.441Y44.428
G01 X3.411Y44.458
G01 X3.383Y44.491
G01 X3.356Y44.526
G01 X3.33Y44.563
G01 X3.305Y44.604
G01 X3.281Y44.649
G01 X3.26Y44.697
G01 X3.24Y44.751
G01 X3.223Y44.811
G01 X3.209Y44.879
G01 X3.201Y44.96
G01 X3.203Y45.065
G01 X3.261Y45.306
G01 X3.391Y45.518
G01 X3.464Y45.594
G01 X3.527Y45.645
G01 X3.585Y45.684
G01 X3.639Y45.714
G01 X3.691Y45.738
G01 X3.741Y45.757
G01 X3.789Y45.772
G01 X3.835Y45.783
G01 X3.88Y45.791
G01 X3.925Y45.796
G01 X3.968Y45.799
G01 X4.01Y45.8
G01 X4.051Y45.798
G01 X4.091Y45.795
G01 X4.131Y45.789
G01 X4.17Y45.782
G01 X4.208Y45.773
G01 X6.885Y48.45
G01 X6.885Y48.45
G01 X16.196Y48.45
G01 X18.233Y46.413
G01 X18.39Y46.445
G01 X18.52Y46.449
G01 X18.633Y46.436
G01 X18.734Y46.411
G01 X18.825Y46.377
G01 X18.908Y46.334
G01 X18.984Y46.285
G01 X19.053Y46.228
G01 X19.115Y46.165
G01 X19.171Y46.095
G01 X19.22Y46.018
G01 X19.262Y45.934
G01 X19.295Y45.841
G01 X19.319Y45.739
G01 X19.33Y45.625
G01 X19.323Y45.492
G01 X19.286Y45.329
G01 X19.081Y44.999
G01 X18.751Y44.794
G01 X18.588Y44.757
G01 X18.455Y44.75
G01 X18.341Y44.761
G01 X18.239Y44.785
G01 X18.146Y44.818
G01 X18.062Y44.86
G01 X17.985Y44.909
G01 X17.915Y44.965
G01 X17.852Y45.027
G01 X17.795Y45.096
G01 X17.746Y45.172
G01 X17.703Y45.255
G01 X17.669Y45.346
G01 X17.644Y45.447
G01 X17.631Y45.56
G01 X17.635Y45.69
G01 X17.667Y45.847
G01 X15.864Y47.65
G01 X15.864Y47.65
G01 X7.215Y47.65
G01 X4.773Y45.208
G01 X4.776Y45.193
G01 X4.78Y45.178
G01 X4.783Y45.162
G01 X4.787Y45.145
G01 X4.79Y45.129
G01 X4.792Y45.111
G01 X4.795Y45.093
G01 X4.797Y45.073
G01 X4.798Y45.053
G01 X4.799Y45.032
G01 X4.8Y45.009
G01 X4.8Y44.985
G01 X4.799Y44.959
G01 X4.797Y44.93
G01 X4.793Y44.897
G01 X4.787Y44.859
G01 X4.777Y44.81
G01 X4.739Y44.694
G01 X4.684Y44.586
G01 X4.657Y44.543
G01 X4.634Y44.512
G01 X4.614Y44.487
G01 X4.594Y44.465
G01 X4.577Y44.445
G01 X4.56Y44.428
G01 X4.543Y44.413
G01 X4.527Y44.398
G01 X4.512Y44.385
G01 X4.497Y44.373
G01 X4.482Y44.362
G01 X4.468Y44.351
G01 X4.454Y44.341
G01 X4.44Y44.332
G01 X4.427Y44.323
G01 X4.413Y44.315
G01 X4.4Y44.307
G01 X4.4Y41.296
G01 X4.4Y41.296
G01 X9.793Y35.903
G01 X9.808Y35.907
G01 X9.823Y35.91
G01 X9.839Y35.914
G01 X9.855Y35.917
G01 X9.872Y35.92
G01 X9.89Y35.922
G01 X9.908Y35.925
G01 X9.927Y35.927
G01 X9.948Y35.928
G01 X9.969Y35.929
G01 X9.992Y35.93
G01 X10.016Y35.93
G01 X10.042Y35.929
G01 X10.071Y35.927
G01 X10.104Y35.923
G01 X10.142Y35.917
G01 X10.191Y35.907
G01 X10.306Y35.869
G01 X10.414Y35.814
G01 X10.456Y35.787
G01 X10.488Y35.764
G01 X10.513Y35.743
G01 X10.535Y35.724
G01 X10.555Y35.707
G01 X10.572Y35.689
G01 X10.587Y35.673
G01 X10.602Y35.657
G01 X10.615Y35.642
G01 X10.627Y35.627
G01 X10.638Y35.612
G01 X10.649Y35.598
G01 X10.659Y35.584
G01 X10.668Y35.57
G01 X10.677Y35.557
G01 X10.685Y35.543
G01 X10.693Y35.53
M5
G01 X16.693Y43.15
M3
G01 X18.307Y43.15
G01 X18.32Y43.172
G01 X18.335Y43.194
G01 X18.35Y43.217
G01 X18.367Y43.239
G01 X18.385Y43.261
G01 X18.404Y43.283
G01 X18.424Y43.306
G01 X18.447Y43.328
G01 X18.471Y43.35
G01 X18.497Y43.372
G01 X18.526Y43.394
G01 X18.558Y43.417
G01 X18.593Y43.439
G01 X18.633Y43.461
G01 X18.68Y43.483
G01 X18.737Y43.506
G01 X18.813Y43.528
G01 X19.0Y43.55
G01 X19.187Y43.528
G01 X19.263Y43.506
G01 X19.32Y43.483
G01 X19.367Y43.461
G01 X19.407Y43.439
G01 X19.442Y43.417
G01 X19.474Y43.394
G01 X19.503Y43.372
G01 X19.529Y43.35
G01 X19.553Y43.328
G01 X19.576Y43.306
G01 X19.596Y43.283
G01 X19.615Y43.261
G01 X19.633Y43.239
G01 X19.65Y43.217
G01 X19.665Y43.194
G01 X19.68Y43.172
G01 X19.693Y43.15
G01 X21.307Y43.15
G01 X21.32Y43.172
G01 X21.335Y43.194
G01 X21.35Y43.217
G01 X21.367Y43.239
G01 X21.385Y43.261
G01 X21.404Y43.283
G01 X21.424Y43.306
G01 X21.447Y43.328
G01 X21.471Y43.35
G01 X21.497Y43.372
G01 X21.526Y43.394
G01 X21.558Y43.417
G01 X21.593Y43.439
G01 X21.633Y43.461
G01 X21.68Y43.483
G01 X21.737Y43.506
G01 X21.813Y43.528
G01 X22.0Y43.55
G01 X22.187Y43.528
G01 X22.263Y43.506
G01 X22.32Y43.483
G01 X22.367Y43.461
G01 X22.407Y43.439
G01 X22.442Y43.417
G01 X22.474Y43.394
G01 X22.503Y43.372
G01 X22.529Y43.35
G01 X22.553Y43.328
G01 X22.576Y43.306
G01 X22.596Y43.283
G01 X22.615Y43.261
G01 X22.633Y43.239
G01 X22.65Y43.217
G01 X22.665Y43.194
G01 X22.68Y43.172
G01 X22.693Y43.15
G01 X24.307Y43.15
G01 X24.31Y43.155
G01 X24.313Y43.16
G01 X24.317Y43.166
G01 X24.32Y43.171
G01 X24.323Y43.177
G01 X24.327Y43.183
G01 X24.331Y43.189
G01 X24.335Y43.195
G01 X24.34Y43.202
G01 X24.345Y43.209
G01 X24.35Y43.216
G01 X24.356Y43.224
G01 X24.362Y43.233
G01 X24.369Y43.242
G01 X24.377Y43.252
G01 X24.387Y43.264
G01 X24.4Y43.28
G01 X24.434Y43.316
G01 X24.47Y43.35
G01 X24.486Y43.363
G01 X24.498Y43.373
G01 X24.508Y43.381
G01 X24.517Y43.388
G01 X24.526Y43.394
G01 X24.534Y43.4
G01 X24.541Y43.405
G01 X24.548Y43.41
G01 X24.555Y43.415
G01 X24.561Y43.419
G01 X24.567Y43.423
G01 X24.573Y43.426
G01 X24.579Y43.43
G01 X24.584Y43.433
G01 X24.59Y43.437
G01 X24.595Y43.44
G01 X24.6Y43.443
G01 X24.6Y44.584
G01 X24.6Y44.584
G01 X24.399Y44.785
G01 X24.266Y44.837
G01 X24.162Y44.897
G01 X24.077Y44.964
G01 X24.006Y45.034
G01 X23.947Y45.107
G01 X23.899Y45.184
G01 X23.86Y45.263
G01 X23.829Y45.345
G01 X23.807Y45.429
G01 X23.794Y45.516
G01 X23.79Y45.605
G01 X23.796Y45.698
G01 X23.812Y45.793
G01 X23.842Y45.892
G01 X23.888Y45.996
G01 X23.957Y46.107
G01 X24.068Y46.229
G01 X24.405Y46.417
G01 X24.789Y46.437
G01 X24.948Y46.392
G01 X25.066Y46.336
G01 X25.16Y46.272
G01 X25.238Y46.204
G01 X25.303Y46.132
G01 X25.357Y46.057
G01 X25.401Y45.979
G01 X25.436Y45.899
G01 X25.462Y45.816
G01 X25.48Y45.73
G01 X25.489Y45.642
G01 X25.489Y45.552
G01 X25.478Y45.458
G01 X25.456Y45.361
G01 X25.419Y45.26
G01 X25.363Y45.153
G01 X25.278Y45.038
G01 X25.4Y44.916
G01 X25.4Y44.916
G01 X25.4Y43.443
G01 X25.449Y43.412
G01 X25.494Y43.379
G01 X25.537Y43.343
G01 X25.577Y43.304
G01 X25.615Y43.262
G01 X25.649Y43.217
G01 X25.681Y43.17
G01 X25.71Y43.119
G01 X25.735Y43.066
G01 X25.757Y43.009
G01 X25.775Y42.948
G01 X25.789Y42.882
G01 X25.798Y42.812
G01 X25.8Y42.735
G01 X25.794Y42.65
G01 X25.775Y42.552
G01 X25.734Y42.432
G01 X25.566Y42.184
G01 X25.318Y42.016
G01 X25.198Y41.975
G01 X25.1Y41.956
G01 X25.015Y41.95
G01 X24.938Y41.952
G01 X24.868Y41.961
G01 X24.802Y41.975
G01 X24.741Y41.993
G01 X24.684Y42.015
G01 X24.631Y42.04
G01 X24.58Y42.069
G01 X24.533Y42.101
G01 X24.488Y42.135
G01 X24.446Y42.173
G01 X24.407Y42.213
G01 X24.371Y42.256
G01 X24.338Y42.301
G01 X24.307Y42.35
G01 X22.693Y42.35
G01 X22.68Y42.328
G01 X22.665Y42.306
G01 X22.65Y42.283
G01 X22.633Y42.261
G01 X22.615Y42.239
G01 X22.596Y42.217
G01 X22.576Y42.194
G01 X22.553Y42.172
G01 X22.529Y42.15
G01 X22.503Y42.128
G01 X22.474Y42.106
G01 X22.442Y42.083
G01 X22.407Y42.061
G01 X22.367Y42.039
G01 X22.32Y42.017
G01 X22.263Y41.994
G01 X22.187Y41.972
G01 X22.0Y41.95
G01 X21.813Y41.972
G01 X21.737Y41.994
G01 X21.68Y42.017
G01 X21.633Y42.039
G01 X21.593Y42.061
G01 X21.558Y42.083
G01 X21.526Y42.106
G01 X21.497Y42.128
G01 X21.471Y42.15
G01 X21.447Y42.172
G01 X21.424Y42.194
G01 X21.404Y42.217
G01 X21.385Y42.239
G01 X21.367Y42.261
G01 X21.35Y42.283
G01 X21.335Y42.306
G01 X21.32Y42.328
G01 X21.307Y42.35
G01 X19.693Y42.35
G01 X19.68Y42.328
G01 X19.665Y42.306
G01 X19.65Y42.283
G01 X19.633Y42.261
G01 X19.615Y42.239
G01 X19.596Y42.217
G01 X19.576Y42.194
G01 X19.553Y42.172
G01 X19.529Y42.15
G01 X19.503Y42.128
G01 X19.474Y42.106
G01 X19.442Y42.083
G01 X19.407Y42.061
G01 X19.367Y42.039
G01 X19.32Y42.017
G01 X19.263Y41.994
G01 X19.187Y41.972
G01 X19.0Y41.95
G01 X18.813Y41.972
G01 X18.737Y41.994
G01 X18.68Y42.017
G01 X18.633Y42.039
G01 X18.593Y42.061
G01 X18.558Y42.083
G01 X18.526Y42.106
G01 X18.497Y42.128
G01 X18.471Y42.15
G01 X18.447Y42.172
G01 X18.424Y42.194
G01 X18.404Y42.217
G01 X18.385Y42.239
G01 X18.367Y42.261
G01 X18.35Y42.283
G01 X18.335Y42.306
G01 X18.32Y42.328
G01 X18.307Y42.35
G01 X16.693Y42.35
G01 X16.68Y42.328
G01 X16.665Y42.306
G01 X16.65Y42.283
G01 X16.633Y42.261
G01 X16.615Y42.239
G01 X16.596Y42.217
G01 X16.576Y42.194
G01 X16.553Y42.172
G01 X16.529Y42.15
G01 X16.503Y42.128
G01 X16.474Y42.106
G01 X16.442Y42.083
G01 X16.407Y42.061
G01 X16.367Y42.039
G01 X16.32Y42.017
G01 X16.263Y41.994
G01 X16.187Y41.972
G01 X16.0Y41.95
G01 X15.813Y41.972
G01 X15.737Y41.994
G01 X15.68Y42.017
G01 X15.633Y42.039
G01 X15.593Y42.061
G01 X15.558Y42.083
G01 X15.526Y42.106
G01 X15.497Y42.128
G01 X15.471Y42.15
G01 X15.447Y42.172
G01 X15.424Y42.194
G01 X15.404Y42.217
G01 X15.385Y42.239
G01 X15.367Y42.261
G01 X15.35Y42.283
G01 X15.335Y42.306
G01 X15.32Y42.328
G01 X15.307Y42.35
G01 X13.693Y42.35
G01 X13.68Y42.328
G01 X13.665Y42.306
G01 X13.65Y42.283
G01 X13.633Y42.261
G01 X13.615Y42.239
G01 X13.596Y42.217
G01 X13.576Y42.194
G01 X13.553Y42.172
G01 X13.529Y42.15
G01 X13.503Y42.128
G01 X13.474Y42.106
G01 X13.442Y42.083
G01 X13.407Y42.061
G01 X13.367Y42.039
G01 X13.32Y42.017
G01 X13.263Y41.994
G01 X13.187Y41.972
G01 X13.0Y41.95
G01 X12.813Y41.972
G01 X12.737Y41.994
G01 X12.68Y42.017
G01 X12.633Y42.039
G01 X12.593Y42.061
G01 X12.558Y42.083
G01 X12.526Y42.106
G01 X12.497Y42.128
G01 X12.471Y42.15
G01 X12.447Y42.172
G01 X12.424Y42.194
G01 X12.404Y42.217
G01 X12.385Y42.239
G01 X12.367Y42.261
G01 X12.35Y42.283
G01 X12.335Y42.306
G01 X12.32Y42.328
G01 X12.307Y42.35
G01 X10.693Y42.35
G01 X10.61Y42.232
G01 X10.527Y42.148
G01 X10.444Y42.085
G01 X10.361Y42.036
G01 X10.278Y42.0
G01 X10.195Y41.974
G01 X10.112Y41.958
G01 X10.029Y41.951
G01 X9.946Y41.952
G01 X9.864Y41.962
G01 X9.781Y41.981
G01 X9.698Y42.009
G01 X9.615Y42.049
G01 X9.532Y42.101
G01 X9.449Y42.17
G01 X9.366Y42.262
G01 X9.283Y42.395
G01 X9.2Y42.75
G01 X9.283Y43.105
G01 X9.366Y43.238
G01 X9.449Y43.33
G01 X9.532Y43.399
G01 X9.615Y43.451
G01 X9.698Y43.491
G01 X9.781Y43.519
G01 X9.864Y43.538
G01 X9.946Y43.548
G01 X10.029Y43.549
G01 X10.112Y43.542
G01 X10.195Y43.526
G01 X10.278Y43.5
G01 X10.361Y43.464
G01 X10.444Y43.415
G01 X10.527Y43.352
G01 X10.61Y43.268
G01 X10.693Y43.15
G01 X12.307Y43.15
G01 X12.32Y43.172
G01 X12.335Y43.194
G01 X12.35Y43.217
G01 X12.367Y43.239
G01 X12.385Y43.261
G01 X12.404Y43.283
G01 X12.424Y43.306
G01 X12.447Y43.328
G01 X12.471Y43.35
G01 X12.497Y43.372
G01 X12.526Y43.394
G01 X12.558Y43.417
G01 X12.593Y43.439
G01 X12.633Y43.461
G01 X12.68Y43.483
G01 X12.737Y43.506
G01 X12.813Y43.528
G01 X13.0Y43.55
G01 X13.187Y43.528
G01 X13.263Y43.506
G01 X13.32Y43.483
G01 X13.367Y43.461
G01 X13.407Y43.439
G01 X13.442Y43.417
G01 X13.474Y43.394
G01 X13.503Y43.372
G01 X13.529Y43.35
G01 X13.553Y43.328
G01 X13.576Y43.306
G01 X13.596Y43.283
G01 X13.615Y43.261
G01 X13.633Y43.239
G01 X13.65Y43.217
G01 X13.665Y43.194
G01 X13.68Y43.172
G01 X13.693Y43.15
G01 X15.307Y43.15
G01 X15.307Y43.15
G01 X15.32Y43.172
G01 X15.335Y43.194
G01 X15.35Y43.217
G01 X15.367Y43.239
G01 X15.385Y43.261
G01 X15.404Y43.283
G01 X15.424Y43.306
G01 X15.447Y43.328
G01 X15.471Y43.35
G01 X15.497Y43.372
G01 X15.526Y43.394
G01 X15.558Y43.417
G01 X15.593Y43.439
G01 X15.633Y43.461
G01 X15.68Y43.483
G01 X15.737Y43.506
G01 X15.813Y43.528
G01 X16.0Y43.55
G01 X16.187Y43.528
G01 X16.263Y43.506
G01 X16.32Y43.483
G01 X16.367Y43.461
G01 X16.407Y43.439
G01 X16.442Y43.417
G01 X16.474Y43.394
G01 X16.503Y43.372
G01 X16.529Y43.35
G01 X16.553Y43.328
G01 X16.576Y43.306
G01 X16.596Y43.283
G01 X16.615Y43.261
G01 X16.633Y43.239
G01 X16.65Y43.217
G01 X16.665Y43.194
G01 X16.68Y43.172
G01 X16.693Y43.15
M5
G01 X11.676Y24.685
M3
G01 X11.676Y23.599
G01 X4.335Y16.258
G01 X4.335Y13.5
G01 X4.469Y13.411
G01 X4.564Y13.322
G01 X4.634Y13.233
G01 X4.688Y13.144
G01 X4.728Y13.056
G01 X4.757Y12.967
G01 X4.775Y12.878
G01 X4.784Y12.789
G01 X4.784Y12.7
G01 X4.774Y12.611
G01 X4.754Y12.522
G01 X4.724Y12.433
G01 X4.682Y12.344
G01 X4.626Y12.256
G01 X4.553Y12.167
G01 X4.455Y12.078
G01 X4.313Y11.989
G01 X3.935Y11.9
G01 X3.557Y11.989
G01 X3.415Y12.078
G01 X3.317Y12.167
G01 X3.244Y12.256
G01 X3.188Y12.344
G01 X3.146Y12.433
G01 X3.116Y12.522
G01 X3.096Y12.611
G01 X3.086Y12.7
G01 X3.086Y12.789
G01 X3.095Y12.878
G01 X3.113Y12.967
G01 X3.142Y13.056
G01 X3.182Y13.144
G01 X3.236Y13.233
G01 X3.306Y13.322
G01 X3.401Y13.411
G01 X3.535Y13.5
G01 X3.535Y16.588
G01 X3.535Y16.588
G01 X10.876Y23.929
G01 X10.876Y24.685
G01 X10.758Y24.768
G01 X10.674Y24.851
G01 X10.611Y24.934
G01 X10.562Y25.017
G01 X10.526Y25.1
G01 X10.5Y25.183
G01 X10.484Y25.266
G01 X10.477Y25.349
G01 X10.478Y25.432
G01 X10.488Y25.514
G01 X10.507Y25.597
G01 X10.535Y25.68
G01 X10.575Y25.763
G01 X10.627Y25.846
G01 X10.696Y25.929
G01 X10.788Y26.012
G01 X10.921Y26.095
G01 X11.276Y26.178
G01 X11.631Y26.095
G01 X11.764Y26.012
G01 X11.856Y25.929
G01 X11.925Y25.846
G01 X11.977Y25.763
G01 X12.017Y25.68
G01 X12.045Y25.597
G01 X12.064Y25.514
G01 X12.074Y25.432
G01 X12.075Y25.349
G01 X12.068Y25.266
G01 X12.052Y25.183
G01 X12.026Y25.1
G01 X11.99Y25.017
G01 X11.941Y24.934
G01 X11.878Y24.851
G01 X11.794Y24.768
G01 X11.676Y24.685
M5
G01 X9.669Y13.5
M3
G01 X9.669Y17.017
G01 X16.464Y23.812
G01 X16.464Y24.685
G01 X16.346Y24.768
G01 X16.262Y24.851
G01 X16.199Y24.934
G01 X16.15Y25.017
G01 X16.114Y25.1
G01 X16.088Y25.183
G01 X16.072Y25.266
G01 X16.065Y25.349
G01 X16.066Y25.432
G01 X16.076Y25.514
G01 X16.095Y25.597
G01 X16.123Y25.68
G01 X16.163Y25.763
G01 X16.215Y25.846
G01 X16.284Y25.929
G01 X16.376Y26.012
G01 X16.509Y26.095
G01 X16.864Y26.178
G01 X17.219Y26.095
G01 X17.352Y26.012
G01 X17.444Y25.929
G01 X17.513Y25.846
G01 X17.565Y25.763
G01 X17.605Y25.68
G01 X17.633Y25.597
G01 X17.652Y25.514
G01 X17.662Y25.432
G01 X17.663Y25.349
G01 X17.656Y25.266
G01 X17.64Y25.183
G01 X17.614Y25.1
G01 X17.578Y25.017
G01 X17.529Y24.934
G01 X17.466Y24.851
G01 X17.382Y24.768
G01 X17.264Y24.685
G01 X17.264Y23.482
G01 X17.264Y23.482
G01 X10.469Y16.687
G01 X10.469Y13.5
G01 X10.603Y13.411
G01 X10.698Y13.322
G01 X10.768Y13.233
G01 X10.822Y13.144
G01 X10.862Y13.056
G01 X10.891Y12.967
G01 X10.909Y12.878
G01 X10.918Y12.789
G01 X10.918Y12.7
G01 X10.908Y12.611
G01 X10.888Y12.522
G01 X10.858Y12.433
G01 X10.816Y12.344
G01 X10.76Y12.256
G01 X10.687Y12.167
G01 X10.589Y12.078
G01 X10.447Y11.989
G01 X10.069Y11.9
G01 X9.691Y11.989
G01 X9.549Y12.078
G01 X9.451Y12.167
G01 X9.378Y12.256
G01 X9.322Y12.344
G01 X9.28Y12.433
G01 X9.25Y12.522
G01 X9.23Y12.611
G01 X9.22Y12.7
G01 X9.22Y12.789
G01 X9.229Y12.878
G01 X9.247Y12.967
G01 X9.276Y13.056
G01 X9.316Y13.144
G01 X9.37Y13.233
G01 X9.44Y13.322
G01 X9.535Y13.411
G01 X9.669Y13.5
M5
G01 X14.046Y23.902
M3
G01 X14.046Y24.578
G01 X13.016Y24.578
G01 X13.016Y26.178
G01 X14.616Y26.178
G01 X14.616Y25.144
G01 X14.846Y24.914
G01 X14.846Y24.914
G01 X14.846Y23.902
G01 X14.964Y23.819
G01 X15.048Y23.736
G01 X15.111Y23.653
G01 X15.16Y23.57
G01 X15.196Y23.487
G01 X15.222Y23.404
G01 X15.238Y23.321
G01 X15.245Y23.238
G01 X15.244Y23.155
G01 X15.234Y23.073
G01 X15.215Y22.99
G01 X15.187Y22.907
G01 X15.147Y22.824
G01 X15.095Y22.741
G01 X15.026Y22.658
G01 X14.934Y22.575
G01 X14.801Y22.492
G01 X14.446Y22.409
G01 X14.091Y22.492
G01 X13.958Y22.575
G01 X13.866Y22.658
G01 X13.797Y22.741
G01 X13.745Y22.824
G01 X13.705Y22.907
G01 X13.677Y22.99
G01 X13.658Y23.073
G01 X13.648Y23.155
G01 X13.647Y23.238
G01 X13.654Y23.321
G01 X13.67Y23.404
G01 X13.696Y23.487
G01 X13.732Y23.57
G01 X13.781Y23.653
G01 X13.844Y23.736
G01 X13.928Y23.819
G01 X14.046Y23.902
M5
G01 X18.999Y23.902
M3
G01 X18.999Y24.578
G01 X18.604Y24.578
G01 X18.604Y26.178
G01 X20.204Y26.178
G01 X20.204Y24.578
G01 X19.799Y24.578
G01 X19.799Y23.902
G01 X19.917Y23.819
G01 X20.001Y23.736
G01 X20.064Y23.653
G01 X20.113Y23.57
G01 X20.149Y23.487
G01 X20.175Y23.404
G01 X20.191Y23.321
G01 X20.198Y23.238
G01 X20.197Y23.155
G01 X20.187Y23.073
G01 X20.168Y22.99
G01 X20.14Y22.907
G01 X20.1Y22.824
G01 X20.048Y22.741
G01 X19.979Y22.658
G01 X19.887Y22.575
G01 X19.754Y22.492
G01 X19.399Y22.409
G01 X19.044Y22.492
G01 X18.911Y22.575
G01 X18.819Y22.658
G01 X18.75Y22.741
G01 X18.698Y22.824
G01 X18.658Y22.907
G01 X18.63Y22.99
G01 X18.611Y23.073
G01 X18.601Y23.155
G01 X18.6Y23.238
G01 X18.607Y23.321
G01 X18.623Y23.404
G01 X18.649Y23.487
G01 X18.685Y23.57
G01 X18.734Y23.653
G01 X18.797Y23.736
G01 X18.881Y23.819
G01 X18.999Y23.902
M5
G01 X18.706Y15.189
M3
G01 X15.139Y15.189
G01 X15.056Y15.071
G01 X14.973Y14.987
G01 X14.89Y14.924
G01 X14.807Y14.875
G01 X14.724Y14.839
G01 X14.641Y14.813
G01 X14.558Y14.797
G01 X14.475Y14.79
G01 X14.392Y14.791
G01 X14.31Y14.801
G01 X14.227Y14.82
G01 X14.144Y14.848
G01 X14.061Y14.888
G01 X13.978Y14.94
G01 X13.895Y15.009
G01 X13.812Y15.101
G01 X13.729Y15.234
G01 X13.646Y15.589
G01 X13.729Y15.944
G01 X13.812Y16.077
G01 X13.895Y16.169
G01 X13.978Y16.238
G01 X14.061Y16.29
G01 X14.144Y16.33
G01 X14.227Y16.358
G01 X14.31Y16.377
G01 X14.392Y16.387
G01 X14.475Y16.388
G01 X14.558Y16.381
G01 X14.641Y16.365
G01 X14.724Y16.339
G01 X14.807Y16.303
G01 X14.89Y16.254
G01 X14.973Y16.191
G01 X15.056Y16.107
G01 X15.139Y15.989
G01 X18.706Y15.989
G01 X18.719Y16.011
G01 X18.734Y16.033
G01 X18.749Y16.056
G01 X18.766Y16.078
G01 X18.784Y16.1
G01 X18.803Y16.122
G01 X18.823Y16.145
G01 X18.846Y16.167
G01 X18.87Y16.189
G01 X18.896Y16.211
G01 X18.925Y16.233
G01 X18.957Y16.256
G01 X18.992Y16.278
G01 X19.032Y16.3
G01 X19.079Y16.322
G01 X19.136Y16.345
G01 X19.212Y16.367
G01 X19.399Y16.389
G01 X19.586Y16.367
G01 X19.662Y16.345
G01 X19.719Y16.322
G01 X19.766Y16.3
G01 X19.806Y16.278
G01 X19.841Y16.256
G01 X19.873Y16.233
G01 X19.902Y16.211
G01 X19.928Y16.189
G01 X19.952Y16.167
G01 X19.975Y16.145
G01 X19.995Y16.122
G01 X20.014Y16.1
G01 X20.032Y16.078
G01 X20.049Y16.056
G01 X20.064Y16.033
G01 X20.079Y16.011
G01 X20.092Y15.989
G01 X24.294Y15.989
G01 X24.325Y16.038
G01 X24.358Y16.083
G01 X24.394Y16.126
G01 X24.433Y16.166
G01 X24.475Y16.204
G01 X24.52Y16.238
G01 X24.567Y16.27
G01 X24.618Y16.299
G01 X24.671Y16.324
G01 X24.728Y16.346
G01 X24.789Y16.364
G01 X24.855Y16.378
G01 X24.925Y16.387
G01 X25.002Y16.389
G01 X25.087Y16.383
G01 X25.185Y16.364
G01 X25.305Y16.323
G01 X25.553Y16.155
G01 X25.721Y15.907
G01 X25.762Y15.787
G01 X25.781Y15.689
G01 X25.787Y15.604
G01 X25.785Y15.527
G01 X25.776Y15.457
G01 X25.762Y15.391
G01 X25.744Y15.33
G01 X25.722Y15.273
G01 X25.697Y15.22
G01 X25.668Y15.169
G01 X25.636Y15.122
G01 X25.602Y15.077
G01 X25.564Y15.035
G01 X25.524Y14.996
G01 X25.481Y14.96
G01 X25.436Y14.927
G01 X25.387Y14.896
G01 X25.387Y13.6
G01 X25.613Y13.6
G01 X25.613Y11.9
G01 X23.913Y11.9
G01 X23.913Y13.6
G01 X24.587Y13.6
G01 X24.587Y14.896
G01 X24.582Y14.899
G01 X24.577Y14.902
G01 X24.571Y14.906
G01 X24.566Y14.909
G01 X24.56Y14.912
G01 X24.554Y14.916
G01 X24.548Y14.92
G01 X24.542Y14.924
G01 X24.535Y14.929
G01 X24.528Y14.934
G01 X24.521Y14.939
G01 X24.513Y14.945
G01 X24.504Y14.951
G01 X24.495Y14.958
G01 X24.485Y14.966
G01 X24.473Y14.976
G01 X24.457Y14.989
G01 X24.421Y15.023
G01 X24.387Y15.059
G01 X24.374Y15.075
G01 X24.364Y15.087
G01 X24.356Y15.097
G01 X24.349Y15.106
G01 X24.343Y15.115
G01 X24.337Y15.123
G01 X24.332Y15.13
G01 X24.327Y15.137
G01 X24.322Y15.144
G01 X24.318Y15.15
G01 X24.314Y15.156
G01 X24.311Y15.162
G01 X24.307Y15.168
G01 X24.304Y15.173
G01 X24.3Y15.179
G01 X24.297Y15.184
G01 X24.294Y15.189
G01 X20.092Y15.189
G01 X20.092Y15.189
G01 X20.079Y15.167
G01 X20.064Y15.145
G01 X20.049Y15.122
G01 X20.032Y15.1
G01 X20.014Y15.078
G01 X19.995Y15.056
G01 X19.975Y15.033
G01 X19.952Y15.011
G01 X19.928Y14.989
G01 X19.902Y14.967
G01 X19.873Y14.945
G01 X19.841Y14.922
G01 X19.806Y14.9
G01 X19.766Y14.878
G01 X19.719Y14.856
G01 X19.662Y14.833
G01 X19.586Y14.811
G01 X19.399Y14.789
G01 X19.212Y14.811
G01 X19.136Y14.833
G01 X19.079Y14.856
G01 X19.032Y14.878
G01 X18.992Y14.9
G01 X18.957Y14.922
G01 X18.925Y14.945
G01 X18.896Y14.967
G01 X18.87Y14.989
G01 X18.846Y15.011
G01 X18.823Y15.033
G01 X18.803Y15.056
G01 X18.784Y15.078
G01 X18.766Y15.1
G01 X18.749Y15.122
G01 X18.734Y15.145
G01 X18.719Y15.167
G01 X18.706Y15.189
M5
G01 X25.392Y24.578
M3
G01 X25.392Y23.899
G01 X25.509Y23.815
G01 X25.593Y23.732
G01 X25.656Y23.648
G01 X25.703Y23.565
G01 X25.739Y23.482
G01 X25.764Y23.399
G01 X25.78Y23.316
G01 X25.787Y23.233
G01 X25.785Y23.15
G01 X25.774Y23.067
G01 X25.755Y22.984
G01 X25.725Y22.901
G01 X25.685Y22.819
G01 X25.632Y22.736
G01 X25.563Y22.654
G01 X25.47Y22.571
G01 X25.336Y22.489
G01 X24.981Y22.409
G01 X24.627Y22.494
G01 X24.495Y22.578
G01 X24.403Y22.662
G01 X24.335Y22.745
G01 X24.283Y22.829
G01 X24.244Y22.912
G01 X24.216Y22.995
G01 X24.198Y23.078
G01 X24.188Y23.161
G01 X24.188Y23.244
G01 X24.196Y23.327
G01 X24.213Y23.41
G01 X24.239Y23.493
G01 X24.276Y23.575
G01 X24.325Y23.658
G01 X24.389Y23.74
G01 X24.474Y23.823
G01 X24.592Y23.905
G01 X24.592Y24.578
G01 X24.192Y24.578
G01 X24.192Y26.178
G01 X25.792Y26.178
G01 X25.792Y24.578
G01 X25.392Y24.578
M5
G01 X19.517Y13.15
M3
G01 X21.473Y13.15
G01 X21.562Y13.284
G01 X21.651Y13.379
G01 X21.74Y13.449
G01 X21.829Y13.503
G01 X21.917Y13.543
G01 X22.006Y13.572
G01 X22.095Y13.59
G01 X22.184Y13.599
G01 X22.273Y13.599
G01 X22.362Y13.589
G01 X22.451Y13.569
G01 X22.54Y13.539
G01 X22.629Y13.497
G01 X22.717Y13.441
G01 X22.806Y13.368
G01 X22.895Y13.27
G01 X22.984Y13.128
G01 X23.073Y12.75
G01 X22.984Y12.372
G01 X22.895Y12.23
G01 X22.806Y12.132
G01 X22.717Y12.059
G01 X22.629Y12.003
G01 X22.54Y11.961
G01 X22.451Y11.931
G01 X22.362Y11.911
G01 X22.273Y11.901
G01 X22.184Y11.901
G01 X22.095Y11.91
G01 X22.006Y11.928
G01 X21.917Y11.957
G01 X21.829Y11.997
G01 X21.74Y12.051
G01 X21.651Y12.121
G01 X21.562Y12.216
G01 X21.473Y12.35
G01 X19.517Y12.35
G01 X19.517Y11.9
G01 X18.382Y11.9
G01 X17.382Y10.9
G01 X17.382Y10.9
G01 X13.893Y10.9
G01 X12.893Y11.9
G01 X12.323Y11.9
G01 X11.324Y10.9
G01 X11.324Y10.9
G01 X7.759Y10.9
G01 X6.759Y11.9
G01 X5.625Y11.9
G01 X5.625Y13.6
G01 X7.325Y13.6
G01 X7.325Y12.466
G01 X8.091Y11.7
G01 X8.091Y11.7
G01 X10.994Y11.7
G01 X11.759Y12.465
G01 X11.759Y13.6
G01 X13.459Y13.6
G01 X13.459Y12.466
G01 X14.225Y11.7
G01 X14.225Y11.7
G01 X17.052Y11.7
G01 X17.817Y12.465
G01 X17.817Y13.6
G01 X19.517Y13.6
G01 X19.517Y13.15
M5
G01 X2.0Y2.0
M3
G01 X26.638Y2.0
G01 X26.638Y56.3
G01 X2.0Y56.3
G01 X2.0Y2.0
M5
; Pass number: 1
G01 X4.693Y50.4
M3
G01 X6.307Y50.4
G01 X6.32Y50.422
G01 X6.335Y50.444
G01 X6.35Y50.467
G01 X6.367Y50.489
G01 X6.385Y50.511
G01 X6.404Y50.533
G01 X6.424Y50.556
G01 X6.447Y50.578
G01 X6.471Y50.6
G01 X6.497Y50.622
G01 X6.526Y50.644
G01 X6.558Y50.667
G01 X6.593Y50.689
G01 X6.633Y50.711
G01 X6.68Y50.733
G01 X6.737Y50.756
G01 X6.813Y50.778
G01 X7.0Y50.8
G01 X7.187Y50.778
G01 X7.263Y50.756
G01 X7.32Y50.733
G01 X7.367Y50.711
G01 X7.407Y50.689
G01 X7.442Y50.667
G01 X7.474Y50.644
G01 X7.503Y50.622
G01 X7.529Y50.6
G01 X7.553Y50.578
G01 X7.576Y50.556
G01 X7.596Y50.533
G01 X7.615Y50.511
G01 X7.633Y50.489
G01 X7.65Y50.467
G01 X7.665Y50.444
G01 X7.68Y50.422
G01 X7.693Y50.4
G01 X9.307Y50.4
G01 X9.32Y50.422
G01 X9.335Y50.444
G01 X9.35Y50.467
G01 X9.367Y50.489
G01 X9.385Y50.511
G01 X9.404Y50.533
G01 X9.424Y50.556
G01 X9.447Y50.578
G01 X9.471Y50.6
G01 X9.497Y50.622
G01 X9.526Y50.644
G01 X9.558Y50.667
G01 X9.593Y50.689
G01 X9.633Y50.711
G01 X9.68Y50.733
G01 X9.737Y50.756
G01 X9.813Y50.778
G01 X10.0Y50.8
G01 X10.187Y50.778
G01 X10.263Y50.756
G01 X10.32Y50.733
G01 X10.367Y50.711
G01 X10.407Y50.689
G01 X10.442Y50.667
G01 X10.474Y50.644
G01 X10.503Y50.622
G01 X10.529Y50.6
G01 X10.553Y50.578
G01 X10.576Y50.556
G01 X10.596Y50.533
G01 X10.615Y50.511
G01 X10.633Y50.489
G01 X10.65Y50.467
G01 X10.665Y50.444
G01 X10.68Y50.422
G01 X10.693Y50.4
G01 X17.866Y50.4
G01 X17.866Y50.4
G01 X21.816Y46.45
G01 X22.95Y46.45
G01 X22.95Y44.75
G01 X21.25Y44.75
G01 X21.25Y45.884
G01 X17.534Y49.6
G01 X17.534Y49.6
G01 X10.693Y49.6
G01 X10.68Y49.578
G01 X10.665Y49.556
G01 X10.65Y49.533
G01 X10.633Y49.511
G01 X10.615Y49.489
G01 X10.596Y49.467
G01 X10.576Y49.444
G01 X10.553Y49.422
G01 X10.529Y49.4
G01 X10.503Y49.378
G01 X10.474Y49.356
G01 X10.442Y49.333
G01 X10.407Y49.311
G01 X10.367Y49.289
G01 X10.32Y49.267
G01 X10.263Y49.244
G01 X10.187Y49.222
G01 X10.0Y49.2
G01 X9.813Y49.222
G01 X9.737Y49.244
G01 X9.68Y49.267
G01 X9.633Y49.289
G01 X9.593Y49.311
G01 X9.558Y49.333
G01 X9.526Y49.356
G01 X9.497Y49.378
G01 X9.471Y49.4
G01 X9.447Y49.422
G01 X9.424Y49.444
G01 X9.404Y49.467
G01 X9.385Y49.489
G01 X9.367Y49.511
G01 X9.35Y49.533
G01 X9.335Y49.556
G01 X9.32Y49.578
G01 X9.307Y49.6
G01 X7.693Y49.6
G01 X7.68Y49.578
G01 X7.665Y49.556
G01 X7.65Y49.533
G01 X7.633Y49.511
G01 X7.615Y49.489
G01 X7.596Y49.467
G01 X7.576Y49.444
G01 X7.553Y49.422
G01 X7.529Y49.4
G01 X7.503Y49.378
G01 X7.474Y49.356
G01 X7.442Y49.333
G01 X7.407Y49.311
G01 X7.367Y49.289
G01 X7.32Y49.267
G01 X7.263Y49.244
G01 X7.187Y49.222
G01 X7.0Y49.2
G01 X6.813Y49.222
G01 X6.737Y49.244
G01 X6.68Y49.267
G01 X6.633Y49.289
G01 X6.593Y49.311
G01 X6.558Y49.333
G01 X6.526Y49.356
G01 X6.497Y49.378
G01 X6.471Y49.4
G01 X6.447Y49.422
G01 X6.424Y49.444
G01 X6.404Y49.467
G01 X6.385Y49.489
G01 X6.367Y49.511
G01 X6.35Y49.533
G01 X6.335Y49.556
G01 X6.32Y49.578
G01 X6.307Y49.6
G01 X4.693Y49.6
G01 X4.685Y49.587
G01 X4.677Y49.573
G01 X4.668Y49.56
G01 X4.659Y49.546
G01 X4.649Y49.532
G01 X4.638Y49.518
G01 X4.627Y49.503
G01 X4.615Y49.488
G01 X4.602Y49.473
G01 X4.587Y49.457
G01 X4.572Y49.44
G01 X4.555Y49.423
G01 X4.535Y49.405
G01 X4.513Y49.386
G01 X4.488Y49.366
G01 X4.456Y49.343
G01 X4.414Y49.316
G01 X4.306Y49.261
G01 X4.191Y49.223
G01 X4.141Y49.213
G01 X4.103Y49.207
G01 X4.07Y49.203
G01 X4.041Y49.201
G01 X4.015Y49.2
G01 X3.991Y49.2
G01 X3.968Y49.201
G01 X3.947Y49.202
G01 X3.927Y49.203
G01 X3.907Y49.205
G01 X3.889Y49.208
G01 X3.872Y49.21
G01 X3.855Y49.213
G01 X3.838Y49.217
G01 X3.822Y49.22
G01 X3.807Y49.224
G01 X3.792Y49.227
G01 X3.0Y48.435
G01 X3.0Y48.435
G01 X3.0Y40.709
G01 X10.311Y33.398
G01 X10.583Y33.398
G01 X10.604Y33.431
G01 X10.626Y33.464
G01 X10.65Y33.496
G01 X10.676Y33.527
G01 X10.704Y33.557
G01 X10.734Y33.586
G01 X10.767Y33.615
G01 X10.802Y33.642
G01 X10.839Y33.668
G01 X10.88Y33.693
G01 X10.925Y33.717
G01 X10.973Y33.738
G01 X11.027Y33.758
G01 X11.086Y33.775
G01 X11.155Y33.789
G01 X11.236Y33.797
G01 X11.34Y33.795
G01 X11.582Y33.737
G01 X11.794Y33.608
G01 X11.869Y33.535
G01 X11.921Y33.471
G01 X11.96Y33.414
G01 X11.99Y33.359
G01 X12.014Y33.308
G01 X12.033Y33.258
G01 X12.047Y33.21
G01 X12.059Y33.163
G01 X12.067Y33.118
G01 X12.072Y33.074
G01 X12.075Y33.031
G01 X12.076Y32.989
G01 X12.074Y32.948
G01 X12.071Y32.908
G01 X12.065Y32.868
G01 X12.058Y32.829
G01 X12.049Y32.791
G01 X12.842Y31.998
G01 X12.842Y31.998
G01 X17.298Y31.998
G01 X17.071Y32.225
G01 X16.929Y32.201
G01 X16.811Y32.2
G01 X16.707Y32.214
G01 X16.614Y32.238
G01 X16.53Y32.271
G01 X16.453Y32.311
G01 X16.383Y32.359
G01 X16.319Y32.412
G01 X16.262Y32.472
G01 X16.21Y32.537
G01 X16.165Y32.609
G01 X16.126Y32.688
G01 X16.096Y32.775
G01 X16.074Y32.871
G01 X16.064Y32.978
G01 X16.071Y33.102
G01 X16.106Y33.254
G01 X16.298Y33.564
G01 X16.608Y33.756
G01 X16.76Y33.791
G01 X16.884Y33.798
G01 X16.991Y33.788
G01 X17.087Y33.766
G01 X17.174Y33.736
G01 X17.253Y33.697
G01 X17.325Y33.652
G01 X17.39Y33.6
G01 X17.45Y33.543
G01 X17.503Y33.479
G01 X17.551Y33.409
G01 X17.591Y33.332
G01 X17.624Y33.248
G01 X17.648Y33.155
G01 X17.662Y33.051
G01 X17.661Y32.933
G01 X17.637Y32.791
G01 X18.43Y31.998
G01 X18.43Y31.998
G01 X20.887Y31.998
G01 X21.679Y32.791
G01 X21.655Y32.933
G01 X21.654Y33.051
G01 X21.667Y33.155
G01 X21.692Y33.248
G01 X21.725Y33.332
G01 X21.765Y33.409
G01 X21.813Y33.479
G01 X21.866Y33.543
G01 X21.926Y33.6
G01 X21.991Y33.652
G01 X22.063Y33.697
G01 X22.142Y33.736
G01 X22.229Y33.766
G01 X22.325Y33.788
G01 X22.432Y33.798
G01 X22.556Y33.791
G01 X22.708Y33.756
G01 X23.018Y33.564
G01 X23.21Y33.254
G01 X23.245Y33.101
G01 X23.252Y32.978
G01 X23.242Y32.87
G01 X23.22Y32.775
G01 X23.189Y32.688
G01 X23.151Y32.609
G01 X23.106Y32.537
G01 X23.054Y32.471
G01 X22.996Y32.412
G01 X22.933Y32.358
G01 X22.862Y32.311
G01 X22.786Y32.271
G01 X22.701Y32.238
G01 X22.608Y32.213
G01 X22.505Y32.2
G01 X22.387Y32.201
G01 X22.245Y32.225
G01 X21.217Y31.198
G01 X21.217Y31.198
G01 X18.264Y31.198
G01 X12.51Y31.198
G01 X11.483Y32.225
G01 X11.468Y32.221
G01 X11.453Y32.218
G01 X11.437Y32.214
G01 X11.421Y32.211
G01 X11.404Y32.208
G01 X11.386Y32.206
G01 X11.368Y32.203
G01 X11.349Y32.201
G01 X11.328Y32.2
G01 X11.307Y32.199
G01 X11.284Y32.198
G01 X11.26Y32.198
G01 X11.234Y32.199
G01 X11.205Y32.201
G01 X11.172Y32.205
G01 X11.134Y32.211
G01 X11.085Y32.221
G01 X10.97Y32.259
G01 X10.862Y32.314
G01 X10.82Y32.341
G01 X10.788Y32.364
G01 X10.763Y32.385
G01 X10.741Y32.404
G01 X10.721Y32.421
G01 X10.704Y32.439
G01 X10.689Y32.455
G01 X10.674Y32.471
G01 X10.661Y32.486
G01 X10.649Y32.501
G01 X10.638Y32.516
G01 X10.627Y32.53
G01 X10.617Y32.544
G01 X10.608Y32.558
G01 X10.599Y32.571
G01 X10.591Y32.585
G01 X10.583Y32.598
G01 X9.979Y32.598
G01 X9.979Y32.598
G01 X2.2Y40.377
G01 X2.2Y48.765
G01 X3.227Y49.792
G01 X3.218Y49.83
G01 X3.211Y49.869
G01 X3.205Y49.909
G01 X3.202Y49.949
G01 X3.2Y49.99
G01 X3.201Y50.032
G01 X3.204Y50.075
G01 X3.209Y50.12
G01 X3.217Y50.165
G01 X3.228Y50.211
G01 X3.243Y50.259
G01 X3.262Y50.309
G01 X3.286Y50.361
G01 X3.316Y50.415
G01 X3.355Y50.473
G01 X3.406Y50.536
G01 X3.481Y50.609
G01 X3.694Y50.739
G01 X3.935Y50.797
G01 X4.04Y50.799
G01 X4.121Y50.791
G01 X4.19Y50.777
G01 X4.249Y50.76
G01 X4.303Y50.74
G01 X4.351Y50.719
G01 X4.396Y50.695
G01 X4.437Y50.67
G01 X4.474Y50.644
G01 X4.509Y50.617
G01 X4.542Y50.589
G01 X4.572Y50.559
G01 X4.6Y50.529
G01 X4.626Y50.498
G01 X4.65Y50.466
G01 X4.672Y50.433
G01 X4.693Y50.4
M5
G01 X24.348Y34.667
M3
G01 X22.68Y34.709
G01 X22.659Y34.676
G01 X22.636Y34.645
G01 X22.611Y34.614
G01 X22.585Y34.584
G01 X22.556Y34.555
G01 X22.526Y34.527
G01 X22.493Y34.5
G01 X22.458Y34.474
G01 X22.42Y34.449
G01 X22.379Y34.425
G01 X22.334Y34.403
G01 X22.286Y34.383
G01 X22.233Y34.365
G01 X22.173Y34.349
G01 X22.105Y34.337
G01 X22.025Y34.33
G01 X21.921Y34.334
G01 X21.682Y34.396
G01 X21.474Y34.527
G01 X21.401Y34.6
G01 X21.35Y34.663
G01 X21.312Y34.721
G01 X21.283Y34.775
G01 X21.26Y34.827
G01 X21.241Y34.876
G01 X21.227Y34.923
G01 X21.216Y34.969
G01 X21.208Y35.014
G01 X21.203Y35.058
G01 X21.201Y35.1
G01 X21.2Y35.142
G01 X21.202Y35.182
G01 X21.205Y35.222
G01 X21.211Y35.261
G01 X21.218Y35.299
G01 X21.227Y35.337
G01 X16.764Y39.8
G01 X16.764Y39.8
G01 X10.474Y39.8
G01 X8.2Y42.074
G01 X8.2Y43.765
G01 X9.227Y44.792
G01 X9.221Y44.818
G01 X9.215Y44.843
G01 X9.211Y44.87
G01 X9.207Y44.897
G01 X9.203Y44.926
G01 X9.201Y44.955
G01 X9.2Y44.985
G01 X9.2Y45.017
G01 X9.202Y45.05
G01 X9.204Y45.084
G01 X9.209Y45.12
G01 X9.216Y45.158
G01 X9.225Y45.199
G01 X9.238Y45.244
G01 X9.255Y45.292
G01 X9.28Y45.348
G01 X9.318Y45.418
G01 X9.434Y45.566
G01 X9.582Y45.682
G01 X9.652Y45.72
G01 X9.708Y45.745
G01 X9.756Y45.762
G01 X9.801Y45.775
G01 X9.841Y45.784
G01 X9.88Y45.791
G01 X9.916Y45.796
G01 X9.95Y45.798
G01 X9.983Y45.8
G01 X10.015Y45.8
G01 X10.045Y45.799
G01 X10.074Y45.797
G01 X10.103Y45.793
G01 X10.13Y45.789
G01 X10.157Y45.785
G01 X10.182Y45.779
G01 X10.208Y45.773
G01 X10.435Y46.0
G01 X12.55Y46.0
G01 X12.55Y46.45
G01 X14.25Y46.45
G01 X14.25Y44.75
G01 X12.55Y44.75
G01 X12.55Y45.2
G01 X10.775Y45.2
G01 X10.781Y45.175
G01 X10.786Y45.149
G01 X10.791Y45.123
G01 X10.794Y45.095
G01 X10.797Y45.067
G01 X10.799Y45.038
G01 X10.8Y45.008
G01 X10.8Y44.976
G01 X10.798Y44.944
G01 X10.795Y44.91
G01 X10.79Y44.874
G01 X10.783Y44.836
G01 X10.773Y44.795
G01 X10.76Y44.751
G01 X10.743Y44.703
G01 X10.718Y44.647
G01 X10.68Y44.578
G01 X10.563Y44.432
G01 X10.415Y44.316
G01 X10.346Y44.279
G01 X10.29Y44.254
G01 X10.241Y44.237
G01 X10.197Y44.225
G01 X10.157Y44.215
G01 X10.119Y44.209
G01 X10.083Y44.204
G01 X10.048Y44.201
G01 X10.016Y44.2
G01 X9.984Y44.2
G01 X9.954Y44.201
G01 X9.925Y44.204
G01 X9.897Y44.207
G01 X9.87Y44.211
G01 X9.843Y44.216
G01 X9.817Y44.221
G01 X9.792Y44.227
G01 X9.0Y43.435
G01 X9.0Y43.435
G01 X9.0Y42.406
G01 X10.806Y40.6
G01 X17.096Y40.6
G01 X21.793Y35.903
G01 X21.808Y35.907
G01 X21.823Y35.91
G01 X21.839Y35.914
G01 X21.855Y35.917
G01 X21.872Y35.92
G01 X21.89Y35.922
G01 X21.908Y35.925
G01 X21.927Y35.927
G01 X21.948Y35.928
G01 X21.969Y35.929
G01 X21.992Y35.93
G01 X22.016Y35.93
G01 X22.042Y35.929
G01 X22.071Y35.927
G01 X22.104Y35.923
G01 X22.142Y35.917
G01 X22.191Y35.907
G01 X22.306Y35.869
G01 X22.414Y35.814
G01 X22.456Y35.787
G01 X22.488Y35.764
G01 X22.513Y35.743
G01 X22.535Y35.724
G01 X22.555Y35.707
G01 X22.572Y35.689
G01 X22.587Y35.673
G01 X22.602Y35.657
G01 X22.615Y35.642
G01 X22.627Y35.627
G01 X22.638Y35.612
G01 X22.649Y35.598
G01 X22.659Y35.584
G01 X22.668Y35.57
G01 X22.677Y35.557
G01 X22.685Y35.543
G01 X22.693Y35.53
G01 X24.307Y35.53
G01 X24.338Y35.58
G01 X24.372Y35.626
G01 X24.409Y35.669
G01 X24.449Y35.71
G01 X24.492Y35.748
G01 X24.537Y35.782
G01 X24.585Y35.814
G01 X24.637Y35.843
G01 X24.691Y35.868
G01 X24.749Y35.89
G01 X24.811Y35.907
G01 X24.877Y35.92
G01 X24.948Y35.928
G01 X25.026Y35.93
G01 X25.111Y35.922
G01 X25.21Y35.902
G01 X25.33Y35.859
G01 X25.576Y35.685
G01 X25.741Y35.432
G01 X25.779Y35.31
G01 X25.796Y35.211
G01 X25.8Y35.125
G01 X25.796Y35.048
G01 X25.785Y34.977
G01 X25.769Y34.911
G01 X25.749Y34.85
G01 X25.726Y34.793
G01 X25.698Y34.74
G01 X25.668Y34.689
G01 X25.634Y34.642
G01 X25.598Y34.598
G01 X25.559Y34.557
G01 X25.517Y34.519
G01 X25.472Y34.484
G01 X25.424Y34.452
G01 X25.373Y34.423
G01 X25.37Y33.704
G01 X25.495Y33.62
G01 X25.584Y33.536
G01 X25.651Y33.452
G01 X25.701Y33.368
G01 X25.739Y33.284
G01 X25.766Y33.2
G01 X25.783Y33.117
G01 X25.791Y33.033
G01 X25.791Y32.949
G01 X25.781Y32.865
G01 X25.762Y32.782
G01 X25.734Y32.698
G01 X25.694Y32.614
G01 X25.641Y32.531
G01 X25.572Y32.447
G01 X25.48Y32.364
G01 X25.346Y32.28
G01 X24.99Y32.197
G01 X24.635Y32.282
G01 X24.501Y32.366
G01 X24.409Y32.45
G01 X24.34Y32.534
G01 X24.288Y32.618
G01 X24.249Y32.702
G01 X24.221Y32.785
G01 X24.202Y32.869
G01 X24.193Y32.953
G01 X24.193Y33.037
G01 X24.201Y33.12
G01 X24.219Y33.204
G01 X24.246Y33.288
G01 X24.284Y33.371
G01 X24.335Y33.455
G01 X24.402Y33.539
G01 X24.491Y33.622
G01 X24.62Y33.706
G01 X24.622Y34.425
G01 X24.622Y34.425
G01 X24.618Y34.427
G01 X24.613Y34.43
G01 X24.608Y34.433
G01 X24.603Y34.435
G01 X24.598Y34.438
G01 X24.593Y34.442
G01 X24.587Y34.445
G01 X24.581Y34.448
G01 X24.575Y34.452
G01 X24.569Y34.456
G01 X24.562Y34.46
G01 X24.555Y34.465
G01 X24.547Y34.47
G01 X24.539Y34.476
G01 X24.53Y34.483
G01 X24.518Y34.491
G01 X24.504Y34.502
G01 X24.471Y34.53
G01 X24.439Y34.56
G01 X24.426Y34.572
G01 X24.417Y34.582
G01 X24.409Y34.591
G01 X24.402Y34.598
G01 X24.396Y34.605
G01 X24.39Y34.612
G01 X24.385Y34.618
G01 X24.381Y34.624
G01 X24.376Y34.629
G01 X24.372Y34.635
G01 X24.368Y34.64
G01 X24.364Y34.644
G01 X24.361Y34.649
G01 X24.357Y34.654
G01 X24.354Y34.658
G01 X24.351Y34.663
G01 X24.348Y34.667
M5
G01 X15.377Y12.35
M3
G01 X15.139Y12.35
G01 X12.646Y14.843
G01 X12.646Y16.711
G01 X18.144Y22.209
G01 X19.814Y22.209
G01 X22.052Y24.447
G01 X22.052Y24.685
G01 X21.934Y24.768
G01 X21.85Y24.851
G01 X21.787Y24.934
G01 X21.738Y25.017
G01 X21.702Y25.1
G01 X21.676Y25.183
G01 X21.66Y25.266
G01 X21.653Y25.349
G01 X21.654Y25.432
G01 X21.664Y25.514
G01 X21.683Y25.597
G01 X21.711Y25.68
G01 X21.751Y25.763
G01 X21.803Y25.846
G01 X21.872Y25.929
G01 X21.964Y26.012
G01 X22.097Y26.095
G01 X22.452Y26.178
G01 X22.807Y26.095
G01 X22.94Y26.012
G01 X23.032Y25.929
G01 X23.101Y25.846
G01 X23.153Y25.763
G01 X23.193Y25.68
G01 X23.221Y25.597
G01 X23.24Y25.514
G01 X23.25Y25.432
G01 X23.251Y25.349
G01 X23.244Y25.266
G01 X23.228Y25.183
G01 X23.202Y25.1
G01 X23.166Y25.017
G01 X23.117Y24.934
G01 X23.054Y24.851
G01 X22.97Y24.768
G01 X22.852Y24.685
G01 X22.852Y24.117
G01 X22.852Y24.117
G01 X20.144Y21.409
G01 X18.474Y21.409
G01 X13.446Y16.381
G01 X13.446Y15.175
G01 X15.412Y13.209
G01 X15.505Y13.329
G01 X15.596Y13.414
G01 X15.687Y13.477
G01 X15.777Y13.524
G01 X15.866Y13.559
G01 X15.955Y13.583
G01 X16.044Y13.596
G01 X16.132Y13.6
G01 X16.22Y13.595
G01 X16.307Y13.581
G01 X16.394Y13.557
G01 X16.481Y13.523
G01 X16.567Y13.477
G01 X16.653Y13.418
G01 X16.738Y13.341
G01 X16.821Y13.24
G01 X16.904Y13.095
G01 X16.976Y12.716
G01 X16.873Y12.343
G01 X16.78Y12.205
G01 X16.688Y12.111
G01 X16.597Y12.042
G01 X16.507Y11.99
G01 X16.417Y11.951
G01 X16.328Y11.924
G01 X16.239Y11.907
G01 X16.151Y11.9
G01 X16.063Y11.902
G01 X15.976Y11.914
G01 X15.888Y11.934
G01 X15.802Y11.965
G01 X15.715Y12.006
G01 X15.629Y12.061
G01 X15.544Y12.131
G01 X15.46Y12.223
G01 X15.377Y12.35
M5
G01 X16.693Y35.53
M3
G01 X18.307Y35.53
G01 X18.328Y35.563
G01 X18.35Y35.596
G01 X18.374Y35.628
G01 X18.4Y35.659
G01 X18.428Y35.689
G01 X18.458Y35.718
G01 X18.491Y35.747
G01 X18.526Y35.774
G01 X18.563Y35.8
G01 X18.604Y35.825
G01 X18.649Y35.849
G01 X18.697Y35.87
G01 X18.751Y35.89
G01 X18.81Y35.907
G01 X18.879Y35.921
G01 X18.96Y35.929
G01 X19.064Y35.927
G01 X19.306Y35.869
G01 X19.518Y35.74
G01 X19.593Y35.667
G01 X19.645Y35.603
G01 X19.684Y35.546
G01 X19.714Y35.491
G01 X19.738Y35.44
G01 X19.757Y35.39
G01 X19.771Y35.342
G01 X19.783Y35.295
G01 X19.791Y35.25
G01 X19.796Y35.206
G01 X19.799Y35.163
G01 X19.8Y35.121
G01 X19.798Y35.08
G01 X19.795Y35.04
G01 X19.789Y35.0
G01 X19.782Y34.961
G01 X19.773Y34.923
G01 X19.804Y34.892
G01 X19.804Y34.892
G01 X19.804Y33.691
G01 X19.922Y33.608
G01 X20.006Y33.525
G01 X20.069Y33.442
G01 X20.118Y33.359
G01 X20.154Y33.276
G01 X20.18Y33.193
G01 X20.196Y33.11
G01 X20.203Y33.027
G01 X20.202Y32.944
G01 X20.192Y32.862
G01 X20.173Y32.779
G01 X20.145Y32.696
G01 X20.105Y32.613
G01 X20.053Y32.53
G01 X19.984Y32.447
G01 X19.892Y32.364
G01 X19.759Y32.281
G01 X19.404Y32.198
G01 X19.049Y32.281
G01 X18.916Y32.364
G01 X18.824Y32.447
G01 X18.755Y32.53
G01 X18.703Y32.613
G01 X18.663Y32.696
G01 X18.635Y32.779
G01 X18.616Y32.862
G01 X18.606Y32.944
G01 X18.605Y33.027
G01 X18.612Y33.11
G01 X18.628Y33.193
G01 X18.654Y33.276
G01 X18.69Y33.359
G01 X18.739Y33.442
G01 X18.802Y33.525
G01 X18.886Y33.608
G01 X19.004Y33.691
G01 X19.004Y34.33
G01 X18.992Y34.33
G01 X18.979Y34.33
G01 X18.967Y34.331
G01 X18.953Y34.331
G01 X18.94Y34.332
G01 X18.926Y34.333
G01 X18.911Y34.335
G01 X18.895Y34.337
G01 X18.879Y34.339
G01 X18.863Y34.342
G01 X18.845Y34.345
G01 X18.826Y34.349
G01 X18.805Y34.354
G01 X18.783Y34.36
G01 X18.757Y34.368
G01 X18.728Y34.378
G01 X18.69Y34.393
G01 X18.602Y34.436
G01 X18.52Y34.49
G01 X18.488Y34.515
G01 X18.464Y34.536
G01 X18.445Y34.554
G01 X18.428Y34.57
G01 X18.414Y34.586
G01 X18.401Y34.6
G01 X18.389Y34.614
G01 X18.378Y34.627
G01 X18.368Y34.64
G01 X18.358Y34.652
G01 X18.35Y34.664
G01 X18.342Y34.676
G01 X18.334Y34.687
G01 X18.327Y34.698
G01 X18.32Y34.709
G01 X18.313Y34.72
G01 X18.307Y34.73
G01 X16.693Y34.73
G01 X16.662Y34.681
G01 X16.629Y34.636
G01 X16.593Y34.593
G01 X16.554Y34.553
G01 X16.512Y34.515
G01 X16.467Y34.481
G01 X16.42Y34.449
G01 X16.369Y34.42
G01 X16.316Y34.395
G01 X16.259Y34.373
G01 X16.198Y34.355
G01 X16.132Y34.341
G01 X16.062Y34.332
G01 X15.985Y34.33
G01 X15.9Y34.336
G01 X15.802Y34.355
G01 X15.682Y34.396
G01 X15.434Y34.564
G01 X15.266Y34.812
G01 X15.225Y34.932
G01 X15.206Y35.03
G01 X15.2Y35.115
G01 X15.202Y35.192
G01 X15.211Y35.262
G01 X15.225Y35.328
G01 X15.243Y35.389
G01 X15.265Y35.446
G01 X15.29Y35.499
G01 X15.319Y35.55
G01 X15.351Y35.597
G01 X15.385Y35.642
G01 X15.423Y35.684
G01 X15.463Y35.723
G01 X15.506Y35.759
G01 X15.551Y35.792
G01 X15.6Y35.823
G01 X15.6Y36.934
G01 X15.6Y36.934
G01 X14.334Y38.2
G01 X10.66Y38.2
G01 X6.6Y42.26
G01 X6.6Y44.307
G01 X6.567Y44.328
G01 X6.534Y44.35
G01 X6.502Y44.374
G01 X6.471Y44.4
G01 X6.441Y44.428
G01 X6.411Y44.458
G01 X6.383Y44.491
G01 X6.356Y44.526
G01 X6.33Y44.563
G01 X6.305Y44.604
G01 X6.281Y44.649
G01 X6.26Y44.697
G01 X6.24Y44.751
G01 X6.223Y44.811
G01 X6.209Y44.879
G01 X6.201Y44.96
G01 X6.203Y45.065
G01 X6.261Y45.306
G01 X6.391Y45.518
G01 X6.464Y45.594
G01 X6.527Y45.645
G01 X6.585Y45.684
G01 X6.639Y45.714
G01 X6.691Y45.738
G01 X6.741Y45.757
G01 X6.789Y45.772
G01 X6.835Y45.783
G01 X6.88Y45.791
G01 X6.925Y45.796
G01 X6.968Y45.799
G01 X7.01Y45.8
G01 X7.051Y45.798
G01 X7.091Y45.795
G01 X7.131Y45.789
G01 X7.17Y45.782
G01 X7.208Y45.773
G01 X8.885Y47.45
G01 X8.885Y47.45
G01 X14.766Y47.45
G01 X15.781Y46.435
G01 X15.941Y46.45
G01 X16.069Y46.44
G01 X16.18Y46.415
G01 X16.277Y46.38
G01 X16.365Y46.336
G01 X16.443Y46.285
G01 X16.513Y46.228
G01 X16.576Y46.164
G01 X16.631Y46.095
G01 X16.679Y46.02
G01 X16.72Y45.938
G01 X16.752Y45.85
G01 X16.776Y45.755
G01 X16.788Y45.651
G01 X16.788Y45.536
G01 X16.767Y45.405
G01 X16.713Y45.247
G01 X16.475Y44.94
G01 X16.126Y44.771
G01 X15.96Y44.75
G01 X15.828Y44.757
G01 X15.715Y44.78
G01 X15.616Y44.814
G01 X15.527Y44.857
G01 X15.448Y44.907
G01 X15.377Y44.964
G01 X15.313Y45.026
G01 X15.256Y45.095
G01 X15.207Y45.169
G01 X15.165Y45.25
G01 X15.132Y45.337
G01 X15.107Y45.431
G01 X15.093Y45.534
G01 X15.091Y45.647
G01 X15.108Y45.775
G01 X15.156Y45.928
G01 X14.434Y46.65
G01 X14.434Y46.65
G01 X9.215Y46.65
G01 X7.773Y45.208
G01 X7.776Y45.193
G01 X7.78Y45.178
G01 X7.783Y45.162
G01 X7.787Y45.145
G01 X7.79Y45.129
G01 X7.792Y45.111
G01 X7.795Y45.093
G01 X7.797Y45.073
G01 X7.798Y45.053
G01 X7.799Y45.032
G01 X7.8Y45.009
G01 X7.8Y44.985
G01 X7.799Y44.959
G01 X7.797Y44.93
G01 X7.793Y44.897
G01 X7.787Y44.859
G01 X7.777Y44.81
G01 X7.739Y44.694
G01 X7.684Y44.586
G01 X7.657Y44.543
G01 X7.634Y44.512
G01 X7.614Y44.487
G01 X7.594Y44.465
G01 X7.577Y44.445
G01 X7.56Y44.428
G01 X7.543Y44.413
G01 X7.527Y44.398
G01 X7.512Y44.385
G01 X7.497Y44.373
G01 X7.482Y44.362
G01 X7.468Y44.351
G01 X7.454Y44.341
G01 X7.44Y44.332
G01 X7.427Y44.323
G01 X7.413Y44.315
G01 X7.4Y44.307
G01 X7.4Y42.592
G01 X7.4Y42.592
G01 X10.992Y39.0
G01 X14.666Y39.0
G01 X16.4Y37.266
G01 X16.4Y35.823
G01 X16.405Y35.82
G01 X16.41Y35.817
G01 X16.416Y35.813
G01 X16.421Y35.81
G01 X16.427Y35.806
G01 X16.433Y35.803
G01 X16.439Y35.799
G01 X16.445Y35.795
G01 X16.452Y35.79
G01 X16.459Y35.785
G01 X16.466Y35.78
G01 X16.474Y35.774
G01 X16.483Y35.768
G01 X16.492Y35.761
G01 X16.502Y35.753
G01 X16.514Y35.743
G01 X16.53Y35.73
G01 X16.566Y35.696
G01 X16.6Y35.66
G01 X16.613Y35.644
G01 X16.623Y35.632
G01 X16.631Y35.622
G01 X16.638Y35.613
G01 X16.644Y35.604
G01 X16.65Y35.596
G01 X16.655Y35.589
G01 X16.66Y35.582
G01 X16.665Y35.575
G01 X16.669Y35.569
G01 X16.673Y35.563
G01 X16.677Y35.557
G01 X16.68Y35.551
G01 X16.683Y35.546
G01 X16.687Y35.54
G01 X16.69Y35.535
G01 X16.693Y35.53
M5
G01 X10.693Y35.53
M3
G01 X12.307Y35.53
G01 X12.328Y35.563
G01 X12.35Y35.596
G01 X12.374Y35.628
G01 X12.4Y35.659
G01 X12.428Y35.689
G01 X12.458Y35.718
G01 X12.491Y35.747
G01 X12.526Y35.774
G01 X12.563Y35.8
G01 X12.604Y35.825
G01 X12.649Y35.849
G01 X12.697Y35.87
G01 X12.751Y35.89
G01 X12.81Y35.907
G01 X12.879Y35.921
G01 X12.96Y35.929
G01 X13.064Y35.927
G01 X13.306Y35.869
G01 X13.518Y35.74
G01 X13.593Y35.667
G01 X13.645Y35.603
G01 X13.684Y35.546
G01 X13.714Y35.491
G01 X13.738Y35.44
G01 X13.757Y35.39
G01 X13.771Y35.342
G01 X13.783Y35.295
G01 X13.791Y35.25
G01 X13.796Y35.206
G01 X13.799Y35.163
G01 X13.8Y35.121
G01 X13.798Y35.08
G01 X13.795Y35.04
G01 X13.789Y35.0
G01 X13.782Y34.961
G01 X13.773Y34.923
G01 X14.216Y34.48
G01 X14.216Y34.48
G01 X14.216Y33.691
G01 X14.334Y33.608
G01 X14.418Y33.525
G01 X14.481Y33.442
G01 X14.53Y33.359
G01 X14.566Y33.276
G01 X14.592Y33.193
G01 X14.608Y33.11
G01 X14.615Y33.027
G01 X14.614Y32.944
G01 X14.604Y32.862
G01 X14.585Y32.779
G01 X14.557Y32.696
G01 X14.517Y32.613
G01 X14.465Y32.53
G01 X14.396Y32.447
G01 X14.304Y32.364
G01 X14.171Y32.281
G01 X13.816Y32.198
G01 X13.461Y32.281
G01 X13.328Y32.364
G01 X13.236Y32.447
G01 X13.167Y32.53
G01 X13.115Y32.613
G01 X13.075Y32.696
G01 X13.047Y32.779
G01 X13.028Y32.862
G01 X13.018Y32.944
G01 X13.017Y33.027
G01 X13.024Y33.11
G01 X13.04Y33.193
G01 X13.066Y33.276
G01 X13.102Y33.359
G01 X13.151Y33.442
G01 X13.214Y33.525
G01 X13.298Y33.608
G01 X13.416Y33.691
G01 X13.416Y34.148
G01 X13.416Y34.148
G01 X13.207Y34.357
G01 X13.192Y34.353
G01 X13.177Y34.35
G01 X13.161Y34.346
G01 X13.145Y34.343
G01 X13.128Y34.34
G01 X13.11Y34.338
G01 X13.092Y34.335
G01 X13.073Y34.333
G01 X13.052Y34.332
G01 X13.031Y34.331
G01 X13.008Y34.33
G01 X12.984Y34.33
G01 X12.958Y34.331
G01 X12.929Y34.333
G01 X12.896Y34.337
G01 X12.858Y34.343
G01 X12.809Y34.353
G01 X12.694Y34.391
G01 X12.586Y34.446
G01 X12.544Y34.473
G01 X12.512Y34.496
G01 X12.487Y34.517
G01 X12.465Y34.536
G01 X12.445Y34.553
G01 X12.428Y34.571
G01 X12.413Y34.587
G01 X12.398Y34.603
G01 X12.385Y34.618
G01 X12.373Y34.633
G01 X12.362Y34.648
G01 X12.351Y34.662
G01 X12.341Y34.676
G01 X12.332Y34.69
G01 X12.323Y34.703
G01 X12.315Y34.717
G01 X12.307Y34.73
G01 X10.693Y34.73
G01 X10.672Y34.697
G01 X10.65Y34.664
G01 X10.626Y34.632
G01 X10.6Y34.601
G01 X10.572Y34.571
G01 X10.542Y34.542
G01 X10.509Y34.513
G01 X10.474Y34.486
G01 X10.437Y34.46
G01 X10.396Y34.435
G01 X10.351Y34.411
G01 X10.303Y34.39
G01 X10.249Y34.37
G01 X10.19Y34.353
G01 X10.121Y34.339
G01 X10.04Y34.331
G01 X9.936Y34.333
G01 X9.694Y34.391
G01 X9.482Y34.52
G01 X9.407Y34.593
G01 X9.355Y34.657
G01 X9.316Y34.714
G01 X9.286Y34.769
G01 X9.262Y34.82
G01 X9.243Y34.87
G01 X9.229Y34.918
G01 X9.217Y34.965
G01 X9.209Y35.01
G01 X9.204Y35.054
G01 X9.201Y35.097
G01 X9.2Y35.139
G01 X9.202Y35.18
G01 X9.205Y35.22
G01 X9.211Y35.26
G01 X9.218Y35.299
G01 X9.227Y35.337
G01 X3.6Y40.964
G01 X3.6Y40.964
G01 X3.6Y44.307
G01 X3.567Y44.328
G01 X3.534Y44.35
G01 X3.502Y44.374
G01 X3.471Y44.4
G01 X3.441Y44.428
G01 X3.411Y44.458
G01 X3.383Y44.491
G01 X3.356Y44.526
G01 X3.33Y44.563
G01 X3.305Y44.604
G01 X3.281Y44.649
G01 X3.26Y44.697
G01 X3.24Y44.751
G01 X3.223Y44.811
G01 X3.209Y44.879
G01 X3.201Y44.96
G01 X3.203Y45.065
G01 X3.261Y45.306
G01 X3.391Y45.518
G01 X3.464Y45.594
G01 X3.527Y45.645
G01 X3.585Y45.684
G01 X3.639Y45.714
G01 X3.691Y45.738
G01 X3.741Y45.757
G01 X3.789Y45.772
G01 X3.835Y45.783
G01 X3.88Y45.791
G01 X3.925Y45.796
G01 X3.968Y45.799
G01 X4.01Y45.8
G01 X4.051Y45.798
G01 X4.091Y45.795
G01 X4.131Y45.789
G01 X4.17Y45.782
G01 X4.208Y45.773
G01 X6.885Y48.45
G01 X6.885Y48.45
G01 X16.196Y48.45
G01 X18.233Y46.413
G01 X18.39Y46.445
G01 X18.52Y46.449
G01 X18.633Y46.436
G01 X18.734Y46.411
G01 X18.825Y46.377
G01 X18.908Y46.334
G01 X18.984Y46.285
G01 X19.053Y46.228
G01 X19.115Y46.165
G01 X19.171Y46.095
G01 X19.22Y46.018
G01 X19.262Y45.934
G01 X19.295Y45.841
G01 X19.319Y45.739
G01 X19.33Y45.625
G01 X19.323Y45.492
G01 X19.286Y45.329
G01 X19.081Y44.999
G01 X18.751Y44.794
G01 X18.588Y44.757
G01 X18.455Y44.75
G01 X18.341Y44.761
G01 X18.239Y44.785
G01 X18.146Y44.818
G01 X18.062Y44.86
G01 X17.985Y44.909
G01 X17.915Y44.965
G01 X17.852Y45.027
G01 X17.795Y45.096
G01 X17.746Y45.172
G01 X17.703Y45.255
G01 X17.669Y45.346
G01 X17.644Y45.447
G01 X17.631Y45.56
G01 X17.635Y45.69
G01 X17.667Y45.847
G01 X15.864Y47.65
G01 X15.864Y47.65
G01 X7.215Y47.65
G01 X4.773Y45.208
G01 X4.776Y45.193
G01 X4.78Y45.178
G01 X4.783Y45.162
G01 X4.787Y45.145
G01 X4.79Y45.129
G01 X4.792Y45.111
G01 X4.795Y45.093
G01 X4.797Y45.073
G01 X4.798Y45.053
G01 X4.799Y45.032
G01 X4.8Y45.009
G01 X4.8Y44.985
G01 X4.799Y44.959
G01 X4.797Y44.93
G01 X4.793Y44.897
G01 X4.787Y44.859
G01 X4.777Y44.81
G01 X4.739Y44.694
G01 X4.684Y44.586
G01 X4.657Y44.543
G01 X4.634Y44.512
G01 X4.614Y44.487
G01 X4.594Y44.465
G01 X4.577Y44.445
G01 X4.56Y44.428
G01 X4.543Y44.413
G01 X4.527Y44.398
G01 X4.512Y44.385
G01 X4.497Y44.373
G01 X4.482Y44.362
G01 X4.468Y44.351
G01 X4.454Y44.341
G01 X4.44Y44.332
G01 X4.427Y44.323
G01 X4.413Y44.315
G01 X4.4Y44.307
G01 X4.4Y41.296
G01 X4.4Y41.296
G01 X9.793Y35.903
G01 X9.808Y35.907
G01 X9.823Y35.91
G01 X9.839Y35.914
G01 X9.855Y35.917
G01 X9.872Y35.92
G01 X9.89Y35.922
G01 X9.908Y35.925
G01 X9.927Y35.927
G01 X9.948Y35.928
G01 X9.969Y35.929
G01 X9.992Y35.93
G01 X10.016Y35.93
G01 X10.042Y35.929
G01 X10.071Y35.927
G01 X10.104Y35.923
G01 X10.142Y35.917
G01 X10.191Y35.907
G01 X10.306Y35.869
G01 X10.414Y35.814
G01 X10.456Y35.787
G01 X10.488Y35.764
G01 X10.513Y35.743
G01 X10.535Y35.724
G01 X10.555Y35.707
G01 X10.572Y35.689
G01 X10.587Y35.673
G01 X10.602Y35.657
G01 X10.615Y35.642
G01 X10.627Y35.627
G01 X10.638Y35.612
G01 X10.649Y35.598
G01 X10.659Y35.584
G01 X10.668Y35.57
G01 X10.677Y35.557
G01 X10.685Y35.543
G01 X10.693Y35.53
M5
G01 X16.693Y43.15
M3
G01 X18.307Y43.15
G01 X18.32Y43.172
G01 X18.335Y43.194
G01 X18.35Y43.217
G01 X18.367Y43.239
G01 X18.385Y43.261
G01 X18.404Y43.283
G01 X18.424Y43.306
G01 X18.447Y43.328
G01 X18.471Y43.35
G01 X18.497Y43.372
G01 X18.526Y43.394
G01 X18.558Y43.417
G01 X18.593Y43.439
G01 X18.633Y43.461
G01 X18.68Y43.483
G01 X18.737Y43.506
G01 X18.813Y43.528
G01 X19.0Y43.55
G01 X19.187Y43.528
G01 X19.263Y43.506
G01 X19.32Y43.483
G01 X19.367Y43.461
G01 X19.407Y43.439
G01 X19.442Y43.417
G01 X19.474Y43.394
G01 X19.503Y43.372
G01 X19.529Y43.35
G01 X19.553Y43.328
G01 X19.576Y43.306
G01 X19.596Y43.283
G01 X19.615Y43.261
G01 X19.633Y43.239
G01 X19.65Y43.217
G01 X19.665Y43.194
G01 X19.68Y43.172
G01 X19.693Y43.15
G01 X21.307Y43.15
G01 X21.32Y43.172
G01 X21.335Y43.194
G01 X21.35Y43.217
G01 X21.367Y43.239
G01 X21.385Y43.261
G01 X21.404Y43.283
G01 X21.424Y43.306
G01 X21.447Y43.328
G01 X21.471Y43.35
G01 X21.497Y43.372
G01 X21.526Y43.394
G01 X21.558Y43.417
G01 X21.593Y43.439
G01 X21.633Y43.461
G01 X21.68Y43.483
G01 X21.737Y43.506
G01 X21.813Y43.528
G01 X22.0Y43.55
G01 X22.187Y43.528
G01 X22.263Y43.506
G01 X22.32Y43.483
G01 X22.367Y43.461
G01 X22.407Y43.439
G01 X22.442Y43.417
G01 X22.474Y43.394
G01 X22.503Y43.372
G01 X22.529Y43.35
G01 X22.553Y43.328
G01 X22.576Y43.306
G01 X22.596Y43.283
G01 X22.615Y43.261
G01 X22.633Y43.239
G01 X22.65Y43.217
G01 X22.665Y43.194
G01 X22.68Y43.172
G01 X22.693Y43.15
G01 X24.307Y43.15
G01 X24.31Y43.155
G01 X24.313Y43.16
G01 X24.317Y43.166
G01 X24.32Y43.171
G01 X24.323Y43.177
G01 X24.327Y43.183
G01 X24.331Y43.189
G01 X24.335Y43.195
G01 X24.34Y43.202
G01 X24.345Y43.209
G01 X24.35Y43.216
G01 X24.356Y43.224
G01 X24.362Y43.233
G01 X24.369Y43.242
G01 X24.377Y43.252
G01 X24.387Y43.264
G01 X24.4Y43.28
G01 X24.434Y43.316
G01 X24.47Y43.35
G01 X24.486Y43.363
G01 X24.498Y43.373
G01 X24.508Y43.381
G01 X24.517Y43.388
G01 X24.526Y43.394
G01 X24.534Y43.4
G01 X24.541Y43.405
G01 X24.548Y43.41
G01 X24.555Y43.415
G01 X24.561Y43.419
G01 X24.567Y43.423
G01 X24.573Y43.426
G01 X24.579Y43.43
G01 X24.584Y43.433
G01 X24.59Y43.437
G01 X24.595Y43.44
G01 X24.6Y43.443
G01 X24.6Y44.584
G01 X24.6Y44.584
G01 X24.399Y44.785
G01 X24.266Y44.837
G01 X24.162Y44.897
G01 X24.077Y44.964
G01 X24.006Y45.034
G01 X23.947Y45.107
G01 X23.899Y45.184
G01 X23.86Y45.263
G01 X23.829Y45.345
G01 X23.807Y45.429
G01 X23.794Y45.516
G01 X23.79Y45.605
G01 X23.796Y45.698
G01 X23.812Y45.793
G01 X23.842Y45.892
G01 X23.888Y45.996
G01 X23.957Y46.107
G01 X24.068Y46.229
G01 X24.405Y46.417
G01 X24.789Y46.437
G01 X24.948Y46.392
G01 X25.066Y46.336
G01 X25.16Y46.272
G01 X25.238Y46.204
G01 X25.303Y46.132
G01 X25.357Y46.057
G01 X25.401Y45.979
G01 X25.436Y45.899
G01 X25.462Y45.816
G01 X25.48Y45.73
G01 X25.489Y45.642
G01 X25.489Y45.552
G01 X25.478Y45.458
G01 X25.456Y45.361
G01 X25.419Y45.26
G01 X25.363Y45.153
G01 X25.278Y45.038
G01 X25.4Y44.916
G01 X25.4Y44.916
G01 X25.4Y43.443
G01 X25.449Y43.412
G01 X25.494Y43.379
G01 X25.537Y43.343
G01 X25.577Y43.304
G01 X25.615Y43.262
G01 X25.649Y43.217
G01 X25.681Y43.17
G01 X25.71Y43.119
G01 X25.735Y43.066
G01 X25.757Y43.009
G01 X25.775Y42.948
G01 X25.789Y42.882
G01 X25.798Y42.812
G01 X25.8Y42.735
G01 X25.794Y42.65
G01 X25.775Y42.552
G01 X25.734Y42.432
G01 X25.566Y42.184
G01 X25.318Y42.016
G01 X25.198Y41.975
G01 X25.1Y41.956
G01 X25.015Y41.95
G01 X24.938Y41.952
G01 X24.868Y41.961
G01 X24.802Y41.975
G01 X24.741Y41.993
G01 X24.684Y42.015
G01 X24.631Y42.04
G01 X24.58Y42.069
G01 X24.533Y42.101
G01 X24.488Y42.135
G01 X24.446Y42.173
G01 X24.407Y42.213
G01 X24.371Y42.256
G01 X24.338Y42.301
G01 X24.307Y42.35
G01 X22.693Y42.35
G01 X22.68Y42.328
G01 X22.665Y42.306
G01 X22.65Y42.283
G01 X22.633Y42.261
G01 X22.615Y42.239
G01 X22.596Y42.217
G01 X22.576Y42.194
G01 X22.553Y42.172
G01 X22.529Y42.15
G01 X22.503Y42.128
G01 X22.474Y42.106
G01 X22.442Y42.083
G01 X22.407Y42.061
G01 X22.367Y42.039
G01 X22.32Y42.017
G01 X22.263Y41.994
G01 X22.187Y41.972
G01 X22.0Y41.95
G01 X21.813Y41.972
G01 X21.737Y41.994
G01 X21.68Y42.017
G01 X21.633Y42.039
G01 X21.593Y42.061
G01 X21.558Y42.083
G01 X21.526Y42.106
G01 X21.497Y42.128
G01 X21.471Y42.15
G01 X21.447Y42.172
G01 X21.424Y42.194
G01 X21.404Y42.217
G01 X21.385Y42.239
G01 X21.367Y42.261
G01 X21.35Y42.283
G01 X21.335Y42.306
G01 X21.32Y42.328
G01 X21.307Y42.35
G01 X19.693Y42.35
G01 X19.68Y42.328
G01 X19.665Y42.306
G01 X19.65Y42.283
G01 X19.633Y42.261
G01 X19.615Y42.239
G01 X19.596Y42.217
G01 X19.576Y42.194
G01 X19.553Y42.172
G01 X19.529Y42.15
G01 X19.503Y42.128
G01 X19.474Y42.106
G01 X19.442Y42.083
G01 X19.407Y42.061
G01 X19.367Y42.039
G01 X19.32Y42.017
G01 X19.263Y41.994
G01 X19.187Y41.972
G01 X19.0Y41.95
G01 X18.813Y41.972
G01 X18.737Y41.994
G01 X18.68Y42.017
G01 X18.633Y42.039
G01 X18.593Y42.061
G01 X18.558Y42.083
G01 X18.526Y42.106
G01 X18.497Y42.128
G01 X18.471Y42.15
G01 X18.447Y42.172
G01 X18.424Y42.194
G01 X18.404Y42.217
G01 X18.385Y42.239
G01 X18.367Y42.261
G01 X18.35Y42.283
G01 X18.335Y42.306
G01 X18.32Y42.328
G01 X18.307Y42.35
G01 X16.693Y42.35
G01 X16.68Y42.328
G01 X16.665Y42.306
G01 X16.65Y42.283
G01 X16.633Y42.261
G01 X16.615Y42.239
G01 X16.596Y42.217
G01 X16.576Y42.194
G01 X16.553Y42.172
G01 X16.529Y42.15
G01 X16.503Y42.128
G01 X16.474Y42.106
G01 X16.442Y42.083
G01 X16.407Y42.061
G01 X16.367Y42.039
G01 X16.32Y42.017
G01 X16.263Y41.994
G01 X16.187Y41.972
G01 X16.0Y41.95
G01 X15.813Y41.972
G01 X15.737Y41.994
G01 X15.68Y42.017
G01 X15.633Y42.039
G01 X15.593Y42.061
G01 X15.558Y42.083
G01 X15.526Y42.106
G01 X15.497Y42.128
G01 X15.471Y42.15
G01 X15.447Y42.172
G01 X15.424Y42.194
G01 X15.404Y42.217
G01 X15.385Y42.239
G01 X15.367Y42.261
G01 X15.35Y42.283
G01 X15.335Y42.306
G01 X15.32Y42.328
G01 X15.307Y42.35
G01 X13.693Y42.35
G01 X13.68Y42.328
G01 X13.665Y42.306
G01 X13.65Y42.283
G01 X13.633Y42.261
G01 X13.615Y42.239
G01 X13.596Y42.217
G01 X13.576Y42.194
G01 X13.553Y42.172
G01 X13.529Y42.15
G01 X13.503Y42.128
G01 X13.474Y42.106
G01 X13.442Y42.083
G01 X13.407Y42.061
G01 X13.367Y42.039
G01 X13.32Y42.017
G01 X13.263Y41.994
G01 X13.187Y41.972
G01 X13.0Y41.95
G01 X12.813Y41.972
G01 X12.737Y41.994
G01 X12.68Y42.017
G01 X12.633Y42.039
G01 X12.593Y42.061
G01 X12.558Y42.083
G01 X12.526Y42.106
G01 X12.497Y42.128
G01 X12.471Y42.15
G01 X12.447Y42.172
G01 X12.424Y42.194
G01 X12.404Y42.217
G01 X12.385Y42.239
G01 X12.367Y42.261
G01 X12.35Y42.283
G01 X12.335Y42.306
G01 X12.32Y42.328
G01 X12.307Y42.35
G01 X10.693Y42.35
G01 X10.61Y42.232
G01 X10.527Y42.148
G01 X10.444Y42.085
G01 X10.361Y42.036
G01 X10.278Y42.0
G01 X10.195Y41.974
G01 X10.112Y41.958
G01 X10.029Y41.951
G01 X9.946Y41.952
G01 X9.864Y41.962
G01 X9.781Y41.981
G01 X9.698Y42.009
G01 X9.615Y42.049
G01 X9.532Y42.101
G01 X9.449Y42.17
G01 X9.366Y42.262
G01 X9.283Y42.395
G01 X9.2Y42.75
G01 X9.283Y43.105
G01 X9.366Y43.238
G01 X9.449Y43.33
G01 X9.532Y43.399
G01 X9.615Y43.451
G01 X9.698Y43.491
G01 X9.781Y43.519
G01 X9.864Y43.538
G01 X9.946Y43.548
G01 X10.029Y43.549
G01 X10.112Y43.542
G01 X10.195Y43.526
G01 X10.278Y43.5
G01 X10.361Y43.464
G01 X10.444Y43.415
G01 X10.527Y43.352
G01 X10.61Y43.268
G01 X10.693Y43.15
G01 X12.307Y43.15
G01 X12.32Y43.172
G01 X12.335Y43.194
G01 X12.35Y43.217
G01 X12.367Y43.239
G01 X12.385Y43.261
G01 X12.404Y43.283
G01 X12.424Y43.306
G01 X12.447Y43.328
G01 X12.471Y43.35
G01 X12.497Y43.372
G01 X12.526Y43.394
G01 X12.558Y43.417
G01 X12.593Y43.439
G01 X12.633Y43.461
G01 X12.68Y43.483
G01 X12.737Y43.506
G01 X12.813Y43.528
G01 X13.0Y43.55
G01 X13.187Y43.528
G01 X13.263Y43.506
G01 X13.32Y43.483
G01 X13.367Y43.461
G01 X13.407Y43.439
G01 X13.442Y43.417
G01 X13.474Y43.394
G01 X13.503Y43.372
G01 X13.529Y43.35
G01 X13.553Y43.328
G01 X13.576Y43.306
G01 X13.596Y43.283
G01 X13.615Y43.261
G01 X13.633Y43.239
G01 X13.65Y43.217
G01 X13.665Y43.194
G01 X13.68Y43.172
G01 X13.693Y43.15
G01 X15.307Y43.15
G01 X15.307Y43.15
G01 X15.32Y43.172
G01 X15.335Y43.194
G01 X15.35Y43.217
G01 X15.367Y43.239
G01 X15.385Y43.261
G01 X15.404Y43.283
G01 X15.424Y43.306
G01 X15.447Y43.328
G01 X15.471Y43.35
G01 X15.497Y43.372
G01 X15.526Y43.394
G01 X15.558Y43.417
G01 X15.593Y43.439
G01 X15.633Y43.461
G01 X15.68Y43.483
G01 X15.737Y43.506
G01 X15.813Y43.528
G01 X16.0Y43.55
G01 X16.187Y43.528
G01 X16.263Y43.506
G01 X16.32Y43.483
G01 X16.367Y43.461
G01 X16.407Y43.439
G01 X16.442Y43.417
G01 X16.474Y43.394
G01 X16.503Y43.372
G01 X16.529Y43.35
G01 X16.553Y43.328
G01 X16.576Y43.306
G01 X16.596Y43.283
G01 X16.615Y43.261
G01 X16.633Y43.239
G01 X16.65Y43.217
G01 X16.665Y43.194
G01 X16.68Y43.172
G01 X16.693Y43.15
M5
G01 X11.676Y24.685
M3
G01 X11.676Y23.599
G01 X4.335Y16.258
G01 X4.335Y13.5
G01 X4.469Y13.411
G01 X4.564Y13.322
G01 X4.634Y13.233
G01 X4.688Y13.144
G01 X4.728Y13.056
G01 X4.757Y12.967
G01 X4.775Y12.878
G01 X4.784Y12.789
G01 X4.784Y12.7
G01 X4.774Y12.611
G01 X4.754Y12.522
G01 X4.724Y12.433
G01 X4.682Y12.344
G01 X4.626Y12.256
G01 X4.553Y12.167
G01 X4.455Y12.078
G01 X4.313Y11.989
G01 X3.935Y11.9
G01 X3.557Y11.989
G01 X3.415Y12.078
G01 X3.317Y12.167
G01 X3.244Y12.256
G01 X3.188Y12.344
G01 X3.146Y12.433
G01 X3.116Y12.522
G01 X3.096Y12.611
G01 X3.086Y12.7
G01 X3.086Y12.789
G01 X3.095Y12.878
G01 X3.113Y12.967
G01 X3.142Y13.056
G01 X3.182Y13.144
G01 X3.236Y13.233
G01 X3.306Y13.322
G01 X3.401Y13.411
G01 X3.535Y13.5
G01 X3.535Y16.588
G01 X3.535Y16.588
G01 X10.876Y23.929
G01 X10.876Y24.685
G01 X10.758Y24.768
G01 X10.674Y24.851
G01 X10.611Y24.934
G01 X10.562Y25.017
G01 X10.526Y25.1
G01 X10.5Y25.183
G01 X10.484Y25.266
G01 X10.477Y25.349
G01 X10.478Y25.432
G01 X10.488Y25.514
G01 X10.507Y25.597
G01 X10.535Y25.68
G01 X10.575Y25.763
G01 X10.627Y25.846
G01 X10.696Y25.929
G01 X10.788Y26.012
G01 X10.921Y26.095
G01 X11.276Y26.178
G01 X11.631Y26.095
G01 X11.764Y26.012
G01 X11.856Y25.929
G01 X11.925Y25.846
G01 X11.977Y25.763
G01 X12.017Y25.68
G01 X12.045Y25.597
G01 X12.064Y25.514
G01 X12.074Y25.432
G01 X12.075Y25.349
G01 X12.068Y25.266
G01 X12.052Y25.183
G01 X12.026Y25.1
G01 X11.99Y25.017
G01 X11.941Y24.934
G01 X11.878Y24.851
G01 X11.794Y24.768
G01 X11.676Y24.685
M5
G01 X9.669Y13.5
M3
G01 X9.669Y17.017
G01 X16.464Y23.812
G01 X16.464Y24.685
G01 X16.346Y24.768
G01 X16.262Y24.851
G01 X16.199Y24.934
G01 X16.15Y25.017
G01 X16.114Y25.1
G01 X16.088Y25.183
G01 X16.072Y25.266
G01 X16.065Y25.349
G01 X16.066Y25.432
G01 X16.076Y25.514
G01 X16.095Y25.597
G01 X16.123Y25.68
G01 X16.163Y25.763
G01 X16.215Y25.846
G01 X16.284Y25.929
G01 X16.376Y26.012
G01 X16.509Y26.095
G01 X16.864Y26.178
G01 X17.219Y26.095
G01 X17.352Y26.012
G01 X17.444Y25.929
G01 X17.513Y25.846
G01 X17.565Y25.763
G01 X17.605Y25.68
G01 X17.633Y25.597
G01 X17.652Y25.514
G01 X17.662Y25.432
G01 X17.663Y25.349
G01 X17.656Y25.266
G01 X17.64Y25.183
G01 X17.614Y25.1
G01 X17.578Y25.017
G01 X17.529Y24.934
G01 X17.466Y24.851
G01 X17.382Y24.768
G01 X17.264Y24.685
G01 X17.264Y23.482
G01 X17.264Y23.482
G01 X10.469Y16.687
G01 X10.469Y13.5
G01 X10.603Y13.411
G01 X10.698Y13.322
G01 X10.768Y13.233
G01 X10.822Y13.144
G01 X10.862Y13.056
G01 X10.891Y12.967
G01 X10.909Y12.878
G01 X10.918Y12.789
G01 X10.918Y12.7
G01 X10.908Y12.611
G01 X10.888Y12.522
G01 X10.858Y12.433
G01 X10.816Y12.344
G01 X10.76Y12.256
G01 X10.687Y12.167
G01 X10.589Y12.078
G01 X10.447Y11.989
G01 X10.069Y11.9
G01 X9.691Y11.989
G01 X9.549Y12.078
G01 X9.451Y12.167
G01 X9.378Y12.256
G01 X9.322Y12.344
G01 X9.28Y12.433
G01 X9.25Y12.522
G01 X9.23Y12.611
G01 X9.22Y12.7
G01 X9.22Y12.789
G01 X9.229Y12.878
G01 X9.247Y12.967
G01 X9.276Y13.056
G01 X9.316Y13.144
G01 X9.37Y13.233
G01 X9.44Y13.322
G01 X9.535Y13.411
G01 X9.669Y13.5
M5
G01 X14.046Y23.902
M3
G01 X14.046Y24.578
G01 X13.016Y24.578
G01 X13.016Y26.178
G01 X14.616Y26.178
G01 X14.616Y25.144
G01 X14.846Y24.914
G01 X14.846Y24.914
G01 X14.846Y23.902
G01 X14.964Y23.819
G01 X15.048Y23.736
G01 X15.111Y23.653
G01 X15.16Y23.57
G01 X15.196Y23.487
G01 X15.222Y23.404
G01 X15.238Y23.321
G01 X15.245Y23.238
G01 X15.244Y23.155
G01 X15.234Y23.073
G01 X15.215Y22.99
G01 X15.187Y22.907
G01 X15.147Y22.824
G01 X15.095Y22.741
G01 X15.026Y22.658
G01 X14.934Y22.575
G01 X14.801Y22.492
G01 X14.446Y22.409
G01 X14.091Y22.492
G01 X13.958Y22.575
G01 X13.866Y22.658
G01 X13.797Y22.741
G01 X13.745Y22.824
G01 X13.705Y22.907
G01 X13.677Y22.99
G01 X13.658Y23.073
G01 X13.648Y23.155
G01 X13.647Y23.238
G01 X13.654Y23.321
G01 X13.67Y23.404
G01 X13.696Y23.487
G01 X13.732Y23.57
G01 X13.781Y23.653
G01 X13.844Y23.736
G01 X13.928Y23.819
G01 X14.046Y23.902
M5
G01 X18.999Y23.902
M3
G01 X18.999Y24.578
G01 X18.604Y24.578
G01 X18.604Y26.178
G01 X20.204Y26.178
G01 X20.204Y24.578
G01 X19.799Y24.578
G01 X19.799Y23.902
G01 X19.917Y23.819
G01 X20.001Y23.736
G01 X20.064Y23.653
G01 X20.113Y23.57
G01 X20.149Y23.487
G01 X20.175Y23.404
G01 X20.191Y23.321
G01 X20.198Y23.238
G01 X20.197Y23.155
G01 X20.187Y23.073
G01 X20.168Y22.99
G01 X20.14Y22.907
G01 X20.1Y22.824
G01 X20.048Y22.741
G01 X19.979Y22.658
G01 X19.887Y22.575
G01 X19.754Y22.492
G01 X19.399Y22.409
G01 X19.044Y22.492
G01 X18.911Y22.575
G01 X18.819Y22.658
G01 X18.75Y22.741
G01 X18.698Y22.824
G01 X18.658Y22.907
G01 X18.63Y22.99
G01 X18.611Y23.073
G01 X18.601Y23.155
G01 X18.6Y23.238
G01 X18.607Y23.321
G01 X18.623Y23.404
G01 X18.649Y23.487
G01 X18.685Y23.57
G01 X18.734Y23.653
G01 X18.797Y23.736
G01 X18.881Y23.819
G01 X18.999Y23.902
M5
G01 X18.706Y15.189
M3
G01 X15.139Y15.189
G01 X15.056Y15.071
G01 X14.973Y14.987
G01 X14.89Y14.924
G01 X14.807Y14.875
G01 X14.724Y14.839
G01 X14.641Y14.813
G01 X14.558Y14.797
G01 X14.475Y14.79
G01 X14.392Y14.791
G01 X14.31Y14.801
G01 X14.227Y14.82
G01 X14.144Y14.848
G01 X14.061Y14.888
G01 X13.978Y14.94
G01 X13.895Y15.009
G01 X13.812Y15.101
G01 X13.729Y15.234
G01 X13.646Y15.589
G01 X13.729Y15.944
G01 X13.812Y16.077
G01 X13.895Y16.169
G01 X13.978Y16.238
G01 X14.061Y16.29
G01 X14.144Y16.33
G01 X14.227Y16.358
G01 X14.31Y16.377
G01 X14.392Y16.387
G01 X14.475Y16.388
G01 X14.558Y16.381
G01 X14.641Y16.365
G01 X14.724Y16.339
G01 X14.807Y16.303
G01 X14.89Y16.254
G01 X14.973Y16.191
G01 X15.056Y16.107
G01 X15.139Y15.989
G01 X18.706Y15.989
G01 X18.719Y16.011
G01 X18.734Y16.033
G01 X18.749Y16.056
G01 X18.766Y16.078
G01 X18.784Y16.1
G01 X18.803Y16.122
G01 X18.823Y16.145
G01 X18.846Y16.167
G01 X18.87Y16.189
G01 X18.896Y16.211
G01 X18.925Y16.233
G01 X18.957Y16.256
G01 X18.992Y16.278
G01 X19.032Y16.3
G01 X19.079Y16.322
G01 X19.136Y16.345
G01 X19.212Y16.367
G01 X19.399Y16.389
G01 X19.586Y16.367
G01 X19.662Y16.345
G01 X19.719Y16.322
G01 X19.766Y16.3
G01 X19.806Y16.278
G01 X19.841Y16.256
G01 X19.873Y16.233
G01 X19.902Y16.211
G01 X19.928Y16.189
G01 X19.952Y16.167
G01 X19.975Y16.145
G01 X19.995Y16.122
G01 X20.014Y16.1
G01 X20.032Y16.078
G01 X20.049Y16.056
G01 X20.064Y16.033
G01 X20.079Y16.011
G01 X20.092Y15.989
G01 X24.294Y15.989
G01 X24.325Y16.038
G01 X24.358Y16.083
G01 X24.394Y16.126
G01 X24.433Y16.166
G01 X24.475Y16.204
G01 X24.52Y16.238
G01 X24.567Y16.27
G01 X24.618Y16.299
G01 X24.671Y16.324
G01 X24.728Y16.346
G01 X24.789Y16.364
G01 X24.855Y16.378
G01 X24.925Y16.387
G01 X25.002Y16.389
G01 X25.087Y16.383
G01 X25.185Y16.364
G01 X25.305Y16.323
G01 X25.553Y16.155
G01 X25.721Y15.907
G01 X25.762Y15.787
G01 X25.781Y15.689
G01 X25.787Y15.604
G01 X25.785Y15.527
G01 X25.776Y15.457
G01 X25.762Y15.391
G01 X25.744Y15.33
G01 X25.722Y15.273
G01 X25.697Y15.22
G01 X25.668Y15.169
G01 X25.636Y15.122
G01 X25.602Y15.077
G01 X25.564Y15.035
G01 X25.524Y14.996
G01 X25.481Y14.96
G01 X25.436Y14.927
G01 X25.387Y14.896
G01 X25.387Y13.6
G01 X25.613Y13.6
G01 X25.613Y11.9
G01 X23.913Y11.9
G01 X23.913Y13.6
G01 X24.587Y13.6
G01 X24.587Y14.896
G01 X24.582Y14.899
G01 X24.577Y14.902
G01 X24.571Y14.906
G01 X24.566Y14.909
G01 X24.56Y14.912
G01 X24.554Y14.916
G01 X24.548Y14.92
G01 X24.542Y14.924
G01 X24.535Y14.929
G01 X24.528Y14.934
G01 X24.521Y14.939
G01 X24.513Y14.945
G01 X24.504Y14.951
G01 X24.495Y14.958
G01 X24.485Y14.966
G01 X24.473Y14.976
G01 X24.457Y14.989
G01 X24.421Y15.023
G01 X24.387Y15.059
G01 X24.374Y15.075
G01 X24.364Y15.087
G01 X24.356Y15.097
G01 X24.349Y15.106
G01 X24.343Y15.115
G01 X24.337Y15.123
G01 X24.332Y15.13
G01 X24.327Y15.137
G01 X24.322Y15.144
G01 X24.318Y15.15
G01 X24.314Y15.156
G01 X24.311Y15.162
G01 X24.307Y15.168
G01 X24.304Y15.173
G01 X24.3Y15.179
G01 X24.297Y15.184
G01 X24.294Y15.189
G01 X20.092Y15.189
G01 X20.092Y15.189
G01 X20.079Y15.167
G01 X20.064Y15.145
G01 X20.049Y15.122
G01 X20.032Y15.1
G01 X20.014Y15.078
G01 X19.995Y15.056
G01 X19.975Y15.033
G01 X19.952Y15.011
G01 X19.928Y14.989
G01 X19.902Y14.967
G01 X19.873Y14.945
G01 X19.841Y14.922
G01 X19.806Y14.9
G01 X19.766Y14.878
G01 X19.719Y14.856
G01 X19.662Y14.833
G01 X19.586Y14.811
G01 X19.399Y14.789
G01 X19.212Y14.811
G01 X19.136Y14.833
G01 X19.079Y14.856
G01 X19.032Y14.878
G01 X18.992Y14.9
G01 X18.957Y14.922
G01 X18.925Y14.945
G01 X18.896Y14.967
G01 X18.87Y14.989
G01 X18.846Y15.011
G01 X18.823Y15.033
G01 X18.803Y15.056
G01 X18.784Y15.078
G01 X18.766Y15.1
G01 X18.749Y15.122
G01 X18.734Y15.145
G01 X18.719Y15.167
G01 X18.706Y15.189
M5
G01 X25.392Y24.578
M3
G01 X25.392Y23.899
G01 X25.509Y23.815
G01 X25.593Y23.732
G01 X25.656Y23.648
G01 X25.703Y23.565
G01 X25.739Y23.482
G01 X25.764Y23.399
G01 X25.78Y23.316
G01 X25.787Y23.233
G01 X25.785Y23.15
G01 X25.774Y23.067
G01 X25.755Y22.984
G01 X25.725Y22.901
G01 X25.685Y22.819
G01 X25.632Y22.736
G01 X25.563Y22.654
G01 X25.47Y22.571
G01 X25.336Y22.489
G01 X24.981Y22.409
G01 X24.627Y22.494
G01 X24.495Y22.578
G01 X24.403Y22.662
G01 X24.335Y22.745
G01 X24.283Y22.829
G01 X24.244Y22.912
G01 X24.216Y22.995
G01 X24.198Y23.078
G01 X24.188Y23.161
G01 X24.188Y23.244
G01 X24.196Y23.327
G01 X24.213Y23.41
G01 X24.239Y23.493
G01 X24.276Y23.575
G01 X24.325Y23.658
G01 X24.389Y23.74
G01 X24.474Y23.823
G01 X24.592Y23.905
G01 X24.592Y24.578
G01 X24.192Y24.578
G01 X24.192Y26.178
G01 X25.792Y26.178
G01 X25.792Y24.578
G01 X25.392Y24.578
M5
G01 X19.517Y13.15
M3
G01 X21.473Y13.15
G01 X21.562Y13.284
G01 X21.651Y13.379
G01 X21.74Y13.449
G01 X21.829Y13.503
G01 X21.917Y13.543
G01 X22.006Y13.572
G01 X22.095Y13.59
G01 X22.184Y13.599
G01 X22.273Y13.599
G01 X22.362Y13.589
G01 X22.451Y13.569
G01 X22.54Y13.539
G01 X22.629Y13.497
G01 X22.717Y13.441
G01 X22.806Y13.368
G01 X22.895Y13.27
G01 X22.984Y13.128
G01 X23.073Y12.75
G01 X22.984Y12.372
G01 X22.895Y12.23
G01 X22.806Y12.132
G01 X22.717Y12.059
G01 X22.629Y12.003
G01 X22.54Y11.961
G01 X22.451Y11.931
G01 X22.362Y11.911
G01 X22.273Y11.901
G01 X22.184Y11.901
G01 X22.095Y11.91
G01 X22.006Y11.928
G01 X21.917Y11.957
G01 X21.829Y11.997
G01 X21.74Y12.051
G01 X21.651Y12.121
G01 X21.562Y12.216
G01 X21.473Y12.35
G01 X19.517Y12.35
G01 X19.517Y11.9
G01 X18.382Y11.9
G01 X17.382Y10.9
G01 X17.382Y10.9
G01 X13.893Y10.9
G01 X12.893Y11.9
G01 X12.323Y11.9
G01 X11.324Y10.9
G01 X11.324Y10.9
G01 X7.759Y10.9
G01 X6.759Y11.9
G01 X5.625Y11.9
G01 X5.625Y13.6
G01 X7.325Y13.6
G01 X7.325Y12.466
G01 X8.091Y11.7
G01 X8.091Y11.7
G01 X10.994Y11.7
G01 X11.759Y12.465
G01 X11.759Y13.6
G01 X13.459Y13.6
G01 X13.459Y12.466
G01 X14.225Y11.7
G01 X14.225Y11.7
G01 X17.052Y11.7
G01 X17.817Y12.465
G01 X17.817Y13.6
G01 X19.517Y13.6
G01 X19.517Y13.15
M5
G01 X2.0Y2.0
M3
G01 X26.638Y2.0
G01 X26.638Y56.3
G01 X2.0Y56.3
G01 X2.0Y2.0
M5
; Pass number: 2
G01 X4.693Y50.4
M3
G01 X6.307Y50.4
G01 X6.32Y50.422
G01 X6.335Y50.444
G01 X6.35Y50.467
G01 X6.367Y50.489
G01 X6.385Y50.511
G01 X6.404Y50.533
G01 X6.424Y50.556
G01 X6.447Y50.578
G01 X6.471Y50.6
G01 X6.497Y50.622
G01 X6.526Y50.644
G01 X6.558Y50.667
G01 X6.593Y50.689
G01 X6.633Y50.711
G01 X6.68Y50.733
G01 X6.737Y50.756
G01 X6.813Y50.778
G01 X7.0Y50.8
G01 X7.187Y50.778
G01 X7.263Y50.756
G01 X7.32Y50.733
G01 X7.367Y50.711
G01 X7.407Y50.689
G01 X7.442Y50.667
G01 X7.474Y50.644
G01 X7.503Y50.622
G01 X7.529Y50.6
G01 X7.553Y50.578
G01 X7.576Y50.556
G01 X7.596Y50.533
G01 X7.615Y50.511
G01 X7.633Y50.489
G01 X7.65Y50.467
G01 X7.665Y50.444
G01 X7.68Y50.422
G01 X7.693Y50.4
G01 X9.307Y50.4
G01 X9.32Y50.422
G01 X9.335Y50.444
G01 X9.35Y50.467
G01 X9.367Y50.489
G01 X9.385Y50.511
G01 X9.404Y50.533
G01 X9.424Y50.556
G01 X9.447Y50.578
G01 X9.471Y50.6
G01 X9.497Y50.622
G01 X9.526Y50.644
G01 X9.558Y50.667
G01 X9.593Y50.689
G01 X9.633Y50.711
G01 X9.68Y50.733
G01 X9.737Y50.756
G01 X9.813Y50.778
G01 X10.0Y50.8
G01 X10.187Y50.778
G01 X10.263Y50.756
G01 X10.32Y50.733
G01 X10.367Y50.711
G01 X10.407Y50.689
G01 X10.442Y50.667
G01 X10.474Y50.644
G01 X10.503Y50.622
G01 X10.529Y50.6
G01 X10.553Y50.578
G01 X10.576Y50.556
G01 X10.596Y50.533
G01 X10.615Y50.511
G01 X10.633Y50.489
G01 X10.65Y50.467
G01 X10.665Y50.444
G01 X10.68Y50.422
G01 X10.693Y50.4
G01 X17.866Y50.4
G01 X17.866Y50.4
G01 X21.816Y46.45
G01 X22.95Y46.45
G01 X22.95Y44.75
G01 X21.25Y44.75
G01 X21.25Y45.884
G01 X17.534Y49.6
G01 X17.534Y49.6
G01 X10.693Y49.6
G01 X10.68Y49.578
G01 X10.665Y49.556
G01 X10.65Y49.533
G01 X10.633Y49.511
G01 X10.615Y49.489
G01 X10.596Y49.467
G01 X10.576Y49.444
G01 X10.553Y49.422
G01 X10.529Y49.4
G01 X10.503Y49.378
G01 X10.474Y49.356
G01 X10.442Y49.333
G01 X10.407Y49.311
G01 X10.367Y49.289
G01 X10.32Y49.267
G01 X10.263Y49.244
G01 X10.187Y49.222
G01 X10.0Y49.2
G01 X9.813Y49.222
G01 X9.737Y49.244
G01 X9.68Y49.267
G01 X9.633Y49.289
G01 X9.593Y49.311
G01 X9.558Y49.333
G01 X9.526Y49.356
G01 X9.497Y49.378
G01 X9.471Y49.4
G01 X9.447Y49.422
G01 X9.424Y49.444
G01 X9.404Y49.467
G01 X9.385Y49.489
G01 X9.367Y49.511
G01 X9.35Y49.533
G01 X9.335Y49.556
G01 X9.32Y49.578
G01 X9.307Y49.6
G01 X7.693Y49.6
G01 X7.68Y49.578
G01 X7.665Y49.556
G01 X7.65Y49.533
G01 X7.633Y49.511
G01 X7.615Y49.489
G01 X7.596Y49.467
G01 X7.576Y49.444
G01 X7.553Y49.422
G01 X7.529Y49.4
G01 X7.503Y49.378
G01 X7.474Y49.356
G01 X7.442Y49.333
G01 X7.407Y49.311
G01 X7.367Y49.289
G01 X7.32Y49.267
G01 X7.263Y49.244
G01 X7.187Y49.222
G01 X7.0Y49.2
G01 X6.813Y49.222
G01 X6.737Y49.244
G01 X6.68Y49.267
G01 X6.633Y49.289
G01 X6.593Y49.311
G01 X6.558Y49.333
G01 X6.526Y49.356
G01 X6.497Y49.378
G01 X6.471Y49.4
G01 X6.447Y49.422
G01 X6.424Y49.444
G01 X6.404Y49.467
G01 X6.385Y49.489
G01 X6.367Y49.511
G01 X6.35Y49.533
G01 X6.335Y49.556
G01 X6.32Y49.578
G01 X6.307Y49.6
G01 X4.693Y49.6
G01 X4.685Y49.587
G01 X4.677Y49.573
G01 X4.668Y49.56
G01 X4.659Y49.546
G01 X4.649Y49.532
G01 X4.638Y49.518
G01 X4.627Y49.503
G01 X4.615Y49.488
G01 X4.602Y49.473
G01 X4.587Y49.457
G01 X4.572Y49.44
G01 X4.555Y49.423
G01 X4.535Y49.405
G01 X4.513Y49.386
G01 X4.488Y49.366
G01 X4.456Y49.343
G01 X4.414Y49.316
G01 X4.306Y49.261
G01 X4.191Y49.223
G01 X4.141Y49.213
G01 X4.103Y49.207
G01 X4.07Y49.203
G01 X4.041Y49.201
G01 X4.015Y49.2
G01 X3.991Y49.2
G01 X3.968Y49.201
G01 X3.947Y49.202
G01 X3.927Y49.203
G01 X3.907Y49.205
G01 X3.889Y49.208
G01 X3.872Y49.21
G01 X3.855Y49.213
G01 X3.838Y49.217
G01 X3.822Y49.22
G01 X3.807Y49.224
G01 X3.792Y49.227
G01 X3.0Y48.435
G01 X3.0Y48.435
G01 X3.0Y40.709
G01 X10.311Y33.398
G01 X10.583Y33.398
G01 X10.604Y33.431
G01 X10.626Y33.464
G01 X10.65Y33.496
G01 X10.676Y33.527
G01 X10.704Y33.557
G01 X10.734Y33.586
G01 X10.767Y33.615
G01 X10.802Y33.642
G01 X10.839Y33.668
G01 X10.88Y33.693
G01 X10.925Y33.717
G01 X10.973Y33.738
G01 X11.027Y33.758
G01 X11.086Y33.775
G01 X11.155Y33.789
G01 X11.236Y33.797
G01 X11.34Y33.795
G01 X11.582Y33.737
G01 X11.794Y33.608
G01 X11.869Y33.535
G01 X11.921Y33.471
G01 X11.96Y33.414
G01 X11.99Y33.359
G01 X12.014Y33.308
G01 X12.033Y33.258
G01 X12.047Y33.21
G01 X12.059Y33.163
G01 X12.067Y33.118
G01 X12.072Y33.074
G01 X12.075Y33.031
G01 X12.076Y32.989
G01 X12.074Y32.948
G01 X12.071Y32.908
G01 X12.065Y32.868
G01 X12.058Y32.829
G01 X12.049Y32.791
G01 X12.842Y31.998
G01 X12.842Y31.998
G01 X17.298Y31.998
G01 X17.071Y32.225
G01 X16.929Y32.201
G01 X16.811Y32.2
G01 X16.707Y32.214
G01 X16.614Y32.238
G01 X16.53Y32.271
G01 X16.453Y32.311
G01 X16.383Y32.359
G01 X16.319Y32.412
G01 X16.262Y32.472
G01 X16.21Y32.537
G01 X16.165Y32.609
G01 X16.126Y32.688
G01 X16.096Y32.775
G01 X16.074Y32.871
G01 X16.064Y32.978
G01 X16.071Y33.102
G01 X16.106Y33.254
G01 X16.298Y33.564
G01 X16.608Y33.756
G01 X16.76Y33.791
G01 X16.884Y33.798
G01 X16.991Y33.788
G01 X17.087Y33.766
G01 X17.174Y33.736
G01 X17.253Y33.697
G01 X17.325Y33.652
G01 X17.39Y33.6
G01 X17.45Y33.543
G01 X17.503Y33.479
G01 X17.551Y33.409
G01 X17.591Y33.332
G01 X17.624Y33.248
G01 X17.648Y33.155
G01 X17.662Y33.051
G01 X17.661Y32.933
G01 X17.637Y32.791
G01 X18.43Y31.998
G01 X18.43Y31.998
G01 X20.887Y31.998
G01 X21.679Y32.791
G01 X21.655Y32.933
G01 X21.654Y33.051
G01 X21.667Y33.155
G01 X21.692Y33.248
G01 X21.725Y33.332
G01 X21.765Y33.409
G01 X21.813Y33.479
G01 X21.866Y33.543
G01 X21.926Y33.6
G01 X21.991Y33.652
G01 X22.063Y33.697
G01 X22.142Y33.736
G01 X22.229Y33.766
G01 X22.325Y33.788
G01 X22.432Y33.798
G01 X22.556Y33.791
G01 X22.708Y33.756
G01 X23.018Y33.564
G01 X23.21Y33.254
G01 X23.245Y33.101
G01 X23.252Y32.978
G01 X23.242Y32.87
G01 X23.22Y32.775
G01 X23.189Y32.688
G01 X23.151Y32.609
G01 X23.106Y32.537
G01 X23.054Y32.471
G01 X22.996Y32.412
G01 X22.933Y32.358
G01 X22.862Y32.311
G01 X22.786Y32.271
G01 X22.701Y32.238
G01 X22.608Y32.213
G01 X22.505Y32.2
G01 X22.387Y32.201
G01 X22.245Y32.225
G01 X21.217Y31.198
G01 X21.217Y31.198
G01 X18.264Y31.198
G01 X12.51Y31.198
G01 X11.483Y32.225
G01 X11.468Y32.221
G01 X11.453Y32.218
G01 X11.437Y32.214
G01 X11.421Y32.211
G01 X11.404Y32.208
G01 X11.386Y32.206
G01 X11.368Y32.203
G01 X11.349Y32.201
G01 X11.328Y32.2
G01 X11.307Y32.199
G01 X11.284Y32.198
G01 X11.26Y32.198
G01 X11.234Y32.199
G01 X11.205Y32.201
G01 X11.172Y32.205
G01 X11.134Y32.211
G01 X11.085Y32.221
G01 X10.97Y32.259
G01 X10.862Y32.314
G01 X10.82Y32.341
G01 X10.788Y32.364
G01 X10.763Y32.385
G01 X10.741Y32.404
G01 X10.721Y32.421
G01 X10.704Y32.439
G01 X10.689Y32.455
G01 X10.674Y32.471
G01 X10.661Y32.486
G01 X10.649Y32.501
G01 X10.638Y32.516
G01 X10.627Y32.53
G01 X10.617Y32.544
G01 X10.608Y32.558
G01 X10.599Y32.571
G01 X10.591Y32.585
G01 X10.583Y32.598
G01 X9.979Y32.598
G01 X9.979Y32.598
G01 X2.2Y40.377
G01 X2.2Y48.765
G01 X3.227Y49.792
G01 X3.218Y49.83
G01 X3.211Y49.869
G01 X3.205Y49.909
G01 X3.202Y49.949
G01 X3.2Y49.99
G01 X3.201Y50.032
G01 X3.204Y50.075
G01 X3.209Y50.12
G01 X3.217Y50.165
G01 X3.228Y50.211
G01 X3.243Y50.259
G01 X3.262Y50.309
G01 X3.286Y50.361
G01 X3.316Y50.415
G01 X3.355Y50.473
G01 X3.406Y50.536
G01 X3.481Y50.609
G01 X3.694Y50.739
G01 X3.935Y50.797
G01 X4.04Y50.799
G01 X4.121Y50.791
G01 X4.19Y50.777
G01 X4.249Y50.76
G01 X4.303Y50.74
G01 X4.351Y50.719
G01 X4.396Y50.695
G01 X4.437Y50.67
G01 X4.474Y50.644
G01 X4.509Y50.617
G01 X4.542Y50.589
G01 X4.572Y50.559
G01 X4.6Y50.529
G01 X4.626Y50.498
G01 X4.65Y50.466
G01 X4.672Y50.433
G01 X4.693Y50.4
M5
G01 X24.348Y34.667
M3
G01 X22.68Y34.709
G01 X22.659Y34.676
G01 X22.636Y34.645
G01 X22.611Y34.614
G01 X22.585Y34.584
G01 X22.556Y34.555
G01 X22.526Y34.527
G01 X22.493Y34.5
G01 X22.458Y34.474
G01 X22.42Y34.449
G01 X22.379Y34.425
G01 X22.334Y34.403
G01 X22.286Y34.383
G01 X22.233Y34.365
G01 X22.173Y34.349
G01 X22.105Y34.337
G01 X22.025Y34.33
G01 X21.921Y34.334
G01 X21.682Y34.396
G01 X21.474Y34.527
G01 X21.401Y34.6
G01 X21.35Y34.663
G01 X21.312Y34.721
G01 X21.283Y34.775
G01 X21.26Y34.827
G01 X21.241Y34.876
G01 X21.227Y34.923
G01 X21.216Y34.969
G01 X21.208Y35.014
G01 X21.203Y35.058
G01 X21.201Y35.1
G01 X21.2Y35.142
G01 X21.202Y35.182
G01 X21.205Y35.222
G01 X21.211Y35.261
G01 X21.218Y35.299
G01 X21.227Y35.337
G01 X16.764Y39.8
G01 X16.764Y39.8
G01 X10.474Y39.8
G01 X8.2Y42.074
G01 X8.2Y43.765
G01 X9.227Y44.792
G01 X9.221Y44.818
G01 X9.215Y44.843
G01 X9.211Y44.87
G01 X9.207Y44.897
G01 X9.203Y44.926
G01 X9.201Y44.955
G01 X9.2Y44.985
G01 X9.2Y45.017
G01 X9.202Y45.05
G01 X9.204Y45.084
G01 X9.209Y45.12
G01 X9.216Y45.158
G01 X9.225Y45.199
G01 X9.238Y45.244
G01 X9.255Y45.292
G01 X9.28Y45.348
G01 X9.318Y45.418
G01 X9.434Y45.566
G01 X9.582Y45.682
G01 X9.652Y45.72
G01 X9.708Y45.745
G01 X9.756Y45.762
G01 X9.801Y45.775
G01 X9.841Y45.784
G01 X9.88Y45.791
G01 X9.916Y45.796
G01 X9.95Y45.798
G01 X9.983Y45.8
G01 X10.015Y45.8
G01 X10.045Y45.799
G01 X10.074Y45.797
G01 X10.103Y45.793
G01 X10.13Y45.789
G01 X10.157Y45.785
G01 X10.182Y45.779
G01 X10.208Y45.773
G01 X10.435Y46.0
G01 X12.55Y46.0
G01 X12.55Y46.45
G01 X14.25Y46.45
G01 X14.25Y44.75
G01 X12.55Y44.75
G01 X12.55Y45.2
G01 X10.775Y45.2
G01 X10.781Y45.175
G01 X10.786Y45.149
G01 X10.791Y45.123
G01 X10.794Y45.095
G01 X10.797Y45.067
G01 X10.799Y45.038
G01 X10.8Y45.008
G01 X10.8Y44.976
G01 X10.798Y44.944
G01 X10.795Y44.91
G01 X10.79Y44.874
G01 X10.783Y44.836
G01 X10.773Y44.795
G01 X10.76Y44.751
G01 X10.743Y44.703
G01 X10.718Y44.647
G01 X10.68Y44.578
G01 X10.563Y44.432
G01 X10.415Y44.316
G01 X10.346Y44.279
G01 X10.29Y44.254
G01 X10.241Y44.237
G01 X10.197Y44.225
G01 X10.157Y44.215
G01 X10.119Y44.209
G01 X10.083Y44.204
G01 X10.048Y44.201
G01 X10.016Y44.2
G01 X9.984Y44.2
G01 X9.954Y44.201
G01 X9.925Y44.204
G01 X9.897Y44.207
G01 X9.87Y44.211
G01 X9.843Y44.216
G01 X9.817Y44.221
G01 X9.792Y44.227
G01 X9.0Y43.435
G01 X9.0Y43.435
G01 X9.0Y42.406
G01 X10.806Y40.6
G01 X17.096Y40.6
G01 X21.793Y35.903
G01 X21.808Y35.907
G01 X21.823Y35.91
G01 X21.839Y35.914
G01 X21.855Y35.917
G01 X21.872Y35.92
G01 X21.89Y35.922
G01 X21.908Y35.925
G01 X21.927Y35.927
G01 X21.948Y35.928
G01 X21.969Y35.929
G01 X21.992Y35.93
G01 X22.016Y35.93
G01 X22.042Y35.929
G01 X22.071Y35.927
G01 X22.104Y35.923
G01 X22.142Y35.917
G01 X22.191Y35.907
G01 X22.306Y35.869
G01 X22.414Y35.814
G01 X22.456Y35.787
G01 X22.488Y35.764
G01 X22.513Y35.743
G01 X22.535Y35.724
G01 X22.555Y35.707
G01 X22.572Y35.689
G01 X22.587Y35.673
G01 X22.602Y35.657
G01 X22.615Y35.642
G01 X22.627Y35.627
G01 X22.638Y35.612
G01 X22.649Y35.598
G01 X22.659Y35.584
G01 X22.668Y35.57
G01 X22.677Y35.557
G01 X22.685Y35.543
G01 X22.693Y35.53
G01 X24.307Y35.53
G01 X24.338Y35.58
G01 X24.372Y35.626
G01 X24.409Y35.669
G01 X24.449Y35.71
G01 X24.492Y35.748
G01 X24.537Y35.782
G01 X24.585Y35.814
G01 X24.637Y35.843
