; This gcode is generated by my specialised python script for my PCB manufacturer project :))

; Machine Initialization Sequence...

G21 ; to set metric units
G90 ; to set absolute mode , G91 for incremental mode
G94 ; To set the active feed rate mode to units per minute mode

M5 ; disabling spindle PWM
C0 ; Choosing the empty tool slot in the multiplexer circuits

B1 ; Turn ON Machine

$H ; Homing :)
G10 P0 L20 X0Y0Z0 ; Force Reset current coordinates after homing


; The following gcode is the PCB holes drill gcode

; Getting and Activating Tool-2, The Tool.Spindle
G00X165Y91Z12 ; Go to Tool-2 Home Pos
G00X188 ; Enter Female Kinematic Mount Home Pos
A1 ; Latch on Kinematic Mount
G4 P5 ; Wait for Kinematic Mount to fully attach
G00X92 ; Exit Female Kinematic Mount Home Pos
#TODO X0Y0Z0 ;  ;Add tool offset coordinate
C2 ; Choosing tool 2 in the choose demultiplexer circuits

F600 ; setting default feedrate

S230 ; sets pwm speed when we enable it

G01 Z8F20 ; Moving Spindle to UP Postion

M3 ; Turn Motor ON
G4 P2 ; dwell for 2 seconds so motor reaches full RPM

G01 X16.224Y13.811F600
G01 Z13F1
G01 Z8F20
G01 X43.402Y19.399F600
G01 Z13F1
G01 Z8F20
G01 X16.224Y24.987F600
G01 Z13F1
G01 Z8F20
G01 X43.402Y14.446F600
G01 Z13F1
G01 Z8F20
G01 X16.224Y19.399F600
G01 Z13F1
G01 Z8F20
G01 X43.402Y24.987F600
G01 Z13F1
G01 Z8F20
G01 X23.844Y13.811F600
G01 Z13F1
G01 Z8F20
G01 X35.782Y19.399F600
G01 Z13F1
G01 Z8F20
G01 X33.613Y11.276F600
G01 Z13F1
G01 Z8F20
G01 X25.993Y11.276F600
G01 Z13F1
G01 Z8F20
G01 X25.993Y13.816F600
G01 Z13F1
G01 Z8F20
G01 X23.844Y24.987F600
G01 Z13F1
G01 Z8F20
G01 X35.782Y14.446F600
G01 Z13F1
G01 Z8F20
G01 X23.844Y19.399F600
G01 Z13F1
G01 Z8F20
G01 X33.613Y16.864F600
G01 Z13F1
G01 Z8F20
G01 X25.993Y16.864F600
G01 Z13F1
G01 Z8F20
G01 X25.993Y19.404F600
G01 Z13F1
G01 Z8F20
G01 X35.782Y24.987F600
G01 Z13F1
G01 Z8F20
G01 X33.613Y22.452F600
G01 Z13F1
G01 Z8F20
G01 X25.993Y22.452F600
G01 Z13F1
G01 Z8F20
G01 X25.993Y24.992F600
G01 Z13F1
G01 Z8F20
G01 X46.241Y12.609F600
G01 Z13F1
G01 Z8F20
G01 X46.241Y18.667F600
G01 Z13F1
G01 Z8F20
G01 X46.241Y6.475F600
G01 Z13F1
G01 Z8F20
G01 X46.241Y24.763F600
G01 Z13F1
G01 Z8F20
G01 X12.922Y13.303F600
G01 Z13F1
G01 Z8F20
G01 X12.922Y22.193F600
G01 Z13F1
G01 Z8F20
G01 X46.241Y10.069F600
G01 Z13F1
G01 Z8F20
G01 X46.241Y16.127F600
G01 Z13F1
G01 Z8F20
G01 X46.241Y3.935F600
G01 Z13F1
G01 Z8F20
G01 X46.241Y22.223F600
G01 Z13F1
G01 Z8F20
G01 X12.922Y15.843F600
G01 Z13F1
G01 Z8F20
G01 X12.922Y18.383F600
G01 Z13F1
G01 Z8F20
G01 X12.922Y24.733F600
G01 Z13F1
G01 Z8F20
G01 X33.613Y13.816F600
G01 Z13F1
G01 Z8F20
G01 X33.613Y19.404F600
G01 Z13F1
G01 Z8F20
G01 X33.613Y24.992F600
G01 Z13F1
G01 Z8F20

M5 ; disabling spindle PWM

; Returning the Deactivating Tool-2
C0 ; PWM Tool select demultiplexer to select tool zero which is the empty tool slot in multiplexers
#TODO X0Y0Z0 ;  ;Remove tool offset coordinate
G00X165Y91Z12 ; Go to Tool-2 Home Pos
G00X92 ; Enter Female Kinematic Mount Home Pos
A0 ; Latch OFF Kinematic Mount
G4 P5 ; Wait for Kinematic Mount to fully detach
G00X188 ; Exit Female Kinematic Mount Home Pos

; Machine deinitialization Sequence... 

G00X0Y0Z0
B0 ; Turn Machine OFF
