; This gcode is generated by my specialised python script for my PCB manufacturer project :))

; Machine Initialization Sequence...

G21 ; to set metric units
G90 ; to set absolute mode , G91 for incremental mode
G94 ; To set the active feed rate mode to units per minute mode

M5 ; disabling spindle PWM
C0 ; Choosing the empty tool slot in the multiplexer circuits

B1 ; Turn ON Machine

$H ; Homing :)
G10 P0 L20 X0Y0Z0 ; Force Reset current coordinates after homing


; The following gcode is the PCB holes drill gcode

; Getting and Activating Tool-2, The Tool.Spindle
G00X165Y91Z12 ; Go to Tool-2 Home Pos
G00X188 ; Enter Female Kinematic Mount Home Pos
A1 ; Latch on Kinematic Mount
G4 P5 ; Wait for Kinematic Mount to fully attach
G00X92 ; Exit Female Kinematic Mount Home Pos
#TODO X0Y0Z0 ;  ;Add tool offset coordinate
C2 ; Choosing tool 2 in the choose demultiplexer circuits

F600 ; setting default feedrate

S230 ; sets pwm speed when we enable it

G01 Z10F20 ; Moving Spindle to UP Postion

M3 ; Turn Motor ON
G4 P2 ; dwell for 2 seconds so motor reaches full RPM

G01 X7.08Y26.125F600
G01 Z13F1
G01 Z10F20
G01 X7.08Y18.505F600
G01 Z13F1
G01 Z10F20
G01 X33.515Y28.235F600
G01 Z13F1
G01 Z10F20
G01 X45.515Y28.235F600
G01 Z13F1
G01 Z10F20
G01 X15.735Y28.235F600
G01 Z13F1
G01 Z10F20
G01 X27.735Y28.235F600
G01 Z13F1
G01 Z10F20
G01 X33.465Y15.985F600
G01 Z13F1
G01 Z10F20
G01 X45.515Y16.035F600
G01 Z13F1
G01 Z10F20
G01 X39.465Y30.185F600
G01 Z13F1
G01 Z10F20
G01 X33.75Y6.445F600
G01 Z13F1
G01 Z10F20
G01 X39.465Y6.445F600
G01 Z13F1
G01 Z10F20
G01 X15.685Y15.985F600
G01 Z13F1
G01 Z10F20
G01 X27.735Y16.035F600
G01 Z13F1
G01 Z10F20
G01 X21.685Y30.185F600
G01 Z13F1
G01 Z10F20
G01 X8.46Y29.305F600
G01 Z13F1
G01 Z10F20
G01 X9.73Y29.305F600
G01 Z13F1
G01 Z10F20
G01 X11.0Y29.305F600
G01 Z13F1
G01 Z10F20
G01 X14.71Y7.055F600
G01 Z13F1
G01 Z10F20
G01 X12.17Y7.055F600
G01 Z13F1
G01 Z10F20
G01 X9.63Y7.055F600
G01 Z13F1
G01 Z10F20
G01 X7.09Y7.055F600
G01 Z13F1
G01 Z10F20
G01 X28.67Y6.445F600
G01 Z13F1
G01 Z10F20
G01 X44.545Y6.445F600
G01 Z13F1
G01 Z10F20
G01 X4.54Y26.13F600
G01 Z13F1
G01 Z10F20
G01 X12.16Y26.13F600
G01 Z13F1
G01 Z10F20
G01 X9.62Y18.51F600
G01 Z13F1
G01 Z10F20
G01 X4.54Y18.51F600
G01 Z13F1
G01 Z10F20
G01 X12.16Y18.51F600
G01 Z13F1
G01 Z10F20
G01 X9.62Y26.13F600
G01 Z13F1
G01 Z10F20
G01 X9.6Y10.255F600
G01 Z13F1
G01 Z10F20
G01 X7.1Y10.255F600
G01 Z13F1
G01 Z10F20
G01 X10.985Y14.7F600
G01 Z13F1
G01 Z10F20
G01 X8.985Y14.7F600
G01 Z13F1
G01 Z10F20
G01 X4.667Y12.824F600
G01 Z13F1
G01 Z10F20
G01 X4.667Y15.364F600
G01 Z13F1
G01 Z10F20

M5 ; disabling spindle PWM

; Returning the Deactivating Tool-2
C0 ; PWM Tool select demultiplexer to select tool zero which is the empty tool slot in multiplexers
#TODO X0Y0Z0 ;  ;Remove tool offset coordinate
G00X165Y91Z12 ; Go to Tool-2 Home Pos
G00X92 ; Enter Female Kinematic Mount Home Pos
A0 ; Latch OFF Kinematic Mount
G4 P5 ; Wait for Kinematic Mount to fully detach
G00X188 ; Exit Female Kinematic Mount Home Pos

; Machine deinitialization Sequence... 

G00X0Y0Z0
B0 ; Turn Machine OFF
