; This gcode is generated by my specialised python script for my PCB manufacturer project :))

; Machine Initialization Sequence...

G21 ; to set metric units
G90 ; to set absolute mode , G91 for incremental mode
G94 ; To set the active feed rate mode to units per minute mode

M5 ; disabling spindle PWM
C0 ; Choosing the empty tool slot in the multiplexer circuits

B1 ; Turn ON Machine

$H ; Homing :)
G10 P0 L20 X0Y0Z0 ; Force Reset current coordinates after homing


; The following gcode is the ink laying gcode
; According to input gerber file it will have 10 number of y iterations and Over-lapping distance is 1.32

; Getting and Activating Tool-3, The Tool.Pen
G00X165Y185.5Z12 ; Go to Tool-3 Home Pos
G00X188 ; Enter Female Kinematic Mount Home Pos
A1 ; Latch on Kinematic Mount
G4 P5 ; Wait for Kinematic Mount to fully attach
G00X92 ; Exit Female Kinematic Mount Home Pos
#TODO X0Y0Z0 ;  ;Add tool offset coordinate
C3 ; Choosing tool 3 in the choose demultiplexer circuits

F100 ; setting default feedrate for ink laying

G00X2.68Y2.68Z10 ; ; Go to ink laying starting position
G01 X53.39
G01 Y5.36
G01 X2.68
G01 Y8.04
G01 X53.39
G01 Y10.72
G01 X2.68
G01 Y13.4
G01 X53.39
G01 Y16.08
G01 X2.68
G01 Y18.76
G01 X53.39
G01 Y21.44
G01 X2.68
G01 Y24.12
G01 X53.39
G01 Y26.8
G01 X2.68
G01 Y29.48

G00Z0 ; Get away from PCB in Z axis

M5 ; Disable End-Effector Signal

; Returning the Deactivating Tool-3
C0 ; PWM Tool select demultiplexer to select tool zero which is the empty tool slot in multiplexers
#TODO X0Y0Z0 ;  ;Remove tool offset coordinate
G00X165Y185.5Z12 ; Go to Tool-3 Home Pos
G00X92 ; Enter Female Kinematic Mount Home Pos
A0 ; Latch OFF Kinematic Mount
G4 P5 ; Wait for Kinematic Mount to fully detach
G00X188 ; Exit Female Kinematic Mount Home Pos


; The following gcode is the PCB trace laser marking gcode

M5 ; Being extra sure it won't light up before activation

; Getting and Activating Tool-1, The Tool.Laser
G00X165Y0Z10.5 ; Go to Tool-1 Home Pos
G00X188 ; Enter Female Kinematic Mount Home Pos
A1 ; Latch on Kinematic Mount
G4 P5 ; Wait for Kinematic Mount to fully attach
G00X92 ; Exit Female Kinematic Mount Home Pos
#TODO X0Y0Z0 ;  ;Add tool offset coordinate
C1 ; Choosing tool 1 in the choose demultiplexer circuits

F600 ; setting default feedrate

G00Z16 ; Moving to correct focal length Z position

S150 ; Setting Laser Power

Number of passes: 1

; Pass number: 0
G01 X34.15Y11.31
M3
G01 X34.15Y10.802
G01 X36.934Y8.018
G01 X36.934Y8.017
G01 X37.031Y7.951
G01 X37.107Y7.882
G01 X37.168Y7.811
G01 X37.218Y7.739
G01 X37.258Y7.664
G01 X37.289Y7.589
G01 X37.312Y7.512
G01 X37.326Y7.434
G01 X37.333Y7.355
G01 X37.332Y7.275
G01 X37.323Y7.193
G01 X37.305Y7.111
G01 X37.277Y7.026
G01 X37.236Y6.94
G01 X37.18Y6.852
G01 X37.101Y6.76
G01 X36.983Y6.662
G01 X36.652Y6.533
G01 X36.297Y6.56
G01 X36.156Y6.619
G01 X36.054Y6.684
G01 X35.974Y6.752
G01 X35.91Y6.823
G01 X35.859Y6.895
G01 X35.817Y6.969
G01 X35.784Y7.045
G01 X35.76Y7.121
G01 X35.744Y7.199
G01 X35.735Y7.278
G01 X35.735Y7.358
G01 X35.742Y7.439
G01 X35.759Y7.521
G01 X35.785Y7.606
G01 X35.823Y7.691
G01 X35.876Y7.779
G01 X35.95Y7.87
G01 X33.35Y10.47
G01 X33.35Y10.47
G01 X33.35Y10.978
G01 X32.433Y11.895
G01 X32.291Y11.871
G01 X32.173Y11.87
G01 X32.069Y11.883
G01 X31.976Y11.908
G01 X31.892Y11.941
G01 X31.815Y11.981
G01 X31.745Y12.029
G01 X31.681Y12.082
G01 X31.624Y12.142
G01 X31.572Y12.207
G01 X31.527Y12.279
G01 X31.488Y12.358
G01 X31.458Y12.445
G01 X31.436Y12.541
G01 X31.426Y12.648
G01 X31.433Y12.772
G01 X31.468Y12.924
G01 X31.66Y13.234
G01 X31.97Y13.426
G01 X32.122Y13.461
G01 X32.246Y13.468
G01 X32.353Y13.458
G01 X32.449Y13.436
G01 X32.536Y13.406
G01 X32.615Y13.367
G01 X32.687Y13.322
G01 X32.752Y13.27
G01 X32.812Y13.213
G01 X32.865Y13.149
G01 X32.913Y13.079
G01 X32.953Y13.002
G01 X32.986Y12.918
G01 X33.011Y12.825
G01 X33.024Y12.721
G01 X33.023Y12.603
G01 X32.999Y12.461
G01 X34.15Y11.31
G01 X34.15Y11.31
M5
G01 X32.999Y17.795
M3
G01 X34.42Y16.374
G01 X34.42Y13.67
G01 X35.338Y12.752
G01 X35.338Y11.626
G01 X36.327Y10.637
G01 X36.352Y10.643
G01 X36.378Y10.649
G01 X36.405Y10.653
G01 X36.432Y10.657
G01 X36.46Y10.661
G01 X36.49Y10.663
G01 X36.52Y10.664
G01 X36.551Y10.664
G01 X36.584Y10.662
G01 X36.619Y10.66
G01 X36.655Y10.655
G01 X36.693Y10.648
G01 X36.734Y10.639
G01 X36.778Y10.626
G01 X36.827Y10.609
G01 X36.882Y10.584
G01 X36.952Y10.546
G01 X37.1Y10.43
G01 X37.216Y10.282
G01 X37.254Y10.212
G01 X37.279Y10.157
G01 X37.296Y10.108
G01 X37.309Y10.064
G01 X37.318Y10.023
G01 X37.325Y9.985
G01 X37.33Y9.949
G01 X37.332Y9.914
G01 X37.334Y9.881
G01 X37.334Y9.85
G01 X37.333Y9.82
G01 X37.331Y9.79
G01 X37.327Y9.762
G01 X37.323Y9.735
G01 X37.319Y9.708
G01 X37.313Y9.682
G01 X37.307Y9.657
G01 X42.639Y4.325
G01 X47.911Y4.325
G01 X50.971Y7.385
G01 X50.939Y7.543
G01 X50.935Y7.672
G01 X50.948Y7.785
G01 X50.973Y7.886
G01 X51.007Y7.977
G01 X51.049Y8.061
G01 X51.099Y8.136
G01 X51.156Y8.206
G01 X51.219Y8.268
G01 X51.289Y8.324
G01 X51.366Y8.373
G01 X51.45Y8.414
G01 X51.542Y8.448
G01 X51.644Y8.471
G01 X51.759Y8.483
G01 X51.891Y8.476
G01 X52.054Y8.439
G01 X52.385Y8.234
G01 X52.59Y7.904
G01 X52.627Y7.741
G01 X52.634Y7.609
G01 X52.623Y7.494
G01 X52.599Y7.392
G01 X52.566Y7.299
G01 X52.524Y7.215
G01 X52.475Y7.138
G01 X52.42Y7.068
G01 X52.357Y7.005
G01 X52.288Y6.949
G01 X52.212Y6.899
G01 X52.129Y6.856
G01 X52.038Y6.822
G01 X51.937Y6.797
G01 X51.824Y6.784
G01 X51.695Y6.788
G01 X51.537Y6.82
G01 X48.241Y3.525
G01 X48.241Y3.525
G01 X42.307Y3.525
G01 X36.741Y9.091
G01 X36.716Y9.085
G01 X36.69Y9.079
G01 X36.663Y9.075
G01 X36.636Y9.071
G01 X36.608Y9.067
G01 X36.578Y9.065
G01 X36.548Y9.064
G01 X36.517Y9.064
G01 X36.484Y9.066
G01 X36.449Y9.068
G01 X36.413Y9.073
G01 X36.375Y9.08
G01 X36.334Y9.089
G01 X36.29Y9.102
G01 X36.241Y9.119
G01 X36.186Y9.144
G01 X36.116Y9.182
G01 X35.968Y9.298
G01 X35.852Y9.446
G01 X35.814Y9.516
G01 X35.789Y9.571
G01 X35.772Y9.62
G01 X35.759Y9.664
G01 X35.75Y9.705
G01 X35.743Y9.743
G01 X35.738Y9.779
G01 X35.736Y9.814
G01 X35.734Y9.847
G01 X35.734Y9.878
G01 X35.735Y9.908
G01 X35.737Y9.938
G01 X35.741Y9.966
G01 X35.745Y9.993
G01 X35.749Y10.02
G01 X35.755Y10.046
G01 X35.761Y10.071
G01 X34.538Y11.294
G01 X34.538Y12.42
G01 X33.62Y13.338
G01 X33.62Y16.042
G01 X32.433Y17.229
G01 X32.291Y17.205
G01 X32.173Y17.204
G01 X32.069Y17.218
G01 X31.976Y17.242
G01 X31.892Y17.275
G01 X31.815Y17.315
G01 X31.745Y17.363
G01 X31.681Y17.416
G01 X31.624Y17.476
G01 X31.572Y17.541
G01 X31.527Y17.613
G01 X31.488Y17.692
G01 X31.458Y17.779
G01 X31.436Y17.875
G01 X31.426Y17.982
G01 X31.433Y18.106
G01 X31.468Y18.258
G01 X31.66Y18.568
G01 X31.97Y18.76
G01 X32.122Y18.795
G01 X32.246Y18.802
G01 X32.353Y18.792
G01 X32.449Y18.77
G01 X32.536Y18.74
G01 X32.615Y18.701
G01 X32.687Y18.656
G01 X32.752Y18.604
G01 X32.812Y18.547
G01 X32.865Y18.483
G01 X32.913Y18.413
G01 X32.953Y18.336
G01 X32.986Y18.252
G01 X33.011Y18.159
G01 X33.024Y18.055
G01 X33.023Y17.937
G01 X32.999Y17.795
M5
G01 X40.986Y6.533
M3
G01 X40.986Y7.386
G01 X36.741Y11.631
G01 X36.716Y11.625
G01 X36.69Y11.619
G01 X36.663Y11.615
G01 X36.636Y11.611
G01 X36.608Y11.607
G01 X36.578Y11.605
G01 X36.548Y11.604
G01 X36.517Y11.604
G01 X36.484Y11.606
G01 X36.449Y11.608
G01 X36.413Y11.613
G01 X36.375Y11.62
G01 X36.334Y11.629
G01 X36.29Y11.642
G01 X36.241Y11.659
G01 X36.186Y11.684
G01 X36.116Y11.722
G01 X35.968Y11.838
G01 X35.852Y11.986
G01 X35.814Y12.056
G01 X35.789Y12.111
G01 X35.772Y12.16
G01 X35.759Y12.204
G01 X35.75Y12.245
G01 X35.743Y12.283
G01 X35.738Y12.319
G01 X35.736Y12.354
G01 X35.734Y12.387
G01 X35.734Y12.418
G01 X35.735Y12.448
G01 X35.737Y12.478
G01 X35.741Y12.506
G01 X35.745Y12.533
G01 X35.749Y12.56
G01 X35.755Y12.586
G01 X35.761Y12.611
G01 X34.62Y13.752
G01 X34.62Y17.074
G01 X31.826Y19.868
G01 X31.826Y22.897
G01 X31.708Y22.98
G01 X31.624Y23.063
G01 X31.561Y23.146
G01 X31.512Y23.229
G01 X31.476Y23.312
G01 X31.45Y23.395
G01 X31.434Y23.478
G01 X31.427Y23.561
G01 X31.428Y23.644
G01 X31.438Y23.726
G01 X31.457Y23.809
G01 X31.485Y23.892
G01 X31.525Y23.975
G01 X31.577Y24.058
G01 X31.646Y24.141
G01 X31.738Y24.224
G01 X31.871Y24.307
G01 X32.226Y24.39
G01 X32.581Y24.307
G01 X32.714Y24.224
G01 X32.806Y24.141
G01 X32.875Y24.058
G01 X32.927Y23.975
G01 X32.967Y23.892
G01 X32.995Y23.809
G01 X33.014Y23.726
G01 X33.024Y23.644
G01 X33.025Y23.561
G01 X33.018Y23.478
G01 X33.002Y23.395
G01 X32.976Y23.312
G01 X32.94Y23.229
G01 X32.891Y23.146
G01 X32.828Y23.063
G01 X32.744Y22.98
G01 X32.626Y22.897
G01 X32.626Y20.2
G01 X32.626Y20.2
G01 X35.42Y17.406
G01 X35.42Y14.084
G01 X36.327Y13.177
G01 X36.352Y13.183
G01 X36.378Y13.189
G01 X36.405Y13.193
G01 X36.432Y13.197
G01 X36.46Y13.201
G01 X36.49Y13.203
G01 X36.52Y13.204
G01 X36.551Y13.204
G01 X36.584Y13.202
G01 X36.619Y13.2
G01 X36.655Y13.195
G01 X36.693Y13.188
G01 X36.734Y13.179
G01 X36.778Y13.166
G01 X36.827Y13.149
G01 X36.882Y13.124
G01 X36.952Y13.086
G01 X37.1Y12.97
G01 X37.216Y12.822
G01 X37.254Y12.752
G01 X37.279Y12.697
G01 X37.296Y12.648
G01 X37.309Y12.604
G01 X37.318Y12.563
G01 X37.325Y12.525
G01 X37.33Y12.489
G01 X37.332Y12.454
G01 X37.334Y12.421
G01 X37.334Y12.39
G01 X37.333Y12.36
G01 X37.331Y12.33
G01 X37.327Y12.302
G01 X37.323Y12.275
G01 X37.319Y12.248
G01 X37.313Y12.222
G01 X37.307Y12.197
G01 X41.786Y7.718
G01 X41.786Y6.865
G01 X43.326Y5.325
G01 X44.983Y5.325
G01 X50.231Y10.573
G01 X51.034Y10.573
G01 X51.123Y10.743
G01 X51.212Y10.78
G01 X51.301Y10.817
G01 X51.39Y10.988
G01 X51.479Y11.025
G01 X51.567Y10.929
G01 X51.656Y10.966
G01 X51.745Y11.003
G01 X51.834Y11.04
G01 X51.923Y11.077
G01 X52.012Y10.98
G01 X52.101Y11.017
G01 X52.19Y10.921
G01 X52.279Y10.825
G01 X52.367Y10.728
G01 X52.456Y10.632
G01 X52.545Y10.536
G01 X52.634Y10.173
G01 X52.545Y9.736
G01 X52.456Y9.699
G01 X52.367Y9.528
G01 X52.278Y9.491
G01 X52.19Y9.454
G01 X52.101Y9.417
G01 X52.012Y9.38
G01 X51.923Y9.343
G01 X51.834Y9.306
G01 X51.745Y9.269
G01 X51.656Y9.365
G01 X51.567Y9.328
G01 X51.478Y9.425
G01 X51.39Y9.388
G01 X51.301Y9.484
G01 X51.212Y9.58
G01 X51.123Y9.677
G01 X51.034Y9.773
G01 X50.561Y9.773
G01 X50.561Y9.773
G01 X45.313Y4.525
G01 X42.994Y4.525
G01 X40.986Y6.533
M5
G01 X43.744Y16.078
M3
G01 X40.792Y19.03
G01 X40.792Y23.602
G01 X39.978Y24.416
G01 X38.592Y24.416
G01 X38.592Y26.32
G01 X40.592Y26.32
G01 X40.592Y24.934
G01 X41.592Y23.934
G01 X41.592Y23.934
G01 X41.592Y19.362
G01 X44.076Y16.878
G01 X45.777Y16.878
G01 X47.19Y18.291
G01 X47.19Y19.845
G01 X50.971Y23.626
G01 X50.939Y23.784
G01 X50.935Y23.913
G01 X50.948Y24.026
G01 X50.973Y24.127
G01 X51.007Y24.218
G01 X51.049Y24.302
G01 X51.099Y24.377
G01 X51.156Y24.447
G01 X51.219Y24.509
G01 X51.289Y24.565
G01 X51.366Y24.614
G01 X51.45Y24.655
G01 X51.542Y24.689
G01 X51.644Y24.712
G01 X51.759Y24.724
G01 X51.891Y24.717
G01 X52.054Y24.68
G01 X52.385Y24.475
G01 X52.59Y24.145
G01 X52.627Y23.982
G01 X52.634Y23.85
G01 X52.623Y23.735
G01 X52.599Y23.633
G01 X52.566Y23.54
G01 X52.524Y23.456
G01 X52.475Y23.379
G01 X52.42Y23.309
G01 X52.357Y23.246
G01 X52.288Y23.189
G01 X52.212Y23.14
G01 X52.129Y23.097
G01 X52.038Y23.063
G01 X51.937Y23.038
G01 X51.824Y23.025
G01 X51.695Y23.029
G01 X51.537Y23.061
G01 X47.99Y19.515
G01 X47.99Y19.515
G01 X47.99Y17.961
G01 X46.107Y16.078
G01 X43.744Y16.078
M5
G01 X46.903Y8.966
M3
G01 X46.361Y8.966
G01 X44.927Y7.53
G01 X44.951Y7.389
G01 X44.952Y7.271
G01 X44.938Y7.167
G01 X44.914Y7.074
G01 X44.881Y6.99
G01 X44.84Y6.913
G01 X44.793Y6.843
G01 X44.74Y6.779
G01 X44.68Y6.721
G01 X44.615Y6.67
G01 X44.543Y6.625
G01 X44.464Y6.586
G01 X44.377Y6.556
G01 X44.281Y6.534
G01 X44.174Y6.524
G01 X44.05Y6.531
G01 X43.897Y6.566
G01 X43.588Y6.758
G01 X43.396Y7.068
G01 X43.361Y7.221
G01 X43.354Y7.344
G01 X43.364Y7.452
G01 X43.386Y7.547
G01 X43.416Y7.634
G01 X43.455Y7.713
G01 X43.5Y7.785
G01 X43.552Y7.851
G01 X43.609Y7.91
G01 X43.673Y7.963
G01 X43.743Y8.011
G01 X43.82Y8.051
G01 X43.905Y8.084
G01 X43.997Y8.109
G01 X44.101Y8.122
G01 X44.219Y8.121
G01 X44.361Y8.097
G01 X46.031Y9.766
G01 X46.031Y9.766
G01 X46.573Y9.766
G01 X48.461Y11.654
G01 X48.461Y16.943
G01 X48.587Y17.069
G01 X48.595Y18.114
G01 X48.545Y18.144
G01 X48.498Y18.178
G01 X48.454Y18.215
G01 X48.413Y18.254
G01 X48.375Y18.297
G01 X48.34Y18.342
G01 X48.308Y18.39
G01 X48.279Y18.441
G01 X48.254Y18.496
G01 X48.232Y18.553
G01 X48.214Y18.615
G01 X48.2Y18.681
G01 X48.192Y18.753
G01 X48.19Y18.83
G01 X48.197Y18.916
G01 X48.217Y19.015
G01 X48.26Y19.135
G01 X48.432Y19.383
G01 X48.684Y19.548
G01 X48.806Y19.587
G01 X48.905Y19.604
G01 X48.991Y19.609
G01 X49.069Y19.605
G01 X49.14Y19.595
G01 X49.206Y19.579
G01 X49.267Y19.559
G01 X49.324Y19.536
G01 X49.378Y19.509
G01 X49.428Y19.478
G01 X49.475Y19.445
G01 X49.519Y19.409
G01 X49.561Y19.37
G01 X49.599Y19.328
G01 X49.635Y19.283
G01 X49.667Y19.235
G01 X49.696Y19.184
G01 X50.609Y19.209
G01 X50.609Y19.209
G01 X51.384Y19.95
G01 X51.384Y20.584
G01 X51.25Y20.673
G01 X51.155Y20.762
G01 X51.085Y20.851
G01 X51.031Y20.939
G01 X50.991Y21.028
G01 X50.962Y21.117
G01 X50.944Y21.206
G01 X50.935Y21.295
G01 X50.935Y21.384
G01 X50.945Y21.473
G01 X50.965Y21.562
G01 X50.995Y21.651
G01 X51.037Y21.739
G01 X51.093Y21.828
G01 X51.166Y21.917
G01 X51.264Y22.006
G01 X51.406Y22.095
G01 X51.784Y22.184
G01 X52.162Y22.095
G01 X52.304Y22.006
G01 X52.402Y21.917
G01 X52.475Y21.828
G01 X52.531Y21.739
G01 X52.573Y21.651
G01 X52.603Y21.562
G01 X52.623Y21.473
G01 X52.633Y21.384
G01 X52.633Y21.295
G01 X52.624Y21.206
G01 X52.606Y21.117
G01 X52.577Y21.028
G01 X52.537Y20.939
G01 X52.483Y20.851
G01 X52.413Y20.762
G01 X52.318Y20.673
G01 X52.184Y20.584
G01 X52.184Y19.61
G01 X52.184Y19.61
G01 X51.34Y18.803
G01 X51.5Y18.643
G01 X52.634Y18.643
G01 X52.634Y16.943
G01 X50.934Y16.943
G01 X50.934Y18.077
G01 X50.602Y18.409
G01 X50.602Y18.409
G01 X49.683Y18.409
G01 X49.68Y18.404
G01 X49.676Y18.398
G01 X49.673Y18.392
G01 X49.67Y18.387
G01 X49.666Y18.381
G01 X49.662Y18.375
G01 X49.658Y18.368
G01 X49.653Y18.362
G01 X49.649Y18.355
G01 X49.643Y18.347
G01 X49.638Y18.34
G01 X49.632Y18.332
G01 X49.625Y18.323
G01 X49.618Y18.313
G01 X49.609Y18.302
G01 X49.599Y18.29
G01 X49.585Y18.274
G01 X49.549Y18.237
G01 X49.511Y18.202
G01 X49.495Y18.188
G01 X49.482Y18.178
G01 X49.471Y18.17
G01 X49.461Y18.163
G01 X49.452Y18.156
G01 X49.444Y18.15
G01 X49.436Y18.145
G01 X49.429Y18.14
G01 X49.422Y18.136
G01 X49.415Y18.131
G01 X49.409Y18.127
G01 X49.402Y18.123
G01 X49.396Y18.12
G01 X49.391Y18.116
G01 X49.385Y18.113
G01 X49.379Y18.11
G01 X49.375Y18.108
G01 X49.363Y16.666
G01 X49.363Y16.666
G01 X49.261Y16.613
G01 X49.261Y11.324
G01 X46.903Y8.966
M5
G01 X16.058Y6.934
M3
G01 X11.76Y11.232
G01 X11.76Y23.17
G01 X10.47Y24.46
G01 X9.914Y24.46
G01 X9.004Y23.55
G01 X9.004Y13.773
G01 X7.504Y12.273
G01 X5.29Y12.273
G01 X5.201Y12.139
G01 X5.112Y12.044
G01 X5.023Y11.974
G01 X4.934Y11.92
G01 X4.846Y11.88
G01 X4.757Y11.851
G01 X4.668Y11.833
G01 X4.579Y11.824
G01 X4.49Y11.824
G01 X4.401Y11.834
G01 X4.312Y11.854
G01 X4.223Y11.884
G01 X4.134Y11.926
G01 X4.046Y11.982
G01 X3.957Y12.055
G01 X3.868Y12.153
G01 X3.779Y12.295
G01 X3.69Y12.673
G01 X3.779Y13.051
G01 X3.868Y13.193
G01 X3.957Y13.291
G01 X4.046Y13.364
G01 X4.134Y13.42
G01 X4.223Y13.462
G01 X4.312Y13.492
G01 X4.401Y13.512
G01 X4.49Y13.522
G01 X4.579Y13.522
G01 X4.668Y13.513
G01 X4.757Y13.495
G01 X4.846Y13.466
G01 X4.934Y13.426
G01 X5.023Y13.372
G01 X5.112Y13.302
G01 X5.201Y13.207
G01 X5.29Y13.073
G01 X7.174Y13.073
G01 X7.174Y13.073
G01 X8.204Y14.103
G01 X8.204Y23.88
G01 X9.584Y25.26
G01 X10.802Y25.26
G01 X12.56Y23.502
G01 X12.56Y11.564
G01 X16.39Y7.734
G01 X17.003Y7.734
G01 X17.003Y8.084
G01 X17.938Y8.084
G01 X18.858Y9.004
G01 X18.858Y9.004
G01 X20.046Y9.004
G01 X20.046Y9.129
G01 X21.546Y9.129
G01 X21.546Y8.079
G01 X20.046Y8.079
G01 X20.046Y8.204
G01 X19.188Y8.204
G01 X19.188Y8.204
G01 X18.503Y7.519
G01 X18.503Y6.584
G01 X17.003Y6.584
G01 X17.003Y6.934
G01 X16.058Y6.934
G01 X16.058Y6.934
M5
G01 X12.76Y23.584
M3
G01 X10.868Y25.476
G01 X9.516Y25.476
G01 X8.004Y23.964
G01 X8.004Y16.059
G01 X6.758Y14.813
G01 X5.29Y14.813
G01 X5.201Y14.679
G01 X5.112Y14.584
G01 X5.023Y14.514
G01 X4.934Y14.46
G01 X4.846Y14.42
G01 X4.757Y14.391
G01 X4.668Y14.373
G01 X4.579Y14.364
G01 X4.49Y14.364
G01 X4.401Y14.374
G01 X4.312Y14.394
G01 X4.223Y14.424
G01 X4.134Y14.466
G01 X4.046Y14.522
G01 X3.957Y14.595
G01 X3.868Y14.693
G01 X3.779Y14.835
G01 X3.69Y15.213
G01 X3.779Y15.591
G01 X3.868Y15.733
G01 X3.957Y15.831
G01 X4.046Y15.904
G01 X4.134Y15.96
G01 X4.223Y16.002
G01 X4.312Y16.032
G01 X4.401Y16.052
G01 X4.49Y16.062
G01 X4.579Y16.062
G01 X4.668Y16.053
G01 X4.757Y16.035
G01 X4.846Y16.006
G01 X4.934Y15.966
G01 X5.023Y15.912
G01 X5.112Y15.842
G01 X5.201Y15.747
G01 X5.29Y15.613
G01 X6.428Y15.613
G01 X6.428Y15.613
G01 X7.204Y16.389
G01 X7.204Y24.294
G01 X9.186Y26.276
G01 X11.2Y26.276
G01 X13.56Y23.916
G01 X13.56Y17.427
G01 X17.569Y13.418
G01 X17.937Y13.418
G01 X18.858Y14.338
G01 X18.858Y14.338
G01 X20.046Y14.338
G01 X20.046Y14.463
G01 X21.546Y14.463
G01 X21.546Y13.413
G01 X20.046Y13.413
G01 X20.046Y13.538
G01 X19.188Y13.538
G01 X19.188Y13.538
G01 X18.503Y12.853
G01 X18.503Y11.918
G01 X17.003Y11.918
G01 X17.003Y12.853
G01 X12.76Y17.095
G01 X12.76Y17.095
G01 X12.76Y23.584
M5
G01 X7.005Y19.653
M3
G01 X5.353Y18.001
G01 X5.385Y17.843
G01 X5.389Y17.714
G01 X5.376Y17.601
G01 X5.351Y17.5
G01 X5.317Y17.409
G01 X5.275Y17.325
G01 X5.225Y17.249
G01 X5.168Y17.18
G01 X5.105Y17.118
G01 X5.035Y17.062
G01 X4.958Y17.013
G01 X4.874Y16.971
G01 X4.782Y16.938
G01 X4.68Y16.915
G01 X4.565Y16.903
G01 X4.433Y16.91
G01 X4.27Y16.947
G01 X3.939Y17.152
G01 X3.734Y17.482
G01 X3.697Y17.645
G01 X3.69Y17.777
G01 X3.701Y17.892
G01 X3.725Y17.994
G01 X3.758Y18.086
G01 X3.8Y18.171
G01 X3.849Y18.247
G01 X3.904Y18.317
G01 X3.967Y18.381
G01 X4.036Y18.437
G01 X4.112Y18.487
G01 X4.195Y18.53
G01 X4.286Y18.564
G01 X4.387Y18.589
G01 X4.5Y18.602
G01 X4.629Y18.598
G01 X4.787Y18.566
G01 X6.205Y19.983
G01 X6.205Y19.983
G01 X6.205Y24.709
G01 X8.772Y27.276
G01 X11.613Y27.276
G01 X14.559Y24.33
G01 X14.559Y21.47
G01 X17.564Y18.498
G01 X17.938Y18.498
G01 X19.112Y19.672
G01 X19.112Y19.672
G01 X20.046Y19.672
G01 X20.046Y19.797
G01 X21.546Y19.797
G01 X21.546Y18.747
G01 X20.046Y18.747
G01 X20.046Y18.872
G01 X19.442Y18.872
G01 X19.442Y18.872
G01 X18.503Y17.933
G01 X18.503Y16.998
G01 X17.003Y16.998
G01 X17.003Y17.929
G01 X13.759Y21.136
G01 X13.759Y21.136
G01 X13.759Y23.998
G01 X11.281Y26.476
G01 X9.102Y26.476
G01 X7.005Y24.379
G01 X7.005Y19.653
M5
G01 X13.048Y27.475
M3
G01 X8.688Y27.475
G01 X4.94Y23.727
G01 X4.94Y21.043
G01 X5.074Y20.954
G01 X5.169Y20.865
G01 X5.239Y20.776
G01 X5.293Y20.687
G01 X5.333Y20.599
G01 X5.362Y20.51
G01 X5.38Y20.421
G01 X5.389Y20.332
G01 X5.389Y20.243
G01 X5.379Y20.154
G01 X5.359Y20.065
G01 X5.329Y19.976
G01 X5.287Y19.887
G01 X5.231Y19.799
G01 X5.158Y19.71
G01 X5.06Y19.621
G01 X4.918Y19.532
G01 X4.54Y19.443
G01 X4.162Y19.532
G01 X4.02Y19.621
G01 X3.922Y19.71
G01 X3.849Y19.799
G01 X3.793Y19.887
G01 X3.751Y19.976
G01 X3.721Y20.065
G01 X3.701Y20.154
G01 X3.691Y20.243
G01 X3.691Y20.332
G01 X3.7Y20.421
G01 X3.718Y20.51
G01 X3.747Y20.599
G01 X3.787Y20.687
G01 X3.841Y20.776
G01 X3.911Y20.865
G01 X4.006Y20.954
G01 X4.14Y21.043
G01 X4.14Y24.057
G01 X4.14Y24.057
G01 X8.358Y28.275
G01 X13.38Y28.275
G01 X17.569Y24.086
G01 X17.939Y24.086
G01 X19.006Y25.154
G01 X19.006Y25.154
G01 X20.046Y25.154
G01 X20.046Y25.279
G01 X21.546Y25.279
G01 X21.546Y24.229
G01 X20.046Y24.229
G01 X20.046Y24.354
G01 X19.336Y24.354
G01 X19.336Y24.354
G01 X18.503Y23.521
G01 X18.503Y22.586
G01 X17.003Y22.586
G01 X17.003Y23.521
G01 X13.048Y27.475
G01 X13.048Y27.475
M5
G01 X36.224Y22.328
M3
G01 X36.224Y25.884
G01 X33.584Y28.524
G01 X30.359Y28.524
G01 X27.407Y25.572
G01 X27.407Y11.305
G01 X31.226Y7.486
G01 X31.226Y6.921
G01 X31.813Y6.334
G01 X32.64Y6.334
G01 X33.226Y6.92
G01 X33.226Y7.747
G01 X32.443Y8.53
G01 X31.878Y8.53
G01 X28.606Y11.802
G01 X28.606Y23.928
G01 X31.192Y26.514
G01 X33.261Y26.514
G01 X35.025Y24.75
G01 X35.025Y20.628
G01 X38.334Y17.319
G01 X38.334Y13.332
G01 X42.786Y8.88
G01 X42.786Y7.279
G01 X43.741Y6.324
G01 X44.566Y6.324
G01 X47.0Y8.78
G01 X49.182Y10.938
G01 X49.475Y11.231
G01 X49.475Y13.509
G01 X50.971Y15.005
G01 X50.939Y15.163
G01 X50.935Y15.292
G01 X50.948Y15.405
G01 X50.973Y15.506
G01 X51.007Y15.597
G01 X51.05Y15.681
G01 X51.099Y15.757
G01 X51.156Y15.826
G01 X51.219Y15.888
G01 X51.289Y15.944
G01 X51.366Y15.993
G01 X51.45Y16.035
G01 X51.542Y16.068
G01 X51.645Y16.091
G01 X51.759Y16.103
G01 X51.891Y16.096
G01 X52.055Y16.059
G01 X52.385Y15.854
G01 X52.59Y15.524
G01 X52.627Y15.361
G01 X52.634Y15.228
G01 X52.623Y15.114
G01 X52.599Y15.012
G01 X52.566Y14.919
G01 X52.524Y14.835
G01 X52.475Y14.758
G01 X52.419Y14.688
G01 X52.357Y14.625
G01 X52.288Y14.568
G01 X52.212Y14.518
G01 X52.129Y14.476
G01 X52.037Y14.442
G01 X51.937Y14.417
G01 X51.824Y14.404
G01 X51.694Y14.408
G01 X51.536Y14.44
G01 X50.275Y13.179
G01 X50.275Y13.179
G01 X50.275Y10.901
G01 X49.455Y10.081
G01 X47.5Y8.148
G01 X44.9Y5.524
G01 X43.409Y5.524
G01 X41.986Y6.947
G01 X41.986Y8.548
G01 X37.534Y13.0
G01 X37.534Y16.987
G01 X34.225Y20.296
G01 X34.225Y24.418
G01 X32.929Y25.714
G01 X31.522Y25.714
G01 X29.406Y23.598
G01 X29.406Y12.134
G01 X32.21Y9.33
G01 X32.775Y9.33
G01 X34.026Y8.079
G01 X34.026Y6.59
G01 X32.97Y5.534
G01 X31.481Y5.534
G01 X30.426Y6.589
G01 X30.426Y7.154
G01 X26.607Y10.973
G01 X26.607Y25.902
G01 X29.229Y28.524
G01 X8.323Y28.524
G01 X3.49Y23.691
G01 X3.49Y11.749
G01 X4.256Y10.983
G01 X5.39Y10.983
G01 X5.39Y10.533
G01 X7.433Y10.533
G01 X7.433Y10.533
G01 X9.402Y12.502
G01 X9.399Y12.515
G01 X9.396Y12.528
G01 X9.394Y12.542
G01 X9.391Y12.557
G01 X9.389Y12.572
G01 X9.387Y12.587
G01 X9.386Y12.603
G01 X9.385Y12.62
G01 X9.384Y12.638
G01 X9.383Y12.657
G01 X9.383Y12.677
G01 X9.384Y12.698
G01 X9.385Y12.722
G01 X9.387Y12.747
G01 X9.391Y12.776
G01 X9.396Y12.81
G01 X9.406Y12.853
G01 X9.44Y12.955
G01 X9.488Y13.05
G01 X9.512Y13.088
G01 X9.532Y13.116
G01 X9.549Y13.139
G01 X9.566Y13.159
G01 X9.581Y13.176
G01 X9.596Y13.192
G01 X9.61Y13.206
G01 X9.624Y13.219
G01 X9.637Y13.231
G01 X9.65Y13.242
G01 X9.662Y13.252
G01 X9.675Y13.262
G01 X9.687Y13.271
G01 X9.699Y13.279
G01 X9.71Y13.288
G01 X9.722Y13.295
G01 X9.733Y13.302
G01 X9.733Y17.114
G01 X9.714Y17.126
G01 X9.694Y17.14
G01 X9.675Y17.154
G01 X9.655Y17.17
G01 X9.636Y17.186
G01 X9.616Y17.204
G01 X9.597Y17.223
G01 X9.577Y17.244
G01 X9.558Y17.266
G01 X9.539Y17.291
G01 X9.519Y17.317
G01 X9.5Y17.346
G01 X9.48Y17.379
G01 X9.461Y17.415
G01 X9.441Y17.458
G01 X9.422Y17.509
G01 X9.403Y17.578
G01 X9.383Y17.748
G01 X9.403Y17.918
G01 X9.422Y17.987
G01 X9.441Y18.038
G01 X9.461Y18.081
G01 X9.48Y18.117
G01 X9.5Y18.15
G01 X9.519Y18.179
G01 X9.539Y18.205
G01 X9.558Y18.23
G01 X9.577Y18.252
G01 X9.597Y18.273
G01 X9.616Y18.292
G01 X9.636Y18.31
G01 X9.655Y18.326
G01 X9.675Y18.342
G01 X9.694Y18.356
G01 X9.714Y18.37
G01 X9.733Y18.382
G01 X9.733Y22.702
G01 X9.631Y22.778
G01 X9.557Y22.855
G01 X9.501Y22.932
G01 X9.458Y23.009
G01 X9.426Y23.086
G01 X9.403Y23.163
G01 X9.389Y23.24
G01 X9.383Y23.317
G01 X9.385Y23.394
G01 X9.395Y23.471
G01 X9.413Y23.548
G01 X9.441Y23.624
G01 X9.478Y23.701
G01 X9.527Y23.778
G01 X9.592Y23.855
G01 X9.678Y23.932
G01 X9.802Y24.009
G01 X10.133Y24.086
G01 X10.464Y24.009
G01 X10.588Y23.932
G01 X10.674Y23.855
G01 X10.739Y23.778
G01 X10.788Y23.701
G01 X10.825Y23.624
G01 X10.853Y23.548
G01 X10.871Y23.471
G01 X10.881Y23.394
G01 X10.883Y23.317
G01 X10.877Y23.24
G01 X10.863Y23.163
G01 X10.84Y23.086
G01 X10.808Y23.009
G01 X10.765Y22.932
G01 X10.709Y22.855
G01 X10.635Y22.778
G01 X10.533Y22.702
G01 X10.533Y18.382
G01 X10.552Y18.37
G01 X10.572Y18.356
G01 X10.591Y18.342
G01 X10.611Y18.326
G01 X10.63Y18.31
G01 X10.65Y18.292
G01 X10.669Y18.273
G01 X10.689Y18.252
G01 X10.708Y18.23
G01 X10.727Y18.205
G01 X10.747Y18.179
G01 X10.766Y18.15
G01 X10.786Y18.117
G01 X10.805Y18.081
G01 X10.825Y18.038
G01 X10.844Y17.987
G01 X10.863Y17.918
G01 X10.883Y17.748
G01 X10.863Y17.578
G01 X10.844Y17.509
G01 X10.825Y17.458
G01 X10.805Y17.415
G01 X10.786Y17.379
G01 X10.766Y17.346
G01 X10.747Y17.317
G01 X10.727Y17.291
G01 X10.708Y17.266
G01 X10.689Y17.244
G01 X10.669Y17.223
G01 X10.65Y17.204
G01 X10.63Y17.186
G01 X10.611Y17.17
G01 X10.591Y17.154
G01 X10.572Y17.14
G01 X10.552Y17.126
G01 X10.533Y17.114
G01 X10.533Y13.302
G01 X10.552Y13.29
G01 X10.572Y13.276
G01 X10.591Y13.262
G01 X10.611Y13.246
G01 X10.63Y13.23
G01 X10.65Y13.212
G01 X10.669Y13.193
G01 X10.689Y13.172
G01 X10.708Y13.15
G01 X10.727Y13.125
G01 X10.747Y13.099
G01 X10.766Y13.07
G01 X10.786Y13.037
G01 X10.805Y13.001
G01 X10.825Y12.958
G01 X10.844Y12.907
G01 X10.863Y12.838
G01 X10.883Y12.668
G01 X10.863Y12.498
G01 X10.844Y12.429
G01 X10.825Y12.378
G01 X10.805Y12.335
G01 X10.786Y12.299
G01 X10.766Y12.266
G01 X10.747Y12.237
G01 X10.727Y12.211
G01 X10.708Y12.186
G01 X10.689Y12.164
G01 X10.669Y12.143
G01 X10.65Y12.124
G01 X10.63Y12.106
G01 X10.611Y12.09
G01 X10.591Y12.074
G01 X10.572Y12.06
G01 X10.552Y12.046
G01 X10.533Y12.034
G01 X10.533Y7.968
G01 X10.635Y7.892
G01 X10.709Y7.815
G01 X10.765Y7.738
G01 X10.808Y7.661
G01 X10.84Y7.584
G01 X10.863Y7.507
G01 X10.877Y7.43
G01 X10.883Y7.353
G01 X10.881Y7.276
G01 X10.871Y7.199
G01 X10.853Y7.122
G01 X10.825Y7.046
G01 X10.788Y6.969
G01 X10.739Y6.892
G01 X10.674Y6.815
G01 X10.588Y6.738
G01 X10.464Y6.661
G01 X10.133Y6.584
G01 X9.802Y6.661
G01 X9.678Y6.738
G01 X9.592Y6.815
G01 X9.527Y6.892
G01 X9.478Y6.969
G01 X9.441Y7.046
G01 X9.413Y7.122
G01 X9.395Y7.199
G01 X9.385Y7.276
G01 X9.383Y7.353
G01 X9.389Y7.43
G01 X9.403Y7.507
G01 X9.426Y7.584
G01 X9.458Y7.661
G01 X9.501Y7.738
G01 X9.557Y7.815
G01 X9.631Y7.892
G01 X9.733Y7.968
G01 X9.733Y11.703
G01 X9.733Y11.703
G01 X7.763Y9.733
G01 X5.39Y9.733
G01 X5.39Y9.283
G01 X3.69Y9.283
G01 X3.69Y10.417
G01 X2.69Y11.417
G01 X2.69Y11.417
G01 X2.69Y24.021
G01 X7.993Y29.324
G01 X30.194Y29.324
G01 X33.75Y29.324
G01 X40.918Y29.324
G01 X44.551Y25.691
G01 X44.605Y25.697
G01 X44.659Y25.7
G01 X44.713Y25.699
G01 X44.766Y25.695
G01 X44.819Y25.686
G01 X44.872Y25.675
G01 X44.925Y25.659
G01 X44.978Y25.639
G01 X45.03Y25.615
G01 X45.082Y25.587
G01 X45.134Y25.553
G01 X45.185Y25.514
G01 X45.236Y25.467
G01 X45.287Y25.412
G01 X45.337Y25.345
G01 X45.386Y25.261
G01 X45.433Y25.146
G01 X45.471Y24.856
G01 X45.401Y24.571
G01 X45.342Y24.462
G01 X45.284Y24.384
G01 X45.227Y24.323
G01 X45.17Y24.274
G01 X45.114Y24.233
G01 X45.059Y24.2
G01 X45.004Y24.172
G01 X44.949Y24.149
G01 X44.894Y24.131
G01 X44.84Y24.118
G01 X44.785Y24.108
G01 X44.731Y24.102
G01 X44.678Y24.1
G01 X44.624Y24.101
G01 X44.571Y24.106
G01 X44.517Y24.115
G01 X44.464Y24.127
G01 X43.672Y23.335
G01 X43.672Y23.335
G01 X43.672Y21.202
G01 X44.438Y20.436
G01 X45.472Y20.436
G01 X45.472Y18.836
G01 X43.872Y18.836
G01 X43.872Y19.87
G01 X42.872Y20.87
G01 X42.872Y20.87
G01 X42.872Y23.665
G01 X43.899Y24.692
G01 X43.898Y24.699
G01 X43.896Y24.707
G01 X43.894Y24.714
G01 X43.892Y24.721
G01 X43.89Y24.729
G01 X43.889Y24.737
G01 X43.887Y24.746
G01 X43.885Y24.755
G01 X43.884Y24.764
G01 X43.882Y24.774
G01 X43.88Y24.785
G01 X43.879Y24.797
G01 X43.877Y24.809
G01 X43.876Y24.823
G01 X43.874Y24.839
G01 X43.873Y24.858
G01 X43.872Y24.882
G01 X43.873Y24.941
G01 X43.878Y25.0
G01 X43.882Y25.024
G01 X43.885Y25.042
G01 X43.888Y25.058
G01 X43.891Y25.071
G01 X43.893Y25.084
G01 X43.896Y25.095
G01 X43.899Y25.105
G01 X43.901Y25.115
G01 X43.904Y25.125
G01 X43.907Y25.133
G01 X43.909Y25.142
G01 X43.912Y25.15
G01 X43.915Y25.157
G01 X43.917Y25.165
G01 X43.92Y25.172
G01 X43.922Y25.179
G01 X43.925Y25.185
G01 X40.586Y28.524
G01 X40.586Y28.524
G01 X34.716Y28.524
G01 X37.024Y26.216
G01 X37.024Y22.66
G01 X38.592Y21.092
G01 X38.592Y21.241
G01 X40.592Y21.241
G01 X40.592Y19.335
G01 X40.205Y19.335
G01 X43.796Y15.744
G01 X44.954Y15.744
G01 X44.954Y14.144
G01 X43.354Y14.144
G01 X43.354Y15.054
G01 X39.192Y19.216
G01 X39.192Y19.216
G01 X39.192Y19.335
G01 X38.592Y19.335
G01 X38.592Y19.96
G01 X36.224Y22.328
G01 X36.224Y22.328
M5
G01 X24.476Y5.534
M3
G01 X20.76Y5.534
G01 X20.755Y5.539
G01 X20.046Y5.539
G01 X20.046Y6.589
G01 X21.546Y6.589
G01 X21.546Y6.334
G01 X24.476Y6.334
G01 X24.476Y6.334
G01 X25.02Y6.334
G01 X25.606Y6.92
G01 X25.606Y7.747
G01 X22.355Y10.998
G01 X21.546Y10.998
G01 X21.546Y10.873
G01 X20.046Y10.873
G01 X20.046Y11.923
G01 X21.546Y11.923
G01 X21.546Y11.798
G01 X22.687Y11.798
G01 X22.687Y11.798
G01 X24.199Y10.286
G01 X25.606Y11.693
G01 X25.606Y13.081
G01 X22.355Y16.332
G01 X21.546Y16.332
G01 X21.546Y16.207
G01 X20.046Y16.207
G01 X20.046Y17.257
G01 X21.546Y17.257
G01 X21.546Y17.132
G01 X22.687Y17.132
G01 X22.687Y17.132
G01 X23.945Y15.874
G01 X25.606Y17.535
G01 X25.606Y18.415
G01 X22.207Y21.814
G01 X21.546Y21.814
G01 X21.546Y21.689
G01 X20.046Y21.689
G01 X20.046Y22.739
G01 X21.546Y22.739
G01 X21.546Y22.614
G01 X22.539Y22.614
G01 X22.539Y22.614
G01 X26.406Y18.747
G01 X26.406Y17.205
G01 X24.51Y15.309
G01 X26.406Y13.413
G01 X26.406Y11.363
G01 X24.764Y9.721
G01 X26.406Y8.079
G01 X26.406Y6.59
G01 X25.751Y5.935
G01 X26.351Y5.335
G01 X33.055Y5.335
G01 X34.225Y6.505
G01 X34.225Y8.161
G01 X31.385Y10.964
G01 X29.605Y12.744
G01 X29.605Y23.513
G01 X31.606Y25.514
G01 X32.847Y25.514
G01 X34.026Y24.335
G01 X34.026Y20.214
G01 X36.934Y17.306
G01 X36.934Y15.637
G01 X37.052Y15.554
G01 X37.136Y15.471
G01 X37.199Y15.388
G01 X37.248Y15.305
G01 X37.284Y15.222
G01 X37.31Y15.139
G01 X37.326Y15.056
G01 X37.333Y14.973
G01 X37.332Y14.89
G01 X37.322Y14.808
G01 X37.303Y14.725
G01 X37.275Y14.642
G01 X37.235Y14.559
G01 X37.183Y14.476
G01 X37.114Y14.393
G01 X37.022Y14.31
G01 X36.889Y14.227
G01 X36.534Y14.144
G01 X36.179Y14.227
G01 X36.046Y14.31
G01 X35.954Y14.393
G01 X35.885Y14.476
G01 X35.833Y14.559
G01 X35.793Y14.642
G01 X35.765Y14.725
G01 X35.746Y14.808
G01 X35.736Y14.89
G01 X35.735Y14.973
G01 X35.742Y15.056
G01 X35.758Y15.139
G01 X35.784Y15.222
G01 X35.82Y15.305
G01 X35.869Y15.388
G01 X35.932Y15.471
G01 X36.016Y15.554
G01 X36.134Y15.637
G01 X36.134Y16.974
G01 X36.134Y16.974
G01 X33.226Y19.882
G01 X33.226Y24.003
G01 X32.515Y24.714
G01 X31.936Y24.714
G01 X30.405Y23.183
G01 X30.405Y13.076
G01 X32.0Y11.481
G01 X35.025Y8.495
G01 X35.025Y6.175
G01 X33.785Y4.935
G01 X35.395Y3.326
G01 X48.962Y3.326
G01 X52.834Y7.198
G01 X52.834Y11.097
G01 X52.031Y11.9
G01 X51.97Y11.918
G01 X51.909Y11.841
G01 X51.848Y11.86
G01 X51.788Y11.878
G01 X51.727Y11.897
G01 X51.666Y11.916
G01 X51.605Y11.839
G01 X51.544Y11.857
G01 X51.483Y11.876
G01 X51.422Y11.99
G01 X51.361Y12.009
G01 X51.3Y12.027
G01 X51.239Y12.046
G01 X51.178Y12.16
G01 X51.117Y12.179
G01 X51.056Y12.293
G01 X50.995Y12.407
G01 X50.934Y12.713
G01 X50.995Y12.981
G01 X51.056Y13.154
G01 X51.117Y13.231
G01 X51.178Y13.308
G01 X51.239Y13.385
G01 X51.3Y13.367
G01 X51.361Y13.444
G01 X51.422Y13.521
G01 X51.483Y13.502
G01 X51.544Y13.484
G01 X51.604Y13.561
G01 X51.665Y13.542
G01 X51.726Y13.523
G01 X51.787Y13.601
G01 X51.848Y13.582
G01 X51.909Y13.563
G01 X51.97Y13.545
G01 X52.031Y13.526
G01 X52.834Y14.328
G01 X52.834Y14.328
G01 X52.834Y24.798
G01 X52.068Y25.564
G01 X50.934Y25.564
G01 X50.934Y26.014
G01 X49.674Y26.014
G01 X49.661Y25.993
G01 X49.646Y25.971
G01 X49.631Y25.95
G01 X49.614Y25.928
G01 X49.596Y25.907
G01 X49.577Y25.885
G01 X49.556Y25.864
G01 X49.534Y25.842
G01 X49.51Y25.821
G01 X49.484Y25.799
G01 X49.455Y25.778
G01 X49.424Y25.757
G01 X49.389Y25.735
G01 X49.349Y25.714
G01 X49.303Y25.692
G01 X49.247Y25.671
G01 X49.172Y25.65
G01 X48.988Y25.629
G01 X48.803Y25.651
G01 X48.729Y25.673
G01 X48.673Y25.694
G01 X48.627Y25.716
G01 X48.587Y25.738
G01 X48.552Y25.759
G01 X48.521Y25.781
G01 X48.492Y25.802
G01 X48.466Y25.824
G01 X48.442Y25.846
G01 X48.42Y25.867
G01 X48.4Y25.889
G01 X48.381Y25.91
G01 X48.363Y25.932
G01 X48.347Y25.954
G01 X48.331Y25.975
G01 X48.317Y25.997
G01 X48.303Y26.018
G01 X46.862Y26.027
G01 X46.862Y26.027
G01 X46.85Y24.454
G01 X46.85Y18.345
G01 X45.599Y17.094
G01 X44.142Y17.094
G01 X41.791Y19.445
G01 X41.791Y25.905
G01 X40.696Y27.0
G01 X38.741Y27.0
G01 X38.392Y26.651
G01 X38.392Y23.982
G01 X38.593Y23.78
G01 X40.592Y23.78
G01 X40.592Y21.875
G01 X38.592Y21.875
G01 X38.592Y22.65
G01 X37.592Y23.65
G01 X37.592Y23.65
G01 X37.592Y26.981
G01 X38.411Y27.8
G01 X41.028Y27.8
G01 X42.591Y26.237
G01 X42.591Y19.777
G01 X44.474Y17.894
G01 X45.269Y17.894
G01 X46.05Y18.675
G01 X46.05Y20.192
G01 X44.879Y21.363
G01 X44.737Y21.338
G01 X44.619Y21.338
G01 X44.515Y21.351
G01 X44.423Y21.376
G01 X44.338Y21.409
G01 X44.262Y21.449
G01 X44.191Y21.496
G01 X44.128Y21.55
G01 X44.07Y21.609
G01 X44.018Y21.675
G01 X43.973Y21.747
G01 X43.934Y21.826
G01 X43.904Y21.912
G01 X43.882Y22.008
G01 X43.872Y22.115
G01 X43.879Y22.239
G01 X43.914Y22.392
G01 X44.106Y22.701
G01 X44.415Y22.894
G01 X44.568Y22.929
G01 X44.692Y22.936
G01 X44.799Y22.926
G01 X44.895Y22.904
G01 X44.982Y22.873
G01 X45.061Y22.835
G01 X45.133Y22.79
G01 X45.198Y22.738
G01 X45.258Y22.681
G01 X45.311Y22.617
G01 X45.358Y22.547
G01 X45.399Y22.47
G01 X45.432Y22.386
G01 X45.456Y22.293
G01 X45.47Y22.189
G01 X45.469Y22.071
G01 X45.445Y21.929
G01 X46.087Y21.287
G01 X46.087Y21.287
G01 X46.122Y26.0
G01 X45.477Y26.029
G01 X44.879Y26.627
G01 X44.737Y26.603
G01 X44.619Y26.602
G01 X44.515Y26.616
G01 X44.422Y26.64
G01 X44.338Y26.673
G01 X44.261Y26.713
G01 X44.191Y26.761
G01 X44.127Y26.814
G01 X44.07Y26.874
G01 X44.018Y26.939
G01 X43.973Y27.011
G01 X43.934Y27.09
G01 X43.904Y27.177
G01 X43.882Y27.273
G01 X43.872Y27.38
G01 X43.879Y27.504
G01 X43.914Y27.656
G01 X44.106Y27.966
G01 X44.416Y28.158
G01 X44.568Y28.193
G01 X44.692Y28.2
G01 X44.799Y28.19
G01 X44.895Y28.168
G01 X44.982Y28.138
G01 X45.061Y28.099
G01 X45.133Y28.054
G01 X45.198Y28.002
G01 X45.258Y27.945
G01 X45.311Y27.881
G01 X45.359Y27.811
G01 X45.399Y27.734
G01 X45.432Y27.65
G01 X45.456Y27.557
G01 X45.47Y27.453
G01 X45.469Y27.335
G01 X45.445Y27.193
G01 X45.809Y26.829
G01 X45.809Y26.829
G01 X46.5Y26.829
G01 X48.291Y26.818
G01 X48.304Y26.841
G01 X48.319Y26.864
G01 X48.334Y26.887
G01 X48.351Y26.91
G01 X48.369Y26.933
G01 X48.388Y26.956
G01 X48.409Y26.979
G01 X48.431Y27.002
G01 X48.456Y27.024
G01 X48.482Y27.047
G01 X48.512Y27.07
G01 X48.544Y27.093
G01 X48.58Y27.116
G01 X48.621Y27.139
G01 X48.669Y27.162
G01 X48.727Y27.184
G01 X48.804Y27.207
G01 X48.992Y27.229
G01 X49.181Y27.206
G01 X49.258Y27.183
G01 X49.316Y27.16
G01 X49.363Y27.136
G01 X49.404Y27.113
G01 X49.44Y27.09
G01 X49.472Y27.067
G01 X49.501Y27.044
G01 X49.528Y27.021
G01 X49.552Y26.998
G01 X49.575Y26.975
G01 X49.595Y26.952
G01 X49.614Y26.929
G01 X49.632Y26.906
G01 X49.649Y26.883
G01 X49.664Y26.86
G01 X49.678Y26.837
G01 X49.691Y26.814
G01 X50.934Y26.814
G01 X50.934Y27.264
G01 X52.634Y27.264
G01 X52.634Y26.13
G01 X53.634Y25.13
G01 X53.634Y25.13
G01 X53.634Y13.998
G01 X52.597Y12.961
G01 X52.599Y12.954
G01 X52.601Y12.947
G01 X52.603Y12.939
G01 X52.605Y12.932
G01 X52.607Y12.925
G01 X52.609Y12.918
G01 X52.611Y12.911
G01 X52.613Y12.904
G01 X52.615Y12.886
G01 X52.617Y12.879
G01 X52.62Y12.871
G01 X52.622Y12.853
G01 X52.624Y12.846
G01 X52.626Y12.828
G01 X52.628Y12.81
G01 X52.63Y12.793
G01 X52.632Y12.775
G01 X52.634Y12.714
G01 X52.632Y12.656
G01 X52.63Y12.631
G01 X52.628Y12.617
G01 X52.626Y12.592
G01 X52.624Y12.577
G01 X52.622Y12.574
G01 X52.62Y12.56
G01 X52.618Y12.545
G01 X52.616Y12.542
G01 X52.614Y12.527
G01 X52.612Y12.524
G01 X52.61Y12.509
G01 X52.608Y12.506
G01 X52.606Y12.491
G01 X52.604Y12.488
G01 X52.602Y12.484
G01 X52.599Y12.47
G01 X52.597Y12.466
G01 X53.634Y11.429
G01 X53.634Y11.429
G01 X53.634Y6.868
G01 X49.292Y2.526
G01 X35.063Y2.526
G01 X33.054Y4.535
G01 X26.019Y4.535
G01 X25.02Y5.534
G01 X24.476Y5.534
M5
G01 X46.125Y11.989
M3
G01 X44.838Y11.989
G01 X44.753Y11.873
G01 X44.668Y11.791
G01 X44.584Y11.729
G01 X44.5Y11.683
G01 X44.416Y11.648
G01 X44.332Y11.624
G01 X44.249Y11.61
G01 X44.166Y11.604
G01 X44.083Y11.607
G01 X44.0Y11.619
G01 X43.918Y11.64
G01 X43.836Y11.67
G01 X43.754Y11.712
G01 X43.672Y11.765
G01 X43.59Y11.836
G01 X43.51Y11.93
G01 X43.429Y12.065
G01 X43.354Y12.421
G01 X43.445Y12.774
G01 X43.531Y12.905
G01 X43.615Y12.995
G01 X43.7Y13.063
G01 X43.784Y13.113
G01 X43.868Y13.151
G01 X43.951Y13.178
G01 X44.034Y13.195
G01 X44.118Y13.203
G01 X44.201Y13.202
G01 X44.283Y13.194
G01 X44.366Y13.176
G01 X44.448Y13.148
G01 X44.53Y13.11
G01 X44.612Y13.06
G01 X44.694Y12.995
G01 X44.775Y12.909
G01 X44.855Y12.789
G01 X46.125Y12.789
G01 X46.125Y13.239
G01 X47.825Y13.239
G01 X47.825Y11.539
G01 X46.125Y11.539
G01 X46.125Y11.989
M5
G01 X23.986Y23.084
M3
G01 X21.546Y23.084
G01 X21.546Y22.959
G01 X20.046Y22.959
G01 X20.046Y24.009
G01 X21.546Y24.009
G01 X21.546Y23.884
G01 X23.862Y23.884
G01 X23.926Y24.011
G01 X23.995Y24.106
G01 X24.067Y24.181
G01 X24.142Y24.241
G01 X24.218Y24.29
G01 X24.296Y24.327
G01 X24.375Y24.356
G01 X24.456Y24.376
G01 X24.538Y24.387
G01 X24.621Y24.39
G01 X24.706Y24.384
G01 X24.792Y24.368
G01 X24.88Y24.342
G01 X24.97Y24.303
G01 X25.062Y24.247
G01 X25.158Y24.169
G01 X25.26Y24.05
G01 X25.396Y23.713
G01 X25.369Y23.35
G01 X25.308Y23.206
G01 X25.24Y23.102
G01 X25.169Y23.022
G01 X25.095Y22.957
G01 X25.019Y22.905
G01 X24.942Y22.864
G01 X24.863Y22.832
G01 X24.783Y22.81
G01 X24.701Y22.796
G01 X24.618Y22.79
G01 X24.534Y22.793
G01 X24.448Y22.806
G01 X24.361Y22.828
G01 X24.272Y22.863
G01 X24.181Y22.912
G01 X24.086Y22.982
G01 X23.986Y23.084
M5
G01 X21.546Y18.402
M3
G01 X23.913Y18.402
G01 X23.996Y18.52
G01 X24.079Y18.604
G01 X24.162Y18.667
G01 X24.245Y18.716
G01 X24.328Y18.752
G01 X24.411Y18.778
G01 X24.494Y18.794
G01 X24.577Y18.801
G01 X24.66Y18.8
G01 X24.742Y18.79
G01 X24.825Y18.771
G01 X24.908Y18.743
G01 X24.991Y18.703
G01 X25.074Y18.651
G01 X25.157Y18.582
G01 X25.24Y18.49
G01 X25.323Y18.357
G01 X25.406Y18.002
G01 X25.323Y17.647
G01 X25.24Y17.514
G01 X25.157Y17.422
G01 X25.074Y17.353
G01 X24.991Y17.301
G01 X24.908Y17.261
G01 X24.825Y17.233
G01 X24.742Y17.214
G01 X24.66Y17.204
G01 X24.577Y17.203
G01 X24.494Y17.21
G01 X24.411Y17.226
G01 X24.328Y17.252
G01 X24.245Y17.288
G01 X24.162Y17.337
G01 X24.079Y17.4
G01 X23.996Y17.484
G01 X23.913Y17.602
G01 X21.546Y17.602
G01 X21.546Y17.477
G01 X20.046Y17.477
G01 X20.046Y18.527
G01 X21.546Y18.527
G01 X21.546Y18.402
M5
G01 X21.546Y7.734
M3
G01 X23.913Y7.734
G01 X23.996Y7.852
G01 X24.079Y7.936
G01 X24.162Y7.999
G01 X24.245Y8.048
G01 X24.328Y8.084
G01 X24.411Y8.11
G01 X24.494Y8.126
G01 X24.577Y8.133
G01 X24.66Y8.132
G01 X24.742Y8.122
G01 X24.825Y8.103
G01 X24.908Y8.075
G01 X24.991Y8.035
G01 X25.074Y7.983
G01 X25.157Y7.914
G01 X25.24Y7.822
G01 X25.323Y7.689
G01 X25.406Y7.334
G01 X25.323Y6.979
G01 X25.24Y6.846
G01 X25.157Y6.754
G01 X25.074Y6.685
G01 X24.991Y6.633
G01 X24.908Y6.593
G01 X24.825Y6.565
G01 X24.742Y6.546
G01 X24.66Y6.536
G01 X24.577Y6.535
G01 X24.494Y6.542
G01 X24.411Y6.558
G01 X24.328Y6.584
G01 X24.245Y6.62
G01 X24.162Y6.669
G01 X24.079Y6.732
G01 X23.996Y6.816
G01 X23.913Y6.934
G01 X21.546Y6.934
G01 X21.546Y6.809
G01 X20.046Y6.809
G01 X20.046Y7.859
G01 X21.546Y7.859
G01 X21.546Y7.734
M5
G01 X39.333Y17.811
M3
G01 X39.333Y13.747
G01 X42.816Y10.264
G01 X43.461Y10.264
G01 X43.544Y10.382
G01 X43.627Y10.466
G01 X43.71Y10.529
G01 X43.793Y10.578
G01 X43.876Y10.614
G01 X43.959Y10.64
G01 X44.042Y10.656
G01 X44.125Y10.663
G01 X44.208Y10.662
G01 X44.29Y10.652
G01 X44.373Y10.633
G01 X44.456Y10.605
G01 X44.539Y10.565
G01 X44.622Y10.513
G01 X44.705Y10.444
G01 X44.788Y10.352
G01 X44.871Y10.219
G01 X44.954Y9.864
G01 X44.871Y9.509
G01 X44.788Y9.376
G01 X44.705Y9.284
G01 X44.622Y9.215
G01 X44.539Y9.163
G01 X44.456Y9.123
G01 X44.373Y9.095
G01 X44.29Y9.076
G01 X44.208Y9.066
G01 X44.125Y9.065
G01 X44.042Y9.072
G01 X43.959Y9.088
G01 X43.876Y9.114
G01 X43.793Y9.15
G01 X43.71Y9.199
G01 X43.627Y9.262
G01 X43.544Y9.346
G01 X43.461Y9.464
G01 X42.484Y9.464
G01 X42.484Y9.464
G01 X38.533Y13.415
G01 X38.533Y17.479
G01 X35.225Y20.787
G01 X35.225Y24.831
G01 X33.343Y26.713
G01 X31.108Y26.713
G01 X28.406Y24.011
G01 X28.406Y11.72
G01 X32.019Y8.107
G01 X32.161Y8.131
G01 X32.279Y8.132
G01 X32.383Y8.118
G01 X32.476Y8.094
G01 X32.56Y8.061
G01 X32.637Y8.021
G01 X32.707Y7.973
G01 X32.771Y7.92
G01 X32.828Y7.86
G01 X32.88Y7.795
G01 X32.925Y7.723
G01 X32.964Y7.644
G01 X32.994Y7.557
G01 X33.016Y7.461
G01 X33.026Y7.354
G01 X33.019Y7.23
G01 X32.984Y7.078
G01 X32.792Y6.768
G01 X32.482Y6.576
G01 X32.33Y6.541
G01 X32.206Y6.534
G01 X32.099Y6.544
G01 X32.003Y6.566
G01 X31.916Y6.596
G01 X31.837Y6.635
G01 X31.765Y6.68
G01 X31.7Y6.732
G01 X31.64Y6.789
G01 X31.587Y6.853
G01 X31.539Y6.923
G01 X31.499Y7.0
G01 X31.466Y7.084
G01 X31.442Y7.177
G01 X31.428Y7.281
G01 X31.429Y7.399
G01 X31.453Y7.541
G01 X27.606Y11.388
G01 X27.606Y11.388
G01 X27.606Y24.341
G01 X30.778Y27.513
G01 X33.675Y27.513
G01 X36.025Y25.163
G01 X36.025Y21.119
G01 X39.333Y17.811
M5
G01 X21.546Y13.068
M3
G01 X23.913Y13.068
G01 X23.996Y13.186
G01 X24.079Y13.27
G01 X24.162Y13.333
G01 X24.245Y13.382
G01 X24.328Y13.418
G01 X24.411Y13.444
G01 X24.494Y13.46
G01 X24.577Y13.467
G01 X24.66Y13.466
G01 X24.742Y13.456
G01 X24.825Y13.437
G01 X24.908Y13.409
G01 X24.991Y13.369
G01 X25.074Y13.317
G01 X25.157Y13.248
G01 X25.24Y13.156
G01 X25.323Y13.023
G01 X25.406Y12.668
G01 X25.323Y12.313
G01 X25.24Y12.18
G01 X25.157Y12.088
G01 X25.074Y12.019
G01 X24.991Y11.967
G01 X24.908Y11.927
G01 X24.825Y11.899
G01 X24.742Y11.88
G01 X24.66Y11.87
G01 X24.577Y11.869
G01 X24.494Y11.876
G01 X24.411Y11.892
G01 X24.328Y11.918
G01 X24.245Y11.954
G01 X24.162Y12.003
G01 X24.079Y12.066
G01 X23.996Y12.15
G01 X23.913Y12.268
G01 X21.546Y12.268
G01 X21.546Y12.143
G01 X20.046Y12.143
G01 X20.046Y13.193
G01 X21.546Y13.193
G01 X21.546Y13.068
M5
G01 X2.0Y2.0
M3
G01 X54.07Y2.0
G01 X54.07Y30.194
G01 X2.0Y30.194
G01 X2.0Y2.0
M5

M5 ; Disable End-Effector Signal

; Returning the Deactivating Tool-1
C0 ; PWM Tool select demultiplexer to select tool zero which is the empty tool slot in multiplexers
#TODO X0Y0Z0 ;  ;Remove tool offset coordinate
G00X165Y0Z10.5 ; Go to Tool-1 Home Pos
G00X92 ; Enter Female Kinematic Mount Home Pos
A0 ; Latch OFF Kinematic Mount
G4 P5 ; Wait for Kinematic Mount to fully detach
G00X188 ; Exit Female Kinematic Mount Home Pos


; The following gcode is the PCB holes drill gcode

; Getting and Activating Tool-2, The Tool.Spindle
G00X165Y91Z12 ; Go to Tool-2 Home Pos
G00X188 ; Enter Female Kinematic Mount Home Pos
A1 ; Latch on Kinematic Mount
G4 P5 ; Wait for Kinematic Mount to fully attach
G00X92 ; Exit Female Kinematic Mount Home Pos
#TODO X0Y0Z0 ;  ;Add tool offset coordinate
C2 ; Choosing tool 2 in the choose demultiplexer circuits

F700 ; setting default feedrate

S230 ; sets pwm speed when we enable it

G01 Z20F10 ; Moving Spindle to UP Postion

M3 ; Turn Motor ON
G4 P2 ; dwell for 2 seconds so motor reaches full RPM

G01 X46.975Y12.389F700
G01 Z25F10
G01 Z20F10
G01 X51.784Y17.793F700
G01 Z25F10
G01 Z20F10
G01 X51.784Y26.414F700
G01 Z25F10
G01 Z20F10
G01 X4.54Y10.133F700
G01 Z25F10
G01 Z20F10
G01 X20.796Y16.732F700
G01 Z25F10
G01 Z20F10
G01 X20.796Y6.064F700
G01 Z25F10
G01 Z20F10
G01 X20.796Y22.214F700
G01 Z25F10
G01 Z20F10
G01 X20.796Y11.398F700
G01 Z25F10
G01 Z20F10
G01 X20.796Y18.002F700
G01 Z25F10
G01 Z20F10
G01 X20.796Y19.272F700
G01 Z25F10
G01 Z20F10
G01 X20.796Y7.334F700
G01 Z25F10
G01 Z20F10
G01 X20.796Y8.604F700
G01 Z25F10
G01 Z20F10
G01 X20.796Y23.484F700
G01 Z25F10
G01 Z20F10
G01 X20.796Y24.754F700
G01 Z25F10
G01 Z20F10
G01 X20.796Y12.668F700
G01 Z25F10
G01 Z20F10
G01 X20.796Y13.938F700
G01 Z25F10
G01 Z20F10
G01 X32.226Y7.334F700
G01 Z25F10
G01 Z20F10
G01 X44.672Y27.4F700
G01 Z25F10
G01 Z20F10
G01 X44.672Y24.9F700
G01 Z25F10
G01 Z20F10
G01 X32.226Y12.668F700
G01 Z25F10
G01 Z20F10
G01 X32.226Y23.59F700
G01 Z25F10
G01 Z20F10
G01 X32.226Y18.002F700
G01 Z25F10
G01 Z20F10
G01 X44.672Y22.136F700
G01 Z25F10
G01 Z20F10
G01 X48.99Y26.429F700
G01 Z25F10
G01 Z20F10
G01 X24.606Y7.334F700
G01 Z25F10
G01 Z20F10
G01 X24.606Y12.668F700
G01 Z25F10
G01 Z20F10
G01 X24.606Y23.59F700
G01 Z25F10
G01 Z20F10
G01 X24.606Y18.002F700
G01 Z25F10
G01 Z20F10
G01 X44.154Y12.404F700
G01 Z25F10
G01 Z20F10
G01 X44.154Y9.864F700
G01 Z25F10
G01 Z20F10
G01 X44.154Y7.324F700
G01 Z25F10
G01 Z20F10
G01 X36.534Y7.324F700
G01 Z25F10
G01 Z20F10
G01 X36.534Y9.864F700
G01 Z25F10
G01 Z20F10
G01 X36.534Y12.404F700
G01 Z25F10
G01 Z20F10
G01 X36.534Y14.944F700
G01 Z25F10
G01 Z20F10
G01 X48.99Y18.809F700
G01 Z25F10
G01 Z20F10
G01 X51.784Y15.253F700
G01 Z25F10
G01 Z20F10
G01 X51.784Y12.713F700
G01 Z25F10
G01 Z20F10
G01 X51.784Y10.173F700
G01 Z25F10
G01 Z20F10
G01 X51.784Y7.633F700
G01 Z25F10
G01 Z20F10
G01 X51.784Y23.874F700
G01 Z25F10
G01 Z20F10
G01 X51.784Y21.334F700
G01 Z25F10
G01 Z20F10
G01 X4.54Y12.673F700
G01 Z25F10
G01 Z20F10
G01 X4.54Y15.213F700
G01 Z25F10
G01 Z20F10
G01 X4.54Y17.753F700
G01 Z25F10
G01 Z20F10
G01 X4.54Y20.293F700
G01 Z25F10
G01 Z20F10
G01 X17.753Y12.668F700
G01 Z25F10
G01 Z20F10
G01 X17.753Y7.334F700
G01 Z25F10
G01 Z20F10
G01 X17.753Y23.336F700
G01 Z25F10
G01 Z20F10
G01 X17.753Y17.748F700
G01 Z25F10
G01 Z20F10
G01 X10.133Y12.668F700
G01 Z25F10
G01 Z20F10
G01 X10.133Y7.334F700
G01 Z25F10
G01 Z20F10
G01 X10.133Y23.336F700
G01 Z25F10
G01 Z20F10
G01 X10.133Y17.748F700
G01 Z25F10
G01 Z20F10
G01 X44.154Y14.944F700
G01 Z25F10
G01 Z20F10
G01 X44.672Y19.636F700
G01 Z25F10
G01 Z20F10
G01 X39.592Y25.368F700
G01 Z25F10
G01 Z20F10
G01 X39.592Y22.828F700
G01 Z25F10
G01 Z20F10
G01 X39.592Y20.288F700
G01 Z25F10
G01 Z20F10

M5 ; disabling spindle PWM

; Returning the Deactivating Tool-2
C0 ; PWM Tool select demultiplexer to select tool zero which is the empty tool slot in multiplexers
#TODO X0Y0Z0 ;  ;Remove tool offset coordinate
G00X165Y91Z12 ; Go to Tool-2 Home Pos
G00X92 ; Enter Female Kinematic Mount Home Pos
A0 ; Latch OFF Kinematic Mount
G4 P5 ; Wait for Kinematic Mount to fully detach
G00X188 ; Exit Female Kinematic Mount Home Pos

; Machine deinitialization Sequence... 

G00X0Y0Z0
B0 ; Turn Machine OFF
